; HEADER_BLOCK_START
; generated by OrcaSlicer 1.7.0 on 2023-10-28 at 16:02:53
; total layer number: 175
; HEADER_BLOCK_END

; THUMBNAIL_BLOCK_START
; THUMBNAIL_BLOCK_END

; external perimeters extrusion width = 0.45mm
; perimeters extrusion width = 0.45mm
; infill extrusion width = 0.45mm
; solid infill extrusion width = 0.45mm
; top infill extrusion width = 0.40mm
; first layer extrusion width = 0.42mm

; EXECUTABLE_BLOCK_START
M73 P0 R83
M201 X500 Y500 Z100 E5000
M203 X500 Y500 Z10 E60
M204 P500 R1000 T500
M205 X8.00 Y8.00 Z0.40 E5.00 ; sets the jerk limits, mm/sec
;TYPE:Custom
G90 ; use absolute coordinates
M83 ; extruder relative mode
M140 S105 ; set final bed temp
M104 S150 ; set temporary nozzle temp to prevent oozing during homing
G4 S10 ; allow partial nozzle warmup
G28 ; home all axis
G1 Z50 F240
G1 X2 Y10 F3000
M104 S260 ; set final nozzle temp
M190 S105 ; wait for bed temp to stabilize
M109 S260 ; wait for nozzle temp to stabilize
M73 P0 R82
G1 Z0.28 F240
G92 E0
G1 Y140 E10 F1500 ; prime the nozzle
G1 X2.3 F5000
G92 E0
G1 Y10 E10 F1200 ; prime the nozzle
G92 E0
G90
G21
M83 ; use relative distances for extrusion
; Filament gcode
M106 S0
;LAYER_CHANGE
;Z:0.2
;HEIGHT:0.2
;BEFORE_LAYER_CHANGE
;0.2
G92 E0

G1 E-4 F3600
;_SET_FAN_SPEED_CHANGING_LAYER
G1 Z.4 F9000
G1 X81.853 Y64.137
G1 Z.4
G1 Z.2
G1 E4 F2400
;TYPE:Skirt
;WIDTH:0.42
G1 F900
G1 X82.487 Y63.416 E.02785
G1 X85.625 Y60.287 E.12869
G1 X87.082 Y59.184 E.05307
G1 X88.07 Y58.689 E.03206
G1 X89.484 Y58.246 E.04303
G1 X90.522 Y58.091 E.03046
G1 X92.619 Y58.063 E.0609
G1 X134.854 Y58.071 E1.22627
G1 X135.768 Y58.128 E.02658
G1 X136.854 Y58.329 E.03206
G1 X137.902 Y58.677 E.03206
G1 X138.892 Y59.166 E.03206
G1 X139.806 Y59.786 E.03206
G1 X140.534 Y60.425 E.02813
G1 X143.534 Y63.426 E.12318
G1 X144.368 Y64.414 E.03756
G1 X144.95 Y65.353 E.03206
G1 X145.398 Y66.362 E.03207
G1 X145.703 Y67.424 E.03206
G1 X145.882 Y68.973 E.04528
G1 X145.876 Y110.907 E1.21751
G1 X145.819 Y111.82 E.02658
G1 X145.618 Y112.906 E.03206
G1 X145.27 Y113.954 E.03207
G1 X144.781 Y114.945 E.03207
G1 X144.161 Y115.859 E.03206
G1 X143.522 Y116.586 E.02813
G1 X140.521 Y119.586 E.12318
G1 X139.533 Y120.42 E.03756
G1 X138.594 Y121.002 E.03206
G1 X137.585 Y121.45 E.03206
G1 X136.523 Y121.755 E.03207
G1 X134.974 Y121.934 E.04528
G1 X88.148 Y121.928 E1.35956
G1 X87.234 Y121.871 E.02658
M73 P1 R82
G1 X86.148 Y121.67 E.03206
G1 X84.753 Y121.17 E.04303
G1 X83.787 Y120.635 E.03206
G1 X82.903 Y119.972 E.03206
G1 X81.665 Y118.628 E.05307
G1 X81.076 Y117.694 E.03206
G1 X80.531 Y116.439 E.03973
G1 X74.309 Y96.527 E.60568
G1 X74.115 Y94.792 E.05069
G1 X74.115 Y91.79 E.08716
G1 X74.223 Y90.501 E.03756
G1 X80.426 Y66.949 E.70712
G1 X80.743 Y66.04 E.02795
G1 X81.232 Y65.05 E.03207
G1 X81.831 Y64.17 E.0309
G1 X82.142 Y64.382 F9000
G1 F900
G1 X82.16 Y64.356 E.00093
G1 X82.753 Y63.683 E.02605
G1 X85.873 Y60.571 E.12793
G1 X87.289 Y59.5 E.05156
G1 X88.535 Y58.911 E.04002
G1 X89.546 Y58.618 E.03056
G1 X90.54 Y58.468 E.02918
G1 X92.619 Y58.44 E.06036
G1 X134.854 Y58.448 E1.22627
G1 X135.742 Y58.504 E.02583
G1 X136.777 Y58.698 E.03056
G1 X137.775 Y59.032 E.03056
G1 X138.718 Y59.5 E.03056
G1 X139.587 Y60.093 E.03056
G1 X140.268 Y60.692 E.02632
G1 X143.855 Y64.359 E.14897
G1 X144.45 Y65.228 E.03056
G1 X145.038 Y66.475 E.04002
G1 X145.331 Y67.486 E.03056
G1 X145.505 Y68.991 E.044
G1 X145.499 Y110.907 E1.21697
G1 X145.443 Y111.794 E.02583
G1 X145.249 Y112.829 E.03056
G1 X144.915 Y113.827 E.03056
G1 X144.447 Y114.77 E.03056
G1 X143.854 Y115.64 E.03056
G1 X143.255 Y116.32 E.02631
G1 X139.588 Y119.908 E.14897
G1 X138.719 Y120.502 E.03056
G1 X137.472 Y121.09 E.04002
G1 X136.461 Y121.383 E.03056
G1 X134.956 Y121.558 E.044
G1 X88.148 Y121.551 E1.35902
G1 X87.26 Y121.495 E.02583
M73 P1 R81
G1 X86.226 Y121.301 E.03056
G1 X84.928 Y120.835 E.04002
G1 X84.006 Y120.328 E.03056
G1 X83.162 Y119.698 E.03056
G1 X81.959 Y118.392 E.05156
G1 X81.4 Y117.5 E.03056
G1 X80.89 Y116.326 E.03718
G1 X74.673 Y96.429 E.60522
G1 X74.492 Y94.792 E.04781
G1 X74.492 Y91.79 E.08716
G1 X74.592 Y90.578 E.0353
G1 X80.791 Y67.046 E.70655
G1 X81.098 Y66.168 E.02701
G1 X81.566 Y65.225 E.03056
G1 X82.119 Y64.415 E.02847
; printing object Extruder_Bracket_version_3_-_face.stl id:0 copy 0
G1 E-2.8 F3600
;WIPE_START
G1 F900
G1 X82.16 Y64.356 E-.08633
G1 X82.753 Y63.683 E-1.07658
G1 X82.775 Y63.661 E-.03709
;WIPE_END
G1 Z.6 F9000
G1 X84.205 Y65.907 Z.6
G1 Z.2
G1 E4 F2400
;TYPE:Brim
G1 F900
G1 X84.241 Y65.857 E.00177
G1 X84.571 Y65.494 E.01424
G1 X87.563 Y62.501 E.12287
G1 X88.096 Y62.037 E.02052
G1 X88.682 Y61.654 E.02033
G1 X89.315 Y61.355 E.02033
G1 X89.983 Y61.146 E.02033
G1 X90.675 Y61.03 E.02038
G1 X91.173 Y61.006 E.01446
G1 X92.618 Y61.006 E.04197
G1 X134.847 Y61.014 E1.22608
G1 X135.552 Y61.062 E.02052
G1 X136.237 Y61.206 E.02033
G1 X136.896 Y61.442 E.02033
G1 X137.517 Y61.767 E.02033
G1 X138.088 Y62.175 E.02038
G1 X138.456 Y62.509 E.01443
G1 X141.448 Y65.501 E.12286
G1 X141.912 Y66.034 E.02052
G1 X142.295 Y66.621 E.02033
G1 X142.594 Y67.254 E.02033
G1 X142.803 Y67.922 E.02033
G1 X142.919 Y68.614 E.02038
G1 X142.943 Y69.111 E.01443
G1 X142.933 Y110.899 E1.2133
G1 X142.885 Y111.604 E.02052
G1 X142.741 Y112.29 E.02033
G1 X142.505 Y112.949 E.02033
G1 X142.18 Y113.569 E.02033
G1 X141.772 Y114.141 E.02038
G1 X141.438 Y114.508 E.01442
G1 X138.446 Y117.5 E.12286
G1 X137.913 Y117.964 E.02052
G1 X137.326 Y118.347 E.02033
G1 X136.693 Y118.646 E.02033
G1 X136.025 Y118.855 E.02033
G1 X135.333 Y118.971 E.02038
G1 X134.837 Y118.995 E.01442
G1 X88.155 Y118.985 E1.35535
G1 X87.45 Y118.936 E.02052
G1 X86.765 Y118.793 E.02033
G1 X86.106 Y118.556 E.02033
G1 X85.485 Y118.232 E.02033
G1 X84.915 Y117.825 E.02033
G1 X84.407 Y117.344 E.02033
G1 X83.969 Y116.798 E.02033
G1 X83.61 Y116.197 E.02033
G1 X83.337 Y115.552 E.02033
G1 X83.156 Y114.878 E.02025
G1 X83.059 Y113.886 E.02896
G1 X83.058 Y100.071 E.40109
G1 X83.01 Y99.945 E.00392
G1 X82.87 Y99.883 E.00446
G1 X82.155 Y99.883 E.02075
G1 X81.45 Y99.834 E.02052
G1 X80.765 Y99.691 E.02033
G1 X80.106 Y99.454 E.02033
G1 X79.485 Y99.13 E.02033
G1 X78.915 Y98.724 E.02033
G1 X78.406 Y98.243 E.02033
G1 X77.968 Y97.697 E.02033
G1 X77.609 Y97.095 E.02033
G1 X77.336 Y96.451 E.02033
G1 X77.155 Y95.777 E.02025
G1 X77.058 Y94.783 E.029
G1 X77.058 Y91.797 E.08671
G1 X77.106 Y91.092 E.02052
G1 X77.25 Y90.406 E.02033
G1 X77.486 Y89.747 E.02033
G1 X77.81 Y89.127 E.02033
G1 X78.218 Y88.555 E.02038
G1 X78.552 Y88.188 E.01442
G1 X83.005 Y83.733 E.18287
G1 X83.06 Y83.6 E.00418
G1 X83.077 Y69.097 E.42109
G1 X83.126 Y68.392 E.02052
G1 X83.27 Y67.707 E.02033
G1 X83.507 Y67.048 E.02033
G1 X83.833 Y66.428 E.02033
G1 X84.182 Y65.939 E.01746
G1 X84.489 Y66.158 F9000
G1 F900
G1 X84.531 Y66.1 E.0021
G1 X84.842 Y65.756 E.01345
G1 X87.818 Y62.78 E.12219
G1 X88.33 Y62.334 E.01972
G1 X88.86 Y61.988 E.01837
G1 X89.445 Y61.71 E.01882
G1 X90.079 Y61.512 E.01927
G1 X90.722 Y61.405 E.01895
G1 X91.185 Y61.383 E.01344
G1 X92.618 Y61.383 E.04162
G1 X134.83 Y61.391 E1.22559
G1 X135.492 Y61.436 E.01927
G1 X136.127 Y61.568 E.01882
G1 X136.737 Y61.786 E.01882
G1 X137.312 Y62.085 E.01882
G1 X137.846 Y62.465 E.01902
G1 X138.198 Y62.784 E.01379
G1 X141.169 Y65.756 E.12202
G1 X141.605 Y66.256 E.01927
G1 X141.961 Y66.798 E.01882
G1 X142.244 Y67.399 E.01927
G1 X142.436 Y68.017 E.01882
G1 X142.542 Y68.648 E.01857
G1 X142.565 Y69.122 E.01379
G1 X142.556 Y110.882 E1.21247
G1 X142.511 Y111.545 E.01927
G1 X142.379 Y112.179 E.01882
G1 X142.161 Y112.79 E.01882
G1 X141.862 Y113.364 E.01882
G1 X141.482 Y113.898 E.01902
G1 X141.163 Y114.25 E.01378
G1 X138.191 Y117.221 E.12202
G1 X137.691 Y117.657 E.01927
G1 X137.149 Y118.013 E.01882
G1 X136.548 Y118.296 E.01927
G1 X135.93 Y118.489 E.01882
G1 X135.299 Y118.594 E.01857
G1 X134.825 Y118.618 E.01378
G1 X88.172 Y118.608 E1.35452
G1 X87.494 Y118.56 E.01972
G1 X86.86 Y118.426 E.01882
G1 X86.251 Y118.206 E.01882
G1 X85.677 Y117.905 E.01882
G1 X85.15 Y117.528 E.01882
G1 X84.69 Y117.093 E.01837
G1 X84.284 Y116.588 E.01882
G1 X83.944 Y116.018 E.01927
G1 X83.692 Y115.421 E.01882
G1 X83.527 Y114.801 E.01863
G1 X83.437 Y113.873 E.02708
G1 X83.435 Y100.082 E.40041
G1 X83.406 Y99.927 E.00458
G1 X83.366 Y99.822 E.00325
G1 X83.263 Y99.669 E.00536
G1 X83.034 Y99.543 E.0076
G1 X82.858 Y99.506 E.00523
G1 X82.164 Y99.505 E.02014
G1 X81.494 Y99.458 E.0195
G1 X80.86 Y99.324 E.01882
G1 X80.25 Y99.105 E.01882
G1 X79.677 Y98.803 E.01882
G1 X79.149 Y98.426 E.01882
G1 X78.679 Y97.98 E.01882
G1 X78.275 Y97.474 E.01882
G1 X77.943 Y96.917 E.01882
G1 X77.696 Y96.335 E.01837
G1 X77.526 Y95.7 E.01908
G1 X77.435 Y94.759 E.02744
G1 X77.435 Y91.814 E.08553
G1 X77.482 Y91.136 E.01972
G1 X77.616 Y90.502 E.01882
G1 X77.836 Y89.892 E.01882
G1 X78.137 Y89.318 E.01882
G1 X78.508 Y88.798 E.01857
G1 X78.827 Y88.446 E.01378
M73 P2 R81
G1 X83.264 Y84.008 E.1822
G1 X83.358 Y83.868 E.0049
G1 X83.404 Y83.755 E.00354
G1 X83.437 Y83.59 E.0049
G1 X83.454 Y69.114 E.42027
G1 X83.502 Y68.437 E.01972
G1 X83.637 Y67.803 E.01882
G1 X83.857 Y67.193 E.01882
G1 X84.159 Y66.62 E.01882
G1 X84.466 Y66.191 E.01531
G1 X84.772 Y66.41 F9000
G1 F900
G1 X84.821 Y66.342 E.00244
G1 X85.113 Y66.018 E.01266
G1 X88.072 Y63.059 E.1215
G1 X88.565 Y62.632 E.01893
G1 X89.052 Y62.315 E.01687
G1 X89.576 Y62.066 E.01685
G1 X90.174 Y61.878 E.0182
G1 X90.769 Y61.78 E.01751
G1 X91.196 Y61.76 E.01242
G1 X92.618 Y61.76 E.04128
G1 X134.813 Y61.768 E1.2251
G1 X135.433 Y61.81 E.01804
G1 X136.017 Y61.931 E.01731
G1 X136.579 Y62.13 E.0173
G1 X137.108 Y62.404 E.0173
G1 X137.604 Y62.756 E.01765
G1 X137.94 Y63.059 E.01314
G1 X140.891 Y66.011 E.12118
G1 X141.299 Y66.479 E.01804
G1 X141.634 Y66.99 E.01775
G1 X141.894 Y67.543 E.01774
G1 X142.07 Y68.113 E.0173
G1 X142.165 Y68.682 E.01677
G1 X142.188 Y69.135 E.01315
G1 X142.179 Y110.866 E1.21162
G1 X142.137 Y111.485 E.01804
G1 X142.017 Y112.069 E.01731
G1 X141.817 Y112.631 E.0173
G1 X141.543 Y113.16 E.0173
G1 X141.191 Y113.656 E.01765
G1 X140.888 Y113.992 E.01314
G1 X137.936 Y116.943 E.12118
G1 X137.468 Y117.351 E.01804
G1 X136.957 Y117.686 E.01775
G1 X136.404 Y117.946 E.01774
G1 X135.834 Y118.122 E.0173
G1 X135.265 Y118.217 E.01677
G1 X134.813 Y118.241 E.01315
G1 X88.189 Y118.231 E1.35366
G1 X87.539 Y118.184 E.01892
G1 X86.956 Y118.06 E.0173
G1 X86.41 Y117.863 E.01685
G1 X85.869 Y117.579 E.01776
G1 X85.385 Y117.231 E.01731
G1 X84.963 Y116.831 E.01687
G1 X84.59 Y116.366 E.01731
G1 X84.285 Y115.854 E.01728
G1 X84.053 Y115.306 E.01729
G1 X83.898 Y114.725 E.01746
G1 X83.814 Y113.86 E.02523
G1 X83.812 Y100.09 E.39979
G1 X83.778 Y99.864 E.00664
G1 X83.721 Y99.695 E.00518
G1 X83.582 Y99.468 E.00773
G1 X83.433 Y99.332 E.00586
G1 X83.106 Y99.173 E.01054
G1 X82.848 Y99.129 E.00761
G1 X82.173 Y99.128 E.01959
G1 X81.539 Y99.082 E.01847
G1 X80.956 Y98.958 E.0173
G1 X80.396 Y98.755 E.01731
G1 X79.869 Y98.477 E.0173
G1 X79.384 Y98.129 E.01731
G1 X78.953 Y97.719 E.0173
G1 X78.581 Y97.252 E.01731
G1 X78.284 Y96.753 E.01687
G1 X78.057 Y96.219 E.01686
G1 X77.897 Y95.623 E.0179
G1 X77.812 Y94.736 E.02589
G1 X77.812 Y91.831 E.08434
G1 X77.856 Y91.196 E.01847
G1 X77.978 Y90.613 E.0173
G1 X78.179 Y90.052 E.01731
G1 X78.455 Y89.523 E.01732
G1 X78.799 Y89.04 E.01722
G1 X79.102 Y88.704 E.01314
G1 X83.524 Y84.281 E.18158
G1 X83.666 Y84.085 E.00703
G1 X83.775 Y83.82 E.00832
G1 X83.814 Y83.581 E.00703
G1 X83.831 Y69.132 E.41951
G1 X83.878 Y68.482 E.01892
G1 X84.003 Y67.899 E.0173
G1 X84.206 Y67.339 E.0173
G1 X84.485 Y66.812 E.01731
G1 X84.749 Y66.443 E.01318
G1 X85.056 Y66.662 F9000
G1 F900
G1 X85.112 Y66.584 E.00279
G1 X85.385 Y66.28 E.01186
G1 X88.326 Y63.338 E.1208
G1 X88.799 Y62.929 E.01813
G1 X89.23 Y62.649 E.01494
G1 X89.707 Y62.421 E.01534
G1 X90.269 Y62.245 E.01712
G1 X90.803 Y62.157 E.01569
G1 X91.203 Y62.137 E.01163
G1 X92.618 Y62.137 E.04109
G1 X134.797 Y62.145 E1.22462
G1 X135.374 Y62.184 E.01681
G1 X135.908 Y62.293 E.01581
G1 X136.435 Y62.48 E.01624
G1 X136.917 Y62.732 E.01579
G1 X137.373 Y63.055 E.01621
G1 X137.682 Y63.334 E.0121
G1 X140.612 Y66.266 E.12033
G1 X140.993 Y66.701 E.0168
G1 X141.308 Y67.182 E.01668
G1 X141.544 Y67.687 E.0162
G1 X141.704 Y68.207 E.01579
G1 X141.789 Y68.717 E.015
G1 X141.811 Y69.147 E.01251
G1 X141.802 Y110.849 E1.21078
G1 X141.763 Y111.427 E.01681
G1 X141.654 Y111.96 E.01581
G1 X141.467 Y112.487 E.01624
G1 X141.216 Y112.97 E.01579
G1 X140.892 Y113.425 E.01621
G1 X140.613 Y113.734 E.0121
G1 X137.681 Y116.664 E.12033
G1 X137.246 Y117.045 E.0168
G1 X136.779 Y117.352 E.01622
G1 X136.26 Y117.596 E.01666
G1 X135.74 Y117.756 E.01579
M73 P2 R80
G1 X135.23 Y117.841 E.015
G1 X134.8 Y117.864 E.01251
G1 X88.207 Y117.854 E1.35279
G1 X87.585 Y117.808 E.01811
G1 X87.068 Y117.698 E.01534
G1 X86.57 Y117.52 E.01535
G1 X86.061 Y117.253 E.01669
G1 X85.62 Y116.934 E.01579
G1 X85.237 Y116.569 E.01538
G1 X84.897 Y116.143 E.01581
G1 X84.626 Y115.69 E.01532
G1 X84.414 Y115.191 E.01576
G1 X84.27 Y114.648 E.01629
G1 X84.192 Y113.847 E.02338
G1 X84.189 Y100.099 E.39917
G1 X84.133 Y99.737 E.01064
G1 X84.037 Y99.489 E.00771
G1 X83.91 Y99.282 E.00706
G1 X83.69 Y99.057 E.00912
G1 X83.59 Y98.989 E.00352
G1 X83.278 Y98.838 E.01007
G1 X83.164 Y98.801 E.00348
G1 X82.84 Y98.751 E.00952
G1 X82.191 Y98.751 E.01883
G1 X81.585 Y98.706 E.01766
G1 X81.053 Y98.592 E.01579
G1 X80.542 Y98.406 E.01579
G1 X80.061 Y98.151 E.01579
G1 X79.62 Y97.833 E.01579
G1 X79.237 Y97.469 E.01534
G1 X78.897 Y97.043 E.01581
G1 X78.625 Y96.589 E.01539
G1 X78.417 Y96.103 E.01533
G1 X78.269 Y95.547 E.01672
G1 X78.189 Y94.712 E.02434
G1 X78.189 Y91.848 E.08316
G1 X78.23 Y91.256 E.01723
G1 X78.34 Y90.723 E.01579
G1 X78.523 Y90.211 E.01579
G1 X78.774 Y89.727 E.01582
G1 X79.09 Y89.281 E.01586
G1 X79.378 Y88.961 E.0125
G1 X83.784 Y84.555 E.18093
G1 X84.018 Y84.219 E.01187
G1 X84.149 Y83.871 E.01082
G1 X84.191 Y83.573 E.00871
G1 X84.208 Y69.15 E.41877
G1 X84.254 Y68.528 E.01811
G1 X84.369 Y67.996 E.01578
G1 X84.556 Y67.486 E.01579
G1 X84.811 Y67.005 E.01581
G1 X85.033 Y66.695 E.01106
G1 X85.339 Y66.914 F9000
G1 F900
G1 X85.403 Y66.825 E.00316
G1 X85.657 Y66.542 E.01105
G1 X88.58 Y63.617 E.12008
G1 X89.032 Y63.227 E.01733
G1 X89.421 Y62.975 E.01346
G1 X89.838 Y62.776 E.01339
G1 X90.365 Y62.611 E.01603
G1 X90.836 Y62.533 E.01388
G1 X91.209 Y62.514 E.01084
G1 X92.618 Y62.514 E.0409
G1 X134.78 Y62.522 E1.22413
G1 X135.316 Y62.558 E.0156
G1 X135.814 Y62.66 E.01476
G1 X136.291 Y62.83 E.01471
G1 X136.727 Y63.058 E.01427
G1 X137.141 Y63.354 E.01478
G1 X137.424 Y63.61 E.01108
G1 X140.334 Y66.52 E.11949
G1 X140.686 Y66.924 E.01556
G1 X140.973 Y67.359 E.01514
G1 X141.193 Y67.831 E.01511
G1 X141.337 Y68.301 E.01429
G1 X141.412 Y68.751 E.01325
G1 X141.434 Y69.16 E.01187
G1 X141.425 Y110.832 E1.20992
G1 X141.389 Y111.368 E.0156
G1 X141.287 Y111.866 E.01476
G1 X141.117 Y112.343 E.01471
G1 X140.889 Y112.779 E.01427
G1 X140.593 Y113.193 E.01479
G1 X140.337 Y113.476 E.01107
G1 X137.427 Y116.386 E.11949
G1 X137.023 Y116.739 E.01558
G1 X136.587 Y117.026 E.01515
G1 X136.116 Y117.246 E.01509
G1 X135.646 Y117.389 E.01427
G1 X135.196 Y117.464 E.01325
G1 X134.787 Y117.486 E.01187
G1 X88.225 Y117.477 E1.3519
G1 X87.63 Y117.433 E.01731
G1 X87.164 Y117.332 E.01385
G1 X86.729 Y117.176 E.0134
G1 X86.254 Y116.926 E.01561
G1 X85.856 Y116.638 E.01426
G1 X85.51 Y116.308 E.01388
G1 X85.204 Y115.921 E.01432
G1 X84.96 Y115.512 E.01383
G1 X84.774 Y115.076 E.01377
G1 X84.641 Y114.572 E.01511
G1 X84.57 Y113.834 E.02153
G1 X84.566 Y100.108 E.39852
G1 X84.48 Y99.59 E.01524
G1 X84.392 Y99.361 E.00711
G1 X84.236 Y99.093 E.00901
G1 X83.966 Y98.8 E.01157
G1 X83.747 Y98.646 E.00778
G1 X83.45 Y98.502 E.00957
G1 X83.213 Y98.427 E.00723
G1 X82.832 Y98.374 E.01115
G1 X82.209 Y98.374 E.01809
G1 X81.631 Y98.331 E.01685
G1 X81.165 Y98.23 E.01382
G1 X80.703 Y98.063 E.01428
G1 X80.267 Y97.834 E.01428
G1 X79.867 Y97.547 E.0143
G1 X79.521 Y97.218 E.01385
G1 X79.212 Y96.834 E.01432
G1 X78.966 Y96.423 E.01391
G1 X78.778 Y95.987 E.01379
G1 X78.64 Y95.47 E.01553
G1 X78.566 Y94.689 E.02279
G1 X78.566 Y91.865 E.08199
G1 X78.604 Y91.315 E.016
G1 X78.703 Y90.833 E.01429
G1 X78.873 Y90.355 E.01473
G1 X79.101 Y89.918 E.01431
G1 X79.389 Y89.512 E.01444
G1 X79.653 Y89.219 E.01146
