; HEADER_BLOCK_START
; generated by OrcaSlicer 1.7.0 on 2023-10-28 at 16:01:54
; total layer number: 83
; HEADER_BLOCK_END

; THUMBNAIL_BLOCK_START
; THUMBNAIL_BLOCK_END

; external perimeters extrusion width = 0.45mm
; perimeters extrusion width = 0.45mm
; infill extrusion width = 0.45mm
; solid infill extrusion width = 0.45mm
; top infill extrusion width = 0.40mm
; first layer extrusion width = 0.42mm

; EXECUTABLE_BLOCK_START
M73 P0 R46
M201 X500 Y500 Z100 E5000
M203 X500 Y500 Z10 E60
M204 P500 R1000 T500
M205 X8.00 Y8.00 Z0.40 E5.00 ; sets the jerk limits, mm/sec
;TYPE:Custom
G90 ; use absolute coordinates
M83 ; extruder relative mode
M140 S105 ; set final bed temp
M104 S150 ; set temporary nozzle temp to prevent oozing during homing
G4 S10 ; allow partial nozzle warmup
G28 ; home all axis
G1 Z50 F240
G1 X2 Y10 F3000
M104 S260 ; set final nozzle temp
M190 S105 ; wait for bed temp to stabilize
M109 S260 ; wait for nozzle temp to stabilize
G1 Z0.28 F240
G92 E0
M73 P0 R45
G1 Y140 E10 F1500 ; prime the nozzle
G1 X2.3 F5000
G92 E0
M73 P1 R45
G1 Y10 E10 F1200 ; prime the nozzle
G92 E0
G90
G21
M83 ; use relative distances for extrusion
; Filament gcode
M106 S0
;LAYER_CHANGE
;Z:0.2
;HEIGHT:0.2
;BEFORE_LAYER_CHANGE
;0.2
G92 E0

G1 E-4 F3600
;_SET_FAN_SPEED_CHANGING_LAYER
G1 Z.4 F9000
G1 X80.668 Y94.715
G1 Z.4
G1 Z.2
G1 E4 F2400
;TYPE:Skirt
;WIDTH:0.42
G1 F900
G1 X81.755 Y94.399 E.03287
G1 X117.59 Y91.687 E1.0434
G1 X131.864 Y91.678 E.41445
G1 X133.812 Y92.485 E.0612
G1 X137.912 Y96.585 E.16835
G1 X138.718 Y98.532 E.0612
G1 X138.718 Y116.232 E.51389
G1 X137.912 Y118.18 E.0612
G1 X133.812 Y122.28 E.16835
G1 X131.864 Y123.086 E.0612
G1 X86.065 Y123.086 E1.32973
G1 X84.118 Y122.28 E.0612
G1 X80.017 Y118.179 E.16837
G1 X79.211 Y116.232 E.06119
G1 X79.209 Y97.145 E.55416
G1 X79.601 Y95.728 E.0427
G1 X80.639 Y94.742 E.04154
G1 X80.905 Y95.061 F9000
G1 F900
G1 X81.023 Y94.962 E.00446
G1 X81.783 Y94.775 E.02273
G1 X117.618 Y92.063 E1.0434
G1 X131.864 Y92.055 E.41362
G1 X133.545 Y92.752 E.05282
G1 X137.645 Y96.851 E.16835
G1 X138.341 Y98.532 E.05282
G1 X138.341 Y116.232 E.51389
G1 X137.645 Y117.913 E.05282
G1 X133.545 Y122.013 E.16835
G1 X131.864 Y122.709 E.05282
G1 X86.065 Y122.709 E1.32973
M73 P2 R45
G1 X84.384 Y122.013 E.05282
G1 X80.284 Y117.912 E.16837
G1 X79.588 Y116.232 E.05282
G1 X79.586 Y97.145 E.55416
G1 X79.977 Y95.838 E.03961
G1 X80.875 Y95.086 E.03399
; printing object Extruder_Bracket_version_3_-_carriage.stl id:0 copy 0
G1 E-2.8 F3600
;WIPE_START
G1 F900
G1 X81.023 Y94.962 E-.23232
G1 X81.783 Y94.775 E-.93942
G1 X81.807 Y94.773 E-.02826
;WIPE_END
G1 Z.6 F9000
G1 X105.859 Y101.287 Z.6
G1 Z.2
G1 E4 F2400
;TYPE:Inner wall
;WIDTH:0.419999
G1 F900
G1 X105.885 Y101.433 E.0043
G1 X106.004 Y101.637 E.00686
G1 X106.255 Y101.816 E.00896
G1 X106.498 Y101.863 E.00717
G1 X117.323 Y101.854 E.3143
G1 X118.057 Y101.84 E.02131
G1 X118.313 Y101.727 E.00812
G1 X118.512 Y101.488 E.00903
G1 X118.579 Y101.202 E.00855
G1 X118.578 Y95.163 E.17533
G1 X131.562 Y95.162 E.37698
G1 X135.234 Y98.835 E.15079
G1 X135.234 Y115.93 E.49633
G1 X131.562 Y119.602 E.15079
G1 X111.095 Y119.602 E.59424
G1 X111.089 Y115.542 E.11788
G1 X110.941 Y114.586 E.02809
G1 X110.548 Y113.696 E.02824
G1 X109.939 Y112.938 E.02824
G1 X109.154 Y112.364 E.02824
G1 X108.247 Y112.012 E.02824
G1 X107.45 Y111.907 E.02334
G1 X106.914 Y111.955 E.01561
G1 X106.319 Y112.056 E.01755
G1 X105.429 Y112.449 E.02824
G1 X104.85 Y112.893 E.02117
G1 X104.582 Y113.174 E.01129
G1 X104.096 Y113.843 E.024
G1 X103.789 Y114.586 E.02334
G1 X103.723 Y114.913 E.00969
G1 X103.635 Y115.627 E.02088
G1 X103.635 Y119.602 E.11541
G1 X86.368 Y119.602 E.50133
G1 X82.695 Y115.929 E.15081
G1 X82.693 Y98.075 E.51837
G1 X107.197 Y98.069 E.71146
G1 X108.1 Y98.039 E.02623
G1 X107.783 Y98.304 E.01199
G1 X106.037 Y100.045 E.07159
G1 X105.883 Y100.289 E.00837
M73 P2 R44
G1 X105.846 Y100.506 E.00641
G1 X105.846 Y101.211 E.02048
G1 X105.852 Y101.248 E.00107
G1 X106.266 Y101.211 F9000
;TYPE:Outer wall
;WIDTH:0.505839
G1 F900
G1 X106.336 Y101.378 E.00644
G1 X106.497 Y101.443 E.00619
G1 X117.933 Y101.433 E.40762
G1 X118.097 Y101.36 E.00638
G1 X118.159 Y101.202 E.00605
G1 X118.158 Y94.743 E.23021
G1 X131.736 Y94.742 E.48398
G1 X135.654 Y98.661 E.19751
G1 X135.654 Y116.104 E.62172
G1 X131.736 Y120.022 E.19752
G1 X110.675 Y120.022 E.75069
G1 X110.673 Y115.597 E.15774
G1 X110.553 Y114.747 E.0306
G1 X110.215 Y113.952 E.03079
G1 X109.683 Y113.271 E.03079
G1 X108.993 Y112.752 E.03079
G1 X108.192 Y112.428 E.03079
G1 X107.395 Y112.323 E.02865
G1 X106.479 Y112.444 E.03292
G1 X105.684 Y112.782 E.03079
G1 X105.106 Y113.226 E.02599
G1 X104.915 Y113.43 E.00996
G1 X104.484 Y114.004 E.02558
G1 X104.177 Y114.747 E.02865
G1 X104.055 Y115.627 E.03168
G1 X104.055 Y120.022 E.15666
G1 X86.194 Y120.022 E.63663
G1 X82.275 Y116.103 E.19754
G1 X82.273 Y97.655 E.65754
G1 X107.197 Y97.649 E.88839
G1 X108.193 Y97.616 E.03551
M73 P3 R44
G1 X108.691 Y97.549 E.01791
G1 X109.207 Y97.571 E.01841
G1 X108.872 Y97.937 E.01768
G1 X108.08 Y98.601 E.03685
G1 X106.334 Y100.342 E.08789
G1 X106.266 Y100.506 E.00633
G1 X106.266 Y101.171 E.02372
G1 E-2.8 F3600
;WIPE_START
G1 F900
G1 X106.336 Y101.378 E-.26171
G1 X106.497 Y101.443 E-.20852
G1 X107.106 Y101.442 E-.72977
;WIPE_END
G1 Z.6 F9000
G1 X86.373 Y117.815 Z.6
G1 Z.2
G1 E4 F2400
;TYPE:Inner wall
;WIDTH:0.419999
G1 F900
G1 X85.845 Y117.468 E.01834
G1 X85.331 Y117.026 E.01968
G1 X84.88 Y116.52 E.01968
G1 X84.499 Y115.959 E.01968
G1 X84.195 Y115.354 E.01968
G1 X83.971 Y114.714 E.01968
G1 X83.845 Y114.106 E.01804
G1 X83.784 Y113.382 E.02109
G1 X83.823 Y112.698 E.01989
G1 X83.938 Y112.088 E.01804
G1 X84.16 Y111.396 E.02109
G1 X84.457 Y110.778 E.01989
G1 X84.797 Y110.259 E.01804
G1 X85.266 Y109.704 E.02109
G1 X85.777 Y109.248 E.01989
G1 X86.337 Y108.867 E.01968
G1 X86.943 Y108.562 E.01968
G1 X87.583 Y108.339 E.01968
G1 X88.246 Y108.201 E.01968
G1 X88.866 Y108.155 E.01804
G1 X89.592 Y108.189 E.02109
G1 X90.265 Y108.317 E.01989
G1 X90.908 Y108.529 E.01968
G1 X91.518 Y108.824 E.01968
G1 X92.085 Y109.196 E.01968
G1 X92.598 Y109.638 E.01968
G1 X93.049 Y110.144 E.01968
G1 X93.43 Y110.705 E.01968
G1 X93.735 Y111.31 E.01968
G1 X93.958 Y111.95 E.01968
G1 X94.096 Y112.614 E.01968
G1 X94.146 Y113.289 E.01968
G1 X94.118 Y113.802 E.0149
G1 X93.98 Y114.632 E.02442
G1 X93.768 Y115.275 E.01968
G1 X93.473 Y115.886 E.01968
G1 X93.101 Y116.452 E.01968
G1 X92.658 Y116.965 E.01968
G1 X92.153 Y117.416 E.01968
G1 X91.592 Y117.798 E.01968
G1 X90.987 Y118.102 E.01968
G1 X90.347 Y118.325 E.01968
G1 X89.683 Y118.463 E.01968
G1 X89.007 Y118.513 E.01968
G1 X88.331 Y118.474 E.01968
G1 X87.665 Y118.348 E.01968
G1 X87.021 Y118.135 E.01968
G1 X86.411 Y117.84 E.01968
G1 X86.406 Y117.837 E.00018
G1 X86.631 Y117.48 F9000
;TYPE:Outer wall
;WIDTH:0.505839
G1 F900
G1 X86.597 Y117.464 E.00134
G1 X86.078 Y117.119 E.0222
G1 X85.608 Y116.71 E.0222
G1 X85.196 Y116.243 E.0222
G1 X84.848 Y115.726 E.0222
G1 X84.571 Y115.168 E.0222
G1 X84.369 Y114.579 E.0222
G1 X84.257 Y114.024 E.02019
G1 X84.203 Y113.35 E.02411
G1 X84.242 Y112.726 E.02229
G1 X84.35 Y112.17 E.02019
G1 X84.559 Y111.526 E.02411
G1 X84.833 Y110.964 E.02229
G1 X85.146 Y110.492 E.02019
G1 X85.585 Y109.978 E.02411
G1 X86.054 Y109.563 E.02229
G1 X86.571 Y109.216 E.0222
G1 X87.129 Y108.938 E.0222
G1 X87.718 Y108.736 E.0222
G1 X88.328 Y108.613 E.0222
G1 X88.893 Y108.574 E.02019
G1 X89.569 Y108.609 E.02411
G1 X90.183 Y108.729 E.02229
G1 X90.773 Y108.927 E.0222
G1 X91.333 Y109.201 E.0222
G1 X91.852 Y109.545 E.0222
G1 X92.321 Y109.954 E.0222
G1 X92.733 Y110.421 E.0222
G1 X93.081 Y110.938 E.0222
G1 X93.358 Y111.496 E.0222
G1 X93.56 Y112.085 E.0222
G1 X93.684 Y112.696 E.0222
G1 X93.727 Y113.317 E.0222
G1 X93.688 Y113.939 E.0222
G1 X93.568 Y114.55 E.0222
G1 X93.37 Y115.14 E.0222
G1 X93.096 Y115.7 E.0222
G1 X92.752 Y116.219 E.0222
G1 X92.343 Y116.689 E.0222
G1 X91.876 Y117.101 E.0222
G1 X91.359 Y117.448 E.0222
G1 X90.801 Y117.726 E.0222
G1 X90.212 Y117.928 E.0222
G1 X89.601 Y118.051 E.0222
G1 X88.98 Y118.094 E.0222
G1 X88.358 Y118.055 E.0222
G1 X87.747 Y117.936 E.0222
G1 X87.156 Y117.737 E.0222
G1 X86.667 Y117.498 E.01944
G1 E-2.8 F3600
;WIPE_START
G1 F900
G1 X86.597 Y117.464 E-.09312
G1 X86.078 Y117.119 E-.74746
G1 X85.852 Y116.922 E-.35942
;WIPE_END
G1 Z.6 F9000
G1 X129.637 Y118.467 Z.6
G1 Z.2
G1 E4 F2400
;TYPE:Inner wall
;WIDTH:0.419999
G1 F900
G1 X129.007 Y118.513 E.01834
G1 X128.331 Y118.474 E.01968
G1 X127.665 Y118.348 E.01968
G1 X127.021 Y118.135 E.01968
G1 X126.411 Y117.84 E.01968
G1 X125.844 Y117.469 E.01968
G1 X125.331 Y117.026 E.01968
G1 X124.88 Y116.52 E.01968
G1 X124.499 Y115.96 E.01968
G1 X124.194 Y115.354 E.01968
G1 X123.971 Y114.714 E.01968
G1 X123.833 Y114.051 E.01968
G1 X123.784 Y113.375 E.01968
G1 X123.822 Y112.698 E.01968
G1 X123.949 Y112.032 E.01968
G1 X124.162 Y111.389 E.01968
G1 X124.456 Y110.778 E.01968
G1 X124.797 Y110.259 E.01804
G1 X125.266 Y109.704 E.02109
G1 X125.777 Y109.248 E.01989
G1 X126.337 Y108.866 E.01968
G1 X126.943 Y108.562 E.01968
G1 X127.503 Y108.366 E.01723
G1 X128.246 Y108.201 E.02211
G1 X128.866 Y108.155 E.01804
G1 X129.592 Y108.189 E.02109
G1 X130.265 Y108.316 E.01989
G1 X130.908 Y108.529 E.01967
G1 X131.572 Y108.858 E.02151
G1 X132.085 Y109.196 E.01783
G1 X132.598 Y109.638 E.01968
G1 X133.049 Y110.144 E.01968
G1 X133.431 Y110.705 E.01968
G1 X133.735 Y111.31 E.01968
G1 X133.958 Y111.95 E.01968
G1 X134.096 Y112.614 E.01968
G1 X134.146 Y113.289 E.01968
G1 X134.107 Y113.966 E.01968
G1 X133.98 Y114.632 E.01968
G1 X133.768 Y115.275 E.01968
G1 X133.473 Y115.886 E.01968
G1 X133.101 Y116.452 E.01968
G1 X132.659 Y116.966 E.01968
G1 X132.153 Y117.417 E.01968
G1 X131.592 Y117.798 E.01968
G1 X130.987 Y118.103 E.01968
G1 X130.347 Y118.326 E.01968
G1 X129.683 Y118.463 E.01968
G1 X129.677 Y118.464 E.00018
G1 X129.636 Y118.044 F9000
;TYPE:Outer wall
;WIDTH:0.505839
G1 F900
G1 X129.601 Y118.051 E.00127
G1 X128.98 Y118.094 E.0222
G1 X128.358 Y118.055 E.0222
G1 X127.747 Y117.936 E.0222
G1 X127.156 Y117.737 E.0222
G1 X126.597 Y117.464 E.0222
G1 X126.078 Y117.119 E.0222
G1 X125.608 Y116.71 E.0222
G1 X125.196 Y116.243 E.0222
G1 X124.848 Y115.726 E.0222
G1 X124.571 Y115.168 E.0222
G1 X124.369 Y114.579 E.0222
G1 X124.245 Y113.969 E.0222
G1 X124.203 Y113.347 E.0222
G1 X124.241 Y112.726 E.0222
G1 X124.361 Y112.114 E.0222
G1 X124.559 Y111.524 E.0222
G1 X124.833 Y110.964 E.0222
G1 X125.146 Y110.492 E.0202
G1 X125.585 Y109.977 E.0241
G1 X126.054 Y109.563 E.02229
G1 X126.571 Y109.216 E.0222
G1 X127.128 Y108.938 E.0222
G1 X127.638 Y108.763 E.0192
G1 X128.328 Y108.613 E.02519
G1 X128.894 Y108.574 E.0202
G1 X129.569 Y108.609 E.0241
G1 X130.183 Y108.728 E.02229
G1 X130.773 Y108.927 E.0222
G1 X131.382 Y109.233 E.02429
G1 X131.852 Y109.545 E.0201
G1 X132.321 Y109.954 E.0222
G1 X132.734 Y110.421 E.0222
G1 X133.081 Y110.938 E.0222
G1 X133.359 Y111.496 E.0222
G1 X133.561 Y112.085 E.0222
G1 X133.684 Y112.695 E.0222
G1 X133.727 Y113.317 E.0222
G1 X133.688 Y113.939 E.0222
G1 X133.569 Y114.55 E.0222
G1 X133.37 Y115.14 E.0222
G1 X133.096 Y115.7 E.0222
G1 X132.752 Y116.219 E.0222
G1 X132.343 Y116.689 E.0222
G1 X131.876 Y117.101 E.0222
G1 X131.359 Y117.449 E.0222
G1 X130.801 Y117.726 E.0222
G1 X130.212 Y117.928 E.0222
G1 X129.676 Y118.036 E.0195
G1 E-2.8 F3600
;WIPE_START
G1 F900
G1 X129.601 Y118.051 E-.09088
G1 X128.98 Y118.094 E-.74749
G1 X128.679 Y118.075 E-.36163
;WIPE_END
G1 Z.6 F9000
G1 X131.275 Y95.276 Z.6
G1 Z.2
G1 E4 F2400
;TYPE:Bottom surface
;WIDTH:0.420227
G1 F2100
G1 X134.951 Y98.952 E.15105
G1 X134.951 Y99.486 E.0155
G1 X130.911 Y95.445 E.166
G1 X130.377 Y95.445 E.0155
G1 X134.951 Y100.019 E.18792
G1 X134.951 Y100.553 E.0155
G1 X129.844 Y95.445 E.20985
G1 X129.31 Y95.445 E.0155
G1 X134.951 Y101.087 E.23177
G1 X134.951 Y101.62 E.0155
G1 X128.777 Y95.445 E.25369
G1 X128.243 Y95.445 E.0155
G1 X134.951 Y102.154 E.27561
G1 X134.951 Y102.687 E.0155
G1 X127.71 Y95.445 E.29753
G1 X127.176 Y95.445 E.0155
G1 X134.951 Y103.221 E.31946
G1 X134.951 Y103.754 E.0155
G1 X126.642 Y95.445 E.34138
G1 X126.109 Y95.445 E.0155
G1 X134.951 Y104.288 E.3633
G1 X134.951 Y104.822 E.0155
G1 X125.575 Y95.445 E.38522
G1 X125.042 Y95.446 E.0155
G1 X134.951 Y105.355 E.40714
G1 X134.951 Y105.889 E.0155
G1 X124.508 Y95.446 E.42907
G1 X123.975 Y95.446 E.0155
G1 X134.951 Y106.422 E.45099
G1 X134.951 Y106.956 E.0155
G1 X123.441 Y95.446 E.47291
G1 X122.907 Y95.446 E.0155
G1 X134.951 Y107.49 E.49483
G1 X134.951 Y108.023 E.0155
G1 X122.374 Y95.446 E.51676
G1 X121.84 Y95.446 E.0155
G1 X134.951 Y108.557 E.53868
G1 X134.951 Y109.09 E.0155
G1 X121.307 Y95.446 E.5606
G1 X120.773 Y95.446 E.0155
G1 X134.951 Y109.624 E.58252
G1 X134.951 Y110.158 E.0155
G1 X120.239 Y95.446 E.60444
G1 X119.706 Y95.446 E.0155
G1 X134.951 Y110.691 E.62637
G1 X134.951 Y111.225 E.0155
G1 X119.172 Y95.446 E.64829
G1 X118.86 Y95.446 E.00906
G1 X118.86 Y95.667 E.00644
G1 X134.951 Y111.758 E.66111
G1 X134.951 Y112.292 E.0155
G1 X134.064 Y111.405 E.03644
G1 X134.257 Y111.971 E.01738
G1 X134.294 Y112.168 E.00581
G1 X134.951 Y112.826 E.02702
G1 X134.951 Y113.359 E.0155
G1 X134.397 Y112.805 E.02277
G1 X134.428 Y113.369 E.01641
G1 X134.951 Y113.893 E.02152
G1 X134.951 Y114.426 E.0155
G1 X134.393 Y113.868 E.02295
G1 X134.378 Y114.081 E.00621
G1 X134.328 Y114.336 E.00755
G1 X134.951 Y114.96 E.02564
G1 X134.951 Y115.494 E.0155
G1 X134.23 Y114.772 E.02963
G1 X134.097 Y115.173 E.01226
G1 X134.844 Y115.92 E.03068
G1 X134.577 Y116.187 E.01096
G1 X133.949 Y115.558 E.02583
G1 X133.773 Y115.916 E.01159
G1 X134.311 Y116.453 E.02208
G1 X134.044 Y116.72 E.01096
G1 X133.572 Y116.249 E.01938
G1 X133.361 Y116.571 E.0112
G1 X133.777 Y116.987 E.01708
G1 X133.51 Y117.254 E.01096
G1 X133.119 Y116.862 E.01608
G1 X132.871 Y117.149 E.01099
G1 X133.243 Y117.521 E.01529
G1 X132.977 Y117.787 E.01096
G1 X132.592 Y117.403 E.01579
G1 X132.307 Y117.651 E.01099
G1 X132.71 Y118.054 E.01655
G1 X132.443 Y118.321 E.01096
G1 X131.992 Y117.87 E.01851
G1 X131.665 Y118.076 E.01124
G1 X132.176 Y118.588 E.02102
G1 X131.909 Y118.855 E.01096
G1 X131.309 Y118.255 E.02465
G1 X130.942 Y118.421 E.01172
G1 X131.643 Y119.121 E.02879
G1 X131.445 Y119.319 E.00813
G1 X131.307 Y119.319 E.00401
G1 X130.545 Y118.557 E.03132
G1 X130.116 Y118.662 E.01282
G1 X130.773 Y119.319 E.02702
G1 X130.24 Y119.319 E.0155
G1 X129.667 Y118.747 E.02353
G1 X129.17 Y118.783 E.01449
G1 X129.706 Y119.319 E.02204
G1 X129.172 Y119.319 E.0155
G1 X128.63 Y118.777 E.02229
G1 X128.307 Y118.756 E.00941
G1 X128.022 Y118.703 E.0084
G1 X128.639 Y119.319 E.02533
G1 X128.105 Y119.319 E.0155
G1 X127.039 Y118.253 E.04381
G1 E-2.8 F3600
;WIPE_START
G1 F2100
G1 X127.746 Y118.96 E-1.2
;WIPE_END
G1 Z.6 F9000
G1 X131.222 Y108.562 Z.6
G1 Z.2
G1 E4 F2400
M73 P4 R44
G1 F2100
G1 X118.86 Y96.201 E.50789
G1 X118.86 Y96.734 E.01549
G1 X130.126 Y108.001 E.4629
G1 X129.732 Y107.922 E.01168
G1 X129.501 Y107.909 E.00672
G1 X118.859 Y97.267 E.43722
G1 X118.859 Y97.8 E.01549
G1 X128.935 Y107.877 E.41398
G1 X128.428 Y107.903 E.01475
G1 X118.859 Y98.334 E.39316
G1 X118.859 Y98.867 E.01549
G1 X127.961 Y107.969 E.37397
G1 X127.524 Y108.067 E.01299
G1 X118.858 Y99.4 E.35605
G1 X118.858 Y99.934 E.01549
G1 X127.124 Y108.199 E.33959
G1 X126.875 Y108.282 E.0076
G1 X126.739 Y108.349 E.0044
G1 X118.858 Y100.467 E.32382
G1 X118.858 Y101 E.01549
G1 X126.382 Y108.525 E.30914
G1 X126.233 Y108.598 E.00482
G1 X126.046 Y108.722 E.00653
G1 X118.815 Y101.491 E.29709
G1 X118.766 Y101.615 E.00386
G1 X118.618 Y101.828 E.00754
G1 X125.725 Y108.935 E.29202
G1 X125.435 Y109.178 E.01101
G1 X118.307 Y102.051 E.29284
G1 X118.247 Y102.08 E.00194
G1 X117.958 Y102.136 E.00854
G1 X117.859 Y102.136 E.0029
G1 X125.149 Y109.426 E.29951
G1 X124.896 Y109.707 E.01098
G1 X117.325 Y102.136 E.31104
G1 X116.792 Y102.137 E.01549
G1 X124.651 Y109.996 E.32288
G1 X124.427 Y110.305 E.0111
G1 X116.259 Y102.137 E.33557
G1 X115.726 Y102.138 E.01549
G1 X124.217 Y110.629 E.34885
G1 X124.04 Y110.986 E.01157
G1 X115.193 Y102.138 E.3635
G1 X114.66 Y102.139 E.01549
G1 X123.878 Y111.356 E.37872
G1 X123.744 Y111.757 E.01226
G1 X114.127 Y102.139 E.39514
G1 X113.594 Y102.14 E.01549
G1 X123.633 Y112.179 E.41247
