; HEADER_BLOCK_START
; generated by OrcaSlicer 1.7.0 on 2023-10-28 at 15:59:30
; total layer number: 20
; HEADER_BLOCK_END

; THUMBNAIL_BLOCK_START
; THUMBNAIL_BLOCK_END

; external perimeters extrusion width = 0.45mm
; perimeters extrusion width = 0.45mm
; infill extrusion width = 0.45mm
; solid infill extrusion width = 0.45mm
; top infill extrusion width = 0.40mm
; first layer extrusion width = 0.42mm

; EXECUTABLE_BLOCK_START
M73 P0 R6
M201 X500 Y500 Z100 E5000
M203 X500 Y500 Z10 E60
M204 P500 R1000 T500
M205 X8.00 Y8.00 Z0.40 E5.00 ; sets the jerk limits, mm/sec
;TYPE:Custom
G90 ; use absolute coordinates
M83 ; extruder relative mode
M140 S105 ; set final bed temp
M104 S150 ; set temporary nozzle temp to prevent oozing during homing
G4 S10 ; allow partial nozzle warmup
G28 ; home all axis
G1 Z50 F240
G1 X2 Y10 F3000
M104 S260 ; set final nozzle temp
M190 S105 ; wait for bed temp to stabilize
M109 S260 ; wait for nozzle temp to stabilize
M73 P3 R6
G1 Z0.28 F240
G92 E0
G1 Y140 E10 F1500 ; prime the nozzle
M73 P6 R6
G1 X2.3 F5000
G92 E0
M73 P7 R6
G1 Y10 E10 F1200 ; prime the nozzle
G92 E0
G90
G21
M83 ; use relative distances for extrusion
; Filament gcode
M106 S0
;LAYER_CHANGE
;Z:0.2
;HEIGHT:0.2
;BEFORE_LAYER_CHANGE
;0.2
G92 E0

G1 E-4 F3600
;_SET_FAN_SPEED_CHANGING_LAYER
M73 P9 R6
G1 Z.4 F9000
G1 X100.808 Y100.859
G1 Z.4
G1 Z.2
G1 E4 F2400
;TYPE:Skirt
;WIDTH:0.42
G1 F900
G1 X101.431 Y100.329 E.02374
G1 X102.283 Y99.845 E.02846
G1 X103.073 Y99.579 E.0242
G1 X103.831 Y99.46 E.02227
G1 X107.102 Y99.426 E.095
G1 X115.822 Y99.431 E.25315
G1 X116.79 Y99.531 E.02827
G1 X117.742 Y99.836 E.02903
G1 X118.742 Y100.433 E.03382
G1 X119.449 Y101.111 E.02844
G1 X120.043 Y101.998 E.03099
G1 X120.414 Y102.959 E.02991
G1 X120.571 Y104.014 E.03097
G1 X120.535 Y116.416 E.36006
G1 X120.261 Y117.513 E.03285
G1 X119.735 Y118.517 E.03291
G1 X118.962 Y119.387 E.03379
G1 X118.001 Y120.044 E.03379
M73 P10 R6
G1 X116.909 Y120.447 E.03379
G1 X115.986 Y120.571 E.02706
G1 X103.584 Y120.535 E.36006
G1 X102.487 Y120.261 E.03285
G1 X101.415 Y119.687 E.0353
G1 X100.613 Y118.962 E.03139
G1 X99.956 Y118.001 E.03379
G1 X99.586 Y117.041 E.02989
G1 X99.427 Y115.888 E.03379
G1 X99.426 Y104.216 E.33888
G1 X99.494 Y103.421 E.02314
G1 X99.738 Y102.523 E.02702
G1 X100.167 Y101.663 E.02792
G1 X100.783 Y100.89 E.02868
G1 X101.073 Y101.143 F9000
G1 F900
G1 X101.169 Y101.033 E.00424
G1 X101.912 Y100.463 E.02719
G1 X102.734 Y100.073 E.0264
G1 X103.619 Y99.861 E.02644
G1 X115.821 Y99.808 E.35428
G1 X116.553 Y99.87 E.02133
G1 X117.344 Y100.081 E.02376
G1 X117.989 Y100.382 E.02066
G1 X118.629 Y100.827 E.02264
G1 X119.164 Y101.358 E.02188
G1 X119.603 Y101.98 E.02209
G1 X119.918 Y102.644 E.02134
G1 X120.124 Y103.383 E.02229
G1 X120.197 Y104.18 E.02324
G1 X120.188 Y116.093 E.34587
G1 X120.101 Y116.731 E.0187
M73 P11 R6
G1 X119.906 Y117.386 E.01985
G1 X119.37 Y118.38 E.03279
G1 X118.716 Y119.102 E.02828
G1 X117.934 Y119.652 E.02774
G1 X116.996 Y120.035 E.02943
G1 X116.093 Y120.188 E.02659
G1 X103.907 Y120.188 E.35381
G1 X102.799 Y119.972 E.03279
G1 X101.63 Y119.377 E.03806
G1 X100.898 Y118.716 E.02865
G1 X100.348 Y117.934 E.02775
G1 X99.975 Y117.035 E.02828
G1 X99.812 Y116.093 E.02775
G1 X99.815 Y103.903 E.35393
G1 X100.093 Y102.65 E.03725
G1 X100.626 Y101.657 E.03273
G1 X101.047 Y101.173 E.01861
; printing object rotary_encoder_adapter.stl id:437817094980419176 copy 0
G1 E-2.8 F3600
;WIPE_START
G1 F900
G1 X101.169 Y101.033 E-.22332
G1 X101.815 Y100.538 E-.97668
;WIPE_END
G1 Z.6 F9000
G1 X116.237 Y116.994 Z.6
G1 Z.2
G1 E4 F2400
;TYPE:Inner wall
;WIDTH:0.419999
M73 P12 R6
G1 F900
G1 X115.874 Y117.088 E.01088
G1 X104.331 Y117.088 E.33515
G1 X103.805 Y117.029 E.01535
G1 X103.497 Y116.88 E.00994
G1 X103.135 Y116.529 E.01465
G1 X102.971 Y116.185 E.01105
G1 X102.91 Y115.771 E.01214
G1 X102.91 Y104.278 E.3337
G1 X102.973 Y103.85 E.01257
G1 X103.093 Y103.578 E.00861
G1 X103.334 Y103.28 E.01115
G1 X103.691 Y103.052 E.01229
G1 X104.236 Y102.936 E.01618
G1 X107.125 Y102.912 E.08389
G1 X110.686 Y102.95 E.10341
G1 X115.669 Y102.921 E.14468
G1 X116.113 Y102.955 E.01292
M73 P12 R5
G1 X116.479 Y103.105 E.01147
G1 X116.787 Y103.372 E.01184
G1 X117.029 Y103.815 E.01467
G1 X117.09 Y104.229 E.01216
G1 X117.088 Y115.744 E.33431
G1 X117.032 Y116.178 E.01272
G1 X116.866 Y116.529 E.01126
G1 X116.552 Y116.841 E.01286
G1 X116.276 Y116.984 E.00903
G1 X116.344 Y117.405 F9000
;TYPE:Outer wall
;WIDTH:0.505839
G1 F900
G1 X116.29 Y117.425 E.00205
G1 X115.9 Y117.508 E.0142
G1 X104.331 Y117.508 E.41237
G1 X103.955 Y117.482 E.01341
M73 P13 R5
G1 X103.531 Y117.371 E.01563
G1 X103.114 Y117.129 E.01717
G1 X102.783 Y116.766 E.01754
G1 X102.565 Y116.309 E.01803
G1 X102.49 Y115.802 E.01826
G1 X102.49 Y104.247 E.41187
G1 X102.566 Y103.732 E.01855
G1 X102.731 Y103.358 E.01458
G1 X103.043 Y102.972 E.01767
G1 X103.252 Y102.821 E.00923
G1 X103.688 Y102.597 E.01747
G1 X104.201 Y102.516 E.01852
G1 X107.126 Y102.492 E.10423
G1 X110.68 Y102.53 E.12671
G1 X115.667 Y102.501 E.17775
G1 X116.224 Y102.546 E.01993
G1 X116.691 Y102.738 E.01798
G1 X116.901 Y102.901 E.00949
G1 X117.215 Y103.23 E.01621
G1 X117.435 Y103.691 E.0182
G1 X117.51 Y104.199 E.01829
G1 X117.508 Y115.744 E.41151
G1 X117.436 Y116.306 E.02021
G1 X117.222 Y116.76 E.0179
G1 X116.953 Y117.072 E.01467
G1 X116.618 Y117.307 E.01459
G1 X116.382 Y117.392 E.00895
G1 E-2.8 F3600
;WIPE_START
G1 F900
G1 X116.29 Y117.425 E-.1171
G1 X115.9 Y117.508 E-.47821
G1 X115.396 Y117.508 E-.60469
;WIPE_END
G1 Z.6 F9000
G1 X111.624 Y113.823 Z.6
G1 Z.2
G1 E4 F2400
;TYPE:Inner wall
;WIDTH:0.419999
G1 F900
M73 P14 R5
G1 X110.901 Y114.055 E.02204
G1 X110.077 Y114.148 E.02406
G1 X109.251 Y114.08 E.02406
G1 X108.455 Y113.851 E.02406
G1 X107.718 Y113.471 E.02406
G1 X107.069 Y112.955 E.02406
G1 X106.534 Y112.323 E.02406
G1 X106.132 Y111.598 E.02406
G1 X105.88 Y110.808 E.02406
G1 X105.786 Y109.985 E.02406
G1 X105.855 Y109.159 E.02406
G1 X106.083 Y108.362 E.02406
G1 X106.463 Y107.626 E.02406
G1 X106.979 Y106.977 E.02406
G1 X107.612 Y106.442 E.02406
G1 X108.337 Y106.04 E.02406
G1 X109.126 Y105.788 E.02406
G1 X109.949 Y105.694 E.02406
G1 X110.524 Y105.738 E.01674
G1 X110.901 Y105.788 E.01102
G1 X111.572 Y105.991 E.02037
G1 X112.309 Y106.371 E.02406
G1 X112.957 Y106.887 E.02406
G1 X113.493 Y107.52 E.02406
G1 X113.894 Y108.244 E.02406
G1 X114.147 Y109.034 E.02406
G1 X114.241 Y109.857 E.02406
G1 X114.172 Y110.683 E.02406
G1 X113.943 Y111.48 E.02406
G1 X113.564 Y112.217 E.02406
G1 X113.048 Y112.865 E.02406
G1 X112.415 Y113.4 E.02406
G1 X111.69 Y113.802 E.02406
G1 X111.662 Y113.811 E.00086
G1 X111.551 Y113.4 F9000
;TYPE:Outer wall
;WIDTH:0.505839
G1 F900
G1 X111.492 Y113.432 E.00239
G1 X110.779 Y113.653 E.02662
G1 X110.036 Y113.73 E.02662
G1 X109.292 Y113.662 E.02662
G1 X108.577 Y113.449 E.02662
G1 X107.916 Y113.101 E.02662
G1 X107.336 Y112.631 E.02662
G1 X106.859 Y112.056 E.02662
G1 X106.503 Y111.4 E.02662
G1 X106.282 Y110.687 E.02662
G1 X106.204 Y109.944 E.02662
G1 X106.273 Y109.2 E.02662
G1 X106.485 Y108.484 E.02662
G1 X106.833 Y107.824 E.02662
G1 X107.304 Y107.244 E.02662
G1 X107.878 Y106.766 E.02662
G1 X108.535 Y106.41 E.02662
G1 X109.248 Y106.189 E.02662
G1 X109.991 Y106.112 E.02662
G1 X110.779 Y106.189 E.02823
G1 X111.45 Y106.393 E.02501
G1 X112.111 Y106.741 E.02662
G1 X112.691 Y107.212 E.02662
G1 X113.168 Y107.786 E.02662
G1 X113.524 Y108.442 E.02662
G1 X113.745 Y109.156 E.02662
G1 X113.823 Y109.898 E.02662
G1 X113.754 Y110.642 E.02662
G1 X113.541 Y111.358 E.02662
G1 X113.193 Y112.019 E.02662
G1 X112.723 Y112.599 E.02662
G1 X112.148 Y113.076 E.02662
G1 X111.586 Y113.381 E.0228
G1 E-2.8 F3600
;WIPE_START
G1 F900
G1 X111.492 Y113.432 E-.12842
G1 X110.779 Y113.653 E-.89611
G1 X110.633 Y113.668 E-.17546
;WIPE_END
G1 Z.6 F9000
G1 X116.928 Y103.904 Z.6
G1 Z.2
M73 P15 R5
G1 E4 F2400
;TYPE:Bottom surface
;WIDTH:0.426475
G1 F2100
G1 X116.511 Y103.488 E.0174
G1 X116.336 Y103.352 E.00656
G1 X116.038 Y103.23 E.0095
G1 X115.85 Y103.203 E.0056
G1 X115.684 Y103.204 E.00491
G1 X116.807 Y104.326 E.0469
G1 X116.807 Y104.869 E.01602
G1 X115.145 Y103.207 E.06942
G1 X114.606 Y103.21 E.01593
G1 X116.807 Y105.411 E.09194
G1 X116.807 Y105.953 E.01602
G1 X114.066 Y103.213 E.11446
G1 X113.527 Y103.216 E.01593
G1 X116.807 Y106.496 E.13698
G1 X116.807 Y107.038 E.01602
G1 X112.988 Y103.219 E.1595
G1 X112.448 Y103.222 E.01593
G1 X116.807 Y107.58 E.18202
G1 X116.806 Y108.123 E.01602
G1 X111.909 Y103.225 E.20454
G1 X111.37 Y103.228 E.01593
G1 X116.806 Y108.665 E.22706
G1 X116.806 Y109.207 E.01602
G1 X110.83 Y103.232 E.24958
G1 X110.285 Y103.228 E.01612
G1 X116.806 Y109.75 E.27237
G1 X116.806 Y110.292 E.01602
G1 X109.736 Y103.222 E.29526
G1 X109.188 Y103.217 E.01619
G1 X111.718 Y105.747 E.10566
G1 X112.446 Y106.124 E.02421
G1 X112.591 Y106.22 E.00515
G1 X113.216 Y106.741 E.02403
G1 X113.714 Y107.344 E.02308
G1 X113.811 Y107.488 E.00514
G1 X114.188 Y108.216 E.02421
G1 X116.806 Y110.834 E.10935
G1 X116.806 Y111.377 E.01602
G1 X114.427 Y108.998 E.09934
G1 X114.498 Y109.611 E.01823
G1 X116.806 Y111.919 E.09638
G1 X116.806 Y112.461 E.01602
G1 X114.504 Y110.16 E.09613
G1 X114.456 Y110.654 E.01468
G1 X116.805 Y113.004 E.09812
G1 X116.805 Y113.546 E.01602
M73 P16 R5
G1 X114.352 Y111.093 E.10245
G1 X114.229 Y111.512 E.0129
G1 X116.805 Y114.088 E.10761
G1 X116.805 Y114.631 E.01602
G1 X114.061 Y111.886 E.11462
G1 X113.872 Y112.24 E.01184
G1 X116.805 Y115.173 E.1225
G1 X116.805 Y115.715 E.01602
G1 X113.657 Y112.567 E.13147
G1 X113.41 Y112.863 E.01137
G1 X116.721 Y116.174 E.13828
G1 X116.627 Y116.373 E.00651
G1 X116.512 Y116.507 E.00521
G1 X113.158 Y113.153 E.14007
G1 X112.861 Y113.399 E.01138
G1 X116.18 Y116.718 E.13862
G1 X115.979 Y116.79 E.00632
G1 X115.725 Y116.805 E.00751
G1 X112.562 Y113.642 E.13212
G1 X112.218 Y113.841 E.01172
G1 X115.182 Y116.805 E.12381
G1 X114.64 Y116.805 E.01602
G1 X111.865 Y114.029 E.11592
G1 X111.658 Y114.12 E.00666
G1 X111.469 Y114.176 E.00583
G1 X114.098 Y116.805 E.10979
G1 X113.555 Y116.805 E.01602
G1 X111.05 Y114.3 E.10462
G1 X110.875 Y114.352 E.0054
G1 X110.587 Y114.379 E.00853
G1 X113.013 Y116.805 E.1013
G1 X112.47 Y116.805 E.01602
G1 X110.092 Y114.427 E.09931
G1 X110.013 Y114.435 E.00234
G1 X109.511 Y114.388 E.01491
G1 X111.928 Y116.805 E.10095
G1 X111.385 Y116.805 E.01602
G1 X108.591 Y114.011 E.1167
G1 E-2.8 F3600
;WIPE_START
G1 F2100
G1 X109.298 Y114.718 E-1.2
;WIPE_END
G1 Z.6 F9000
G1 X111.185 Y105.756 Z.6
G1 Z.2
G1 E4 F2400
G1 F2100
G1 X108.64 Y103.211 E.10627
G1 X108.092 Y103.205 E.01619
M73 P17 R5
G1 X110.32 Y105.434 E.09307
G1 X110.1 Y105.412 E.00653
G1 X109.772 Y105.428 E.00971
G1 X107.544 Y103.2 E.09305
G1 X106.998 Y103.196 E.01611
G1 X109.279 Y105.477 E.09526
G1 X109.16 Y105.489 E.00352
G1 X108.842 Y105.583 E.0098
G1 X106.46 Y103.201 E.09948
G1 X105.922 Y103.205 E.01589
G1 X108.423 Y105.706 E.10445
G1 X108.207 Y105.789 E.00681
G1 X108.048 Y105.874 E.00533
G1 X105.384 Y103.209 E.11127
G1 X104.846 Y103.214 E.01589
G1 X107.695 Y106.063 E.11899
G1 X107.367 Y106.277 E.01157
G1 X104.308 Y103.218 E.12778
G1 X103.842 Y103.295 E.01393
G1 X107.071 Y106.524 E.13487
G1 X106.781 Y106.776 E.01136
G1 X103.513 Y103.508 E.13648
G1 X103.336 Y103.727 E.00831
G1 X103.291 Y103.829 E.00329
G1 X106.536 Y107.073 E.1355
G1 X106.293 Y107.373 E.01139
G1 X103.196 Y104.276 E.12934
G1 X103.193 Y104.815 E.01592
G1 X106.094 Y107.716 E.12117
G1 X105.905 Y108.07 E.01184
G1 X103.193 Y105.358 E.11327
G1 X103.193 Y105.9 E.01602
G1 X105.757 Y108.464 E.10709
G1 X105.631 Y108.88 E.01284
G1 X103.193 Y106.443 E.10182
G1 X103.193 Y106.985 E.01602
G1 X105.553 Y109.346 E.09859
G1 X105.507 Y109.842 E.01472
G1 X103.193 Y107.527 E.09666
G1 X103.193 Y108.07 E.01602
G1 X105.548 Y110.425 E.09838
G1 X105.583 Y110.782 E.01059
G1 X105.675 Y111.094 E.0096
G1 X103.193 Y108.612 E.10366
G1 X103.193 Y109.155 E.01602
G1 X106.013 Y111.975 E.1178
G1 X106.216 Y112.354 E.01268
G1 X106.313 Y112.499 E.00515
G1 X106.83 Y113.121 E.02392
G1 X107.436 Y113.622 E.02319
G1 X107.58 Y113.719 E.00514
G1 X107.959 Y113.921 E.01268
G1 X110.843 Y116.805 E.12044
G1 X110.301 Y116.805 E.01602
M73 P18 R5
G1 X103.193 Y109.697 E.29686
G1 X103.193 Y110.24 E.01602
G1 X109.758 Y116.805 E.2742
G1 X109.216 Y116.805 E.01602
G1 X103.193 Y110.782 E.25155
G1 X103.193 Y111.324 E.01602
G1 X108.673 Y116.805 E.22889
G1 X108.131 Y116.805 E.01602
G1 X103.193 Y111.867 E.20624
G1 X103.193 Y112.409 E.01602
G1 X107.588 Y116.805 E.18358
G1 X107.046 Y116.805 E.01602
G1 X103.193 Y112.952 E.16093
G1 X103.193 Y113.494 E.01602
G1 X106.503 Y116.805 E.13827
G1 X105.961 Y116.805 E.01602
G1 X103.193 Y114.037 E.11562
G1 X103.193 Y114.579 E.01602
G1 X105.419 Y116.805 E.09296
G1 X104.876 Y116.805 E.01602
G1 X103.193 Y115.121 E.07031
G1 X103.193 Y115.664 E.01602
G1 X104.334 Y116.805 E.04765
G1 X104.165 Y116.805 E.00499
G1 X103.885 Y116.756 E.0084
G1 X103.717 Y116.687 E.00535
G1 X103.586 Y116.599 E.00467
G1 X103.071 Y116.084 E.02151
; stop printing object rotary_encoder_adapter.stl id:437817094980419176 copy 0
;LAYER_CHANGE
;Z:0.4
;HEIGHT:0.2
;BEFORE_LAYER_CHANGE
;0.4
G92 E0

G1 E-2.8 F3600
;WIPE_START
G1 F2100
G1 X103.586 Y116.599 E-.87416
G1 X103.717 Y116.687 E-.18977
G1 X103.822 Y116.73 E-.13607
;WIPE_END
;_SET_FAN_SPEED_CHANGING_LAYER
G1 Z.6 F9000
G1 X102.055 Y120.029 Z.6
G1 Z.4
G1 E4 F2400
;TYPE:Skirt
;WIDTH:0.42
G1 X101.415 Y119.687 E.02107
G1 X100.613 Y118.962 E.03139
G1 X99.956 Y118.001 E.03379
G1 X99.586 Y117.041 E.02989
G1 X99.427 Y115.888 E.03379
G1 X99.426 Y104.216 E.33888
G1 X99.494 Y103.421 E.02314
M73 P19 R5
G1 X99.738 Y102.523 E.02702
G1 X100.167 Y101.663 E.02792
G1 X100.808 Y100.859 E.02984
G1 X101.431 Y100.329 E.02374
G1 X102.283 Y99.845 E.02846
G1 X103.073 Y99.579 E.0242
G1 X103.831 Y99.46 E.02227
G1 X107.102 Y99.426 E.095
G1 X115.822 Y99.431 E.25315
G1 X116.79 Y99.531 E.02827
G1 X117.742 Y99.836 E.02903
G1 X118.742 Y100.433 E.03382
G1 X119.449 Y101.111 E.02844
G1 X120.043 Y101.998 E.03099
G1 X120.414 Y102.959 E.02991
G1 X120.571 Y104.014 E.03097
G1 X120.535 Y116.416 E.36006
G1 X120.261 Y117.513 E.03285
G1 X119.735 Y118.517 E.03291
G1 X118.962 Y119.387 E.03379
G1 X118.001 Y120.044 E.03379
G1 X116.909 Y120.447 E.03379
G1 X115.986 Y120.571 E.02706
G1 X103.584 Y120.535 E.36006
G1 X102.487 Y120.261 E.03285
G1 X102.09 Y120.048 E.01307
G1 X102.267 Y119.701 F9000
G1 F2400
G1 X101.63 Y119.377 E.02073
G1 X100.898 Y118.716 E.02865
G1 X100.348 Y117.934 E.02775
G1 X99.975 Y117.035 E.02828
G1 X99.812 Y116.093 E.02775
G1 X99.815 Y103.903 E.35393
G1 X100.093 Y102.65 E.03725
G1 X100.626 Y101.657 E.03273
G1 X101.169 Y101.033 E.02401
G1 X101.912 Y100.463 E.02719
G1 X102.734 Y100.073 E.0264
G1 X103.619 Y99.861 E.02644
G1 X115.821 Y99.808 E.35428
G1 X116.553 Y99.87 E.02133
G1 X117.344 Y100.081 E.02376
G1 X117.989 Y100.382 E.02066
G1 X118.629 Y100.827 E.02264
G1 X119.164 Y101.358 E.02188
G1 X119.603 Y101.98 E.02209
G1 X119.918 Y102.644 E.02134
G1 X120.124 Y103.383 E.02229
G1 X120.197 Y104.18 E.02324
G1 X120.188 Y116.093 E.34587
G1 X120.101 Y116.731 E.0187
G1 X119.906 Y117.386 E.01985
G1 X119.37 Y118.38 E.03279
G1 X118.716 Y119.102 E.02828
G1 X117.934 Y119.652 E.02774
G1 X116.996 Y120.035 E.02943
G1 X116.093 Y120.188 E.02659
G1 X103.907 Y120.188 E.35381
G1 X102.799 Y119.972 E.03279
G1 X102.302 Y119.719 E.01617
; printing object rotary_encoder_adapter.stl id:437817094980419176 copy 0
G1 E-2.8 F3600
;WIPE_START
G1 F2400
G1 X101.63 Y119.377 E-.90467
G1 X101.448 Y119.212 E-.29533
;WIPE_END
G1 Z.8 F9000
G1 X116.28 Y117.047 Z.8
G1 Z.4
G1 E4 F2400
;TYPE:Inner wall
;WIDTH:0.449999
M73 P20 R5
G1 X116.141 Y117.1 E.00466
G1 X115.778 Y117.145 E.01146
G1 X104.309 Y117.143 E.35948
G1 X103.802 Y117.084 E.01598
G1 X103.466 Y116.928 E.01162
G1 X103.2 Y116.703 E.01091
G1 X103.016 Y116.442 E.01002
G1 X102.9 Y116.141 E.01013
G1 X102.855 Y115.778 E.01146
G1 X102.855 Y104.249 E.36137
G1 X102.884 Y103.956 E.00921
G1 X103.022 Y103.598 E.01203
G1 X103.233 Y103.304 E.01135
G1 X103.482 Y103.098 E.01014
G1 X103.774 Y102.958 E.01014
G1 X104.219 Y102.873 E.0142
G1 X105.98 Y102.855 E.05521
G1 X110.227 Y102.887 E.1331
G1 X115.796 Y102.868 E.17457
G1 X116.266 Y102.941 E.01491
G1 X116.554 Y103.086 E.0101
