;FLAVOR:Marlin
;TIME:32751
;Filament used: 22.1301m
;Layer height: 0.2
;MINX:20.144
;MINY:43.825
;MINZ:0.2
;MAXX:214.856
;MAXY:191.175
;MAXZ:12
;Generated with Cura_SteamEngine 5.4.0
M140 S90
M105
M190 S90
M104 S240
M105
M109 S240
M82 ;absolute extrusion mode
; Ender 3 Custom Start G-code
G92 E0 ; Reset Extruder
G28 ; Home all axes
G1 Z2.0 F3000 ; Move Z Axis up little to prevent scratching of Heat Bed
G1 X0.1 Y20 Z0.3 F5000.0 ; Move to start position
G1 X0.1 Y200.0 Z0.3 F1500.0 E15 ; Draw the first line
G1 X0.4 Y200.0 Z0.3 F5000.0 ; Move to side a little
G1 X0.4 Y20 Z0.3 F1500.0 E30 ; Draw the second line
G92 E0 ; Reset Extruder
G1 Z2.0 F3000 ; Move Z Axis up little to prevent scratching of Heat Bed
G1 X5 Y20 Z0.3 F5000.0 ; Move over to prevent blob squish
G92 E0
G92 E0
G1 F1500 E-1
;LAYER_COUNT:60
;LAYER:0
M107
G0 F3600 X36.608 Y47.408 Z0.2
;TYPE:SKIRT
G1 F1500 E0
G1 F1200 X37.632 Y46.685 E0.04169
G1 X38.36 Y46.236 E0.07014
G1 X39.496 Y45.626 E0.11303
G1 X40.232 Y45.286 E0.13999
G1 X41.432 Y44.818 E0.18283
G1 X42.201 Y44.569 E0.20972
G1 X43.47 Y44.241 E0.25331
G1 X44.297 Y44.081 E0.28133
G1 X45.507 Y43.92 E0.32193
G1 X46.252 Y43.865 E0.34677
G1 X46.857 Y43.839 E0.36691
G1 X47.71 Y43.826 E0.39529
G1 X178.091 Y43.825 E4.73178
G1 X179.221 Y43.848 E4.76937
G1 X179.99 Y43.889 E4.79498
G1 X181.268 Y44.034 E4.83776
G1 X182.088 Y44.179 E4.86546
G1 X183.298 Y44.465 E4.90681
G1 X184.089 Y44.702 E4.93428
G1 X185.341 Y45.163 E4.97865
G1 X186.107 Y45.5 E5.00648
G1 X187.195 Y46.058 E5.04715
G1 X187.942 Y46.499 E5.07601
G1 X188.992 Y47.209 E5.11816
G1 X189.615 Y47.686 E5.14426
G1 X190.617 Y48.554 E5.18835
G1 X191.221 Y49.147 E5.21651
G1 X192.034 Y50.04 E5.25667
G1 X192.456 Y50.56 E5.27895
G1 X192.753 Y50.946 E5.29514
G1 X194.685 Y53.57 E5.40352
G1 X196.234 Y55.551 E5.48716
G1 X197.84 Y57.487 E5.57083
G1 X199.492 Y59.371 E5.65417
G1 X201.413 Y61.439 E5.74805
G1 X201.829 Y61.874 E5.76806
G1 X202.467 Y62.61 E5.80046
G1 X203.018 Y63.369 E5.83166
G1 X203.536 Y64.236 E5.86525
G1 X203.962 Y65.125 E5.89804
G1 X204.404 Y66.353 E5.94144
G1 X204.661 Y67.232 E5.9719
G1 X204.953 Y68.298 E6.00867
G1 X205.676 Y70.653 E6.0906
G1 X206.493 Y73.073 E6.17555
G1 X207.353 Y75.402 E6.25813
G1 X208.301 Y77.757 E6.34256
G1 X209.305 Y80.065 E6.42628
G1 X210.377 Y82.35 E6.51023
G1 X211.506 Y84.586 E6.59354
G1 X212.746 Y86.884 E6.68039
G1 X213.452 Y88.144 E6.72842
G1 X213.889 Y89.015 E6.76084
G1 X214.245 Y89.92 E6.79318
G1 X214.522 Y90.854 E6.82558
G1 X214.703 Y91.739 E6.85563
G1 X214.839 Y93.139 E6.90241
G1 X214.856 Y93.829 E6.92537
G1 X214.855 Y102.949 E7.2287
G1 X214.843 Y103.685 E7.25318
G1 X214.784 Y104.66 E7.28567
G1 X214.641 Y105.608 E7.31756
G1 X214.113 Y108.252 E7.40723
G1 X213.687 Y110.744 E7.49132
G1 X213.334 Y113.238 E7.5751
G1 X213.058 Y115.684 E7.65697
G1 X212.838 Y118.256 E7.74283
G1 X212.7 Y120.737 E7.82547
G1 X212.629 Y123.268 E7.90969
G1 X212.631 Y125.781 E7.99327
G1 X212.704 Y128.328 E8.07802
G1 X212.845 Y130.776 E8.15957
G1 X213.063 Y133.347 E8.24539
G1 X213.344 Y135.805 E8.32768
G1 X213.694 Y138.26 E8.41016
G1 X214.134 Y140.827 E8.49678
G1 X214.643 Y143.402 E8.58408
G1 X214.783 Y144.328 E8.61523
G1 X214.841 Y145.174 E8.64344
G1 X214.856 Y145.831 E8.66529
G1 X214.855 Y154.966 E8.96913
G1 X214.842 Y155.705 E8.99371
G1 X214.781 Y156.678 E9.02613
G1 X214.634 Y157.641 E9.05853
G1 X214.402 Y158.587 E9.09093
G1 X214.083 Y159.52 E9.12373
G1 X213.567 Y160.644 E9.16486
G1 X213.236 Y161.259 E9.18809
G1 X212.405 Y162.749 E9.24484
G1 X211.22 Y165.02 E9.33003
G1 X210.134 Y167.251 E9.41256
G1 X209.092 Y169.553 E9.49661
G1 X208.109 Y171.91 E9.58154
G1 X207.222 Y174.212 E9.6636
G1 X206.372 Y176.617 E9.74844
G1 X205.607 Y178.998 E9.83161
G1 X204.896 Y181.444 E9.91634
G1 X204.46 Y183.061 E9.97204
G1 X204.163 Y183.987 E10.00438
G1 X203.785 Y184.885 E10.03679
G1 X203.328 Y185.746 E10.06921
G1 X202.817 Y186.534 E10.10045
G1 X202.196 Y187.327 E10.13395
G1 X201.53 Y188.039 E10.16637
G1 X200.831 Y188.664 E10.19756
G1 X200.022 Y189.268 E10.23114
G1 X199.193 Y189.779 E10.26353
G1 X198.323 Y190.214 E10.29588
G1 X197.484 Y190.547 E10.32591
G1 X196.482 Y190.845 E10.36067
G1 X195.597 Y191.025 E10.39071
G1 X194.183 Y191.16 E10.43796
G1 X193.526 Y191.175 E10.45981
G1 X40.401 Y191.174 E15.55277
G1 X39.682 Y191.162 E15.57669
G1 X38.708 Y191.103 E15.60914
G1 X37.747 Y190.956 E15.64148
G1 X36.8 Y190.725 E15.6739
G1 X35.878 Y190.411 E15.7063
G1 X34.988 Y190.017 E15.73867
G1 X34.135 Y189.546 E15.77108
G1 X33.352 Y189.019 E15.80247
G1 X32.355 Y188.19 E15.84559
G1 X31.552 Y187.435 E15.88225
G1 X23.789 Y179.795 E16.24452
G1 X23.294 Y179.291 E16.26802
G1 X22.645 Y178.567 E16.30035
G1 X22.082 Y177.816 E16.33157
G1 X21.55 Y176.957 E16.36518
G1 X21.113 Y176.086 E16.39759
G1 X20.757 Y175.181 E16.42994
G1 X20.48 Y174.249 E16.46227
G1 X20.298 Y173.364 E16.49233
G1 X20.18 Y172.339 E16.52664
G1 X20.156 Y171.76 E16.54592
G1 X20.145 Y171.004 E16.57106
G1 X20.144 Y87.976 E19.33259
G1 X20.154 Y87.182 E19.359
G1 X20.206 Y86.076 E19.39582
G1 X20.334 Y84.915 E19.43467
G1 X20.488 Y84.014 E19.46507
G1 X20.794 Y82.71 E19.50962
G1 X21.036 Y81.913 E19.53733
G1 X21.431 Y80.828 E19.57573
G1 X21.674 Y80.262 E19.59622
G1 X21.965 Y79.633 E19.61927
G1 X22.791 Y77.992 E19.68037
G1 X23.922 Y75.652 E19.76682
G1 X24.944 Y73.375 E19.84983
G1 X25.916 Y71.036 E19.93407
G1 X26.816 Y68.688 E20.01771
G1 X27.641 Y66.333 E20.1007
G1 X28.418 Y63.896 E20.18578
G1 X29.113 Y61.487 E20.26917
G1 X29.737 Y59.064 E20.35239
G1 X30.131 Y57.377 E20.41001
G1 X30.285 Y56.797 E20.42997
G1 X30.533 Y55.967 E20.45878
G1 X30.978 Y54.749 E20.50191
G1 X31.312 Y53.982 E20.52973
G1 X31.942 Y52.753 E20.57567
G1 X32.371 Y52.034 E20.60352
G1 X33.084 Y50.986 E20.64567
G1 X33.582 Y50.342 E20.67275
G1 X34.393 Y49.41 E20.71384
G1 X34.972 Y48.817 E20.74141
G1 X35.937 Y47.945 E20.78467
G1 X36.608 Y47.408 E20.81325
G0 F3600 X36.839 Y47.735
G1 F1200 X37.863 Y47.012 E20.85494
G1 X38.549 Y46.588 E20.88177
G1 X39.664 Y45.989 E20.92386
G1 X40.378 Y45.659 E20.95003
G1 X41.555 Y45.199 E20.99206
G1 X42.324 Y44.95 E21.01894
G1 X43.546 Y44.634 E21.06092
G1 X44.35 Y44.478 E21.08816
G1 X45.56 Y44.317 E21.12876
G1 X46.27 Y44.265 E21.15244
G1 X46.863 Y44.239 E21.17218
G1 X47.71 Y44.226 E21.20036
G1 X178.083 Y44.225 E25.53658
G1 X179.2 Y44.247 E25.57374
G1 X179.945 Y44.286 E25.59855
G1 X181.199 Y44.428 E25.64053
G1 X181.996 Y44.568 E25.66744
G1 X183.183 Y44.848 E25.708
G1 X183.974 Y45.085 E25.73547
G1 X185.18 Y45.529 E25.77821
G1 X185.924 Y45.856 E25.80524
G1 X187.012 Y46.414 E25.84591
G1 X187.718 Y46.831 E25.87318
G1 X188.749 Y47.527 E25.91456
G1 X189.372 Y48.004 E25.94065
G1 X190.337 Y48.84 E25.98312
G1 X190.925 Y49.416 E26.01049
G1 X191.738 Y50.309 E26.05066
G1 X192.139 Y50.805 E26.07188
G1 X192.431 Y51.183 E26.08776
G1 X194.37 Y53.816 E26.19652
G1 X195.926 Y55.806 E26.28054
G1 X197.539 Y57.751 E26.36458
G1 X199.191 Y59.635 E26.44792
G1 X201.124 Y61.715 E26.54236
G1 X201.527 Y62.137 E26.56177
G1 X202.143 Y62.845 E26.59299
G1 X202.694 Y63.604 E26.62418
G1 X203.176 Y64.41 E26.65542
G1 X203.586 Y65.261 E26.68683
G1 X204.02 Y66.465 E26.7294
G1 X204.275 Y67.338 E26.75965
G1 X204.568 Y68.404 E26.79642
G1 X205.297 Y70.781 E26.87912
G1 X206.118 Y73.212 E26.96446
G1 X206.982 Y75.551 E27.04739
G1 X207.934 Y77.917 E27.13222
G1 X208.938 Y80.225 E27.21593
G1 X210.02 Y82.53 E27.30062
G1 X211.154 Y84.776 E27.3843
G1 X212.397 Y87.08 E27.47138
G1 X213.095 Y88.324 E27.51882
G1 X213.517 Y89.162 E27.55003
G1 X213.862 Y90.034 E27.58122
G1 X214.13 Y90.934 E27.61245
G1 X214.311 Y91.819 E27.64249
G1 X214.439 Y93.149 E27.68693
G1 X214.456 Y93.829 E27.70956
G1 X214.455 Y102.943 E28.01269
G1 X214.444 Y103.661 E28.03657
G1 X214.388 Y104.6 E28.06786
G1 X214.245 Y105.548 E28.09975
G1 X213.721 Y108.174 E28.18881
G1 X213.293 Y110.677 E28.27327
G1 X212.938 Y113.182 E28.35742
G1 X212.659 Y115.65 E28.44003
G1 X212.44 Y118.222 E28.52588
G1 X212.3 Y120.726 E28.6093
G1 X212.229 Y123.257 E28.69351
G1 X212.231 Y125.781 E28.77746
G1 X212.304 Y128.339 E28.86257
G1 X212.446 Y130.81 E28.94489
G1 X212.665 Y133.381 E29.03072
G1 X212.948 Y135.862 E29.11377
G1 X213.3 Y138.328 E29.19662
G1 X213.742 Y140.904 E29.28355
G1 X214.247 Y143.462 E29.37027
G1 X214.387 Y144.388 E29.40142
G1 X214.441 Y145.183 E29.42792
G1 X214.456 Y145.831 E29.44948
G1 X214.455 Y154.959 E29.75308
G1 X214.443 Y155.681 E29.7771
G1 X214.386 Y156.618 E29.80832
G1 X214.245 Y157.546 E29.83954
G1 X214.023 Y158.458 E29.87076
G1 X213.719 Y159.353 E29.9022
G1 X213.203 Y160.477 E29.94333
G1 X212.887 Y161.064 E29.96551
G1 X212.05 Y162.564 E30.02264
G1 X210.865 Y164.835 E30.10784
G1 X209.774 Y167.076 E30.19074
G1 X208.728 Y169.388 E30.27514
G1 X207.74 Y171.756 E30.36048
G1 X206.849 Y174.068 E30.44289
G1 X205.995 Y176.484 E30.52812
G1 X205.226 Y178.876 E30.61168
G1 X204.512 Y181.332 E30.69675
G1 X204.079 Y182.939 E30.75211
G1 X203.794 Y183.832 E30.78329
G1 X203.431 Y184.698 E30.81452
G1 X202.992 Y185.528 E30.84575
G1 X202.481 Y186.316 E30.87698
G1 X201.904 Y187.054 E30.90814
G1 X201.263 Y187.741 E30.93939
G1 X200.564 Y188.366 E30.97058
G1 X199.812 Y188.928 E31.0018
G1 X199.014 Y189.421 E31.033
G1 X198.175 Y189.842 E31.06422
G1 X197.336 Y190.175 E31.09425
G1 X196.402 Y190.453 E31.12666
G1 X195.517 Y190.633 E31.1567
G1 X194.174 Y190.76 E31.20156
G1 X193.526 Y190.775 E31.22312
G1 X40.407 Y190.774 E36.31588
G1 X39.706 Y190.763 E36.3392
G1 X38.768 Y190.707 E36.37045
G1 X37.841 Y190.567 E36.40163
G1 X36.928 Y190.346 E36.43288
G1 X36.039 Y190.045 E36.4641
G1 X35.181 Y189.667 E36.49528
G1 X34.358 Y189.214 E36.52652
G1 X33.608 Y188.711 E36.55656
G1 X32.611 Y187.882 E36.59969
G1 X31.833 Y187.15 E36.63522
G1 X24.074 Y179.514 E36.99729
G1 X23.592 Y179.024 E37.02016
G1 X22.965 Y178.326 E37.05136
G1 X22.422 Y177.605 E37.08138
G1 X21.907 Y176.777 E37.11381
G1 X21.485 Y175.939 E37.14502
G1 X21.14 Y175.067 E37.17621
G1 X20.872 Y174.168 E37.20741
G1 X20.69 Y173.283 E37.23746
G1 X20.58 Y172.322 E37.26964
G1 X20.556 Y171.754 E37.28854
G1 X20.545 Y171.004 E37.31349
G1 X20.544 Y87.981 E40.07485
G1 X20.554 Y87.2 E40.10083
G1 X20.604 Y86.12 E40.13679
G1 X20.732 Y84.959 E40.17563
G1 X20.877 Y84.105 E40.20445
G1 X21.177 Y82.826 E40.24814
G1 X21.412 Y82.05 E40.27511
G1 X21.807 Y80.965 E40.31351
G1 X22.037 Y80.43 E40.33288
G1 X22.322 Y79.813 E40.35549
G1 X23.148 Y78.172 E40.41659
G1 X24.287 Y75.816 E40.50363
G1 X25.309 Y73.539 E40.58664
G1 X26.29 Y71.179 E40.67164
G1 X27.189 Y68.831 E40.75527
G1 X28.022 Y66.455 E40.83901
G1 X28.799 Y64.018 E40.92408
G1 X29.497 Y61.598 E41.00786
G1 X30.127 Y59.155 E41.09177
G1 X30.518 Y57.48 E41.14898
G1 X30.672 Y56.9 E41.16894
G1 X30.909 Y56.104 E41.19656
G1 X31.345 Y54.909 E41.23887
G1 X31.679 Y54.142 E41.26669
G1 X32.286 Y52.958 E41.31095
G1 X32.702 Y52.259 E41.338
G1 X33.401 Y51.23 E41.37938
G1 X33.884 Y50.604 E41.40567
G1 X34.679 Y49.689 E41.44599
G1 X35.24 Y49.114 E41.47271
G1 X36.187 Y48.257 E41.51519
G1 X36.839 Y47.735 E41.54297
G0 F3600 X37.07 Y48.062
G1 F1200 X38.074 Y47.352 E41.58387
G1 X38.739 Y46.94 E41.60989
G1 X39.832 Y46.352 E41.65117
G1 X40.546 Y46.022 E41.67733
G1 X41.678 Y45.579 E41.71776
G1 X42.424 Y45.337 E41.74384
G1 X43.622 Y45.027 E41.785
G1 X44.403 Y44.875 E41.81146
G1 X45.613 Y44.714 E41.85206
G1 X46.288 Y44.665 E41.87457
G1 X46.869 Y44.639 E41.89392
G1 X47.71 Y44.626 E41.92189
G1 X178.075 Y44.625 E46.25785
G1 X179.179 Y44.646 E46.29458
G1 X179.9 Y44.683 E46.31859
G1 X181.13 Y44.822 E46.35976
G1 X181.904 Y44.957 E46.38589
G1 X183.069 Y45.231 E46.4257
G1 X183.836 Y45.46 E46.45232
G1 X185.019 Y45.895 E46.49424
G1 X185.741 Y46.212 E46.52047
G1 X186.829 Y46.77 E46.56114
G1 X187.494 Y47.163 E46.58683
G1 X188.506 Y47.845 E46.62742
G1 X189.129 Y48.322 E46.65351
G1 X190.057 Y49.126 E46.69435
G1 X190.629 Y49.685 E46.72095
G1 X191.427 Y50.561 E46.76037
G1 X191.823 Y51.05 E46.78129
G1 X192.109 Y51.42 E46.79685
G1 X194.055 Y54.062 E46.90599
G1 X195.618 Y56.061 E46.99038
G1 X197.238 Y58.015 E47.07481
G1 X198.89 Y59.899 E47.15815
G1 X200.835 Y61.991 E47.25315
G1 X201.226 Y62.4 E47.27197
G1 X201.82 Y63.08 E47.302
G1 X202.351 Y63.81 E47.33203
G1 X202.816 Y64.584 E47.36206
G1 X203.21 Y65.397 E47.39211
G1 X203.636 Y66.577 E47.43383
G1 X203.889 Y67.444 E47.46387
G1 X204.183 Y68.51 E47.50065
G1 X204.918 Y70.909 E47.5841
G1 X205.743 Y73.351 E47.66983
G1 X206.611 Y75.7 E47.75313
G1 X207.567 Y78.077 E47.83834
G1 X208.571 Y80.385 E47.92205
G1 X209.663 Y82.71 E48.00749
G1 X210.802 Y84.966 E48.09154
G1 X212.048 Y87.276 E48.17884
G1 X212.738 Y88.504 E48.22569
G1 X213.145 Y89.31 E48.25572
G1 X213.479 Y90.149 E48.28575
G1 X213.738 Y91.014 E48.31579
G1 X213.919 Y91.899 E48.34583
G1 X214.039 Y93.159 E48.38793
G1 X214.056 Y93.829 E48.41022
G1 X214.055 Y102.937 E48.71315
G1 X214.045 Y103.638 E48.73647
G1 X213.992 Y104.54 E48.76652
G1 X213.849 Y105.488 E48.79841
G1 X213.329 Y108.096 E48.88686
G1 X212.899 Y110.61 E48.97169
G1 X212.542 Y113.126 E49.05621
G1 X212.26 Y115.616 E49.13956
G1 X212.042 Y118.188 E49.22541
G1 X211.9 Y120.715 E49.30959
G1 X211.829 Y123.246 E49.39381
G1 X211.831 Y125.781 E49.47812
G1 X211.904 Y128.35 E49.5636
G1 X212.047 Y130.844 E49.64669
G1 X212.267 Y133.415 E49.73251
G1 X212.552 Y135.919 E49.81633
G1 X212.906 Y138.396 E49.89955
G1 X213.35 Y140.982 E49.98682
G1 X213.852 Y143.522 E50.07294
G1 X213.988 Y144.415 E50.10298
G1 X214.041 Y145.192 E50.12889
G1 X214.056 Y145.831 E50.15014
G1 X214.055 Y154.953 E50.45354
G1 X214.044 Y155.657 E50.47696
G1 X213.99 Y156.559 E50.50702
G1 X213.856 Y157.452 E50.53705
G1 X213.644 Y158.33 E50.56709
G1 X213.355 Y159.186 E50.59714
G1 X212.839 Y160.31 E50.63828
G1 X212.538 Y160.869 E50.65939
G1 X211.695 Y162.379 E50.71691
G1 X210.51 Y164.65 E50.80211
G1 X209.414 Y166.901 E50.88538
G1 X208.364 Y169.223 E50.97014
G1 X207.371 Y171.602 E51.05588
G1 X206.476 Y173.924 E51.13865
G1 X205.618 Y176.351 E51.22427
G1 X204.845 Y178.754 E51.30823
G1 X204.128 Y181.22 E51.39364
G1 X203.698 Y182.818 E51.44868
G1 X203.425 Y183.678 E51.47869
G1 X203.077 Y184.512 E51.50875
G1 X202.656 Y185.311 E51.53879
G1 X202.166 Y186.07 E51.56884
G1 X201.611 Y186.782 E51.59886
G1 X200.996 Y187.443 E51.62889
G1 X200.324 Y188.046 E51.65892
G1 X199.601 Y188.588 E51.68898
G1 X198.834 Y189.064 E51.719
G1 X198.027 Y189.47 E51.74905
G1 X197.188 Y189.803 E51.77907
G1 X196.322 Y190.061 E51.80912
G1 X195.437 Y190.241 E51.83916
G1 X194.165 Y190.36 E51.88165
G1 X193.526 Y190.375 E51.90291
G1 X40.413 Y190.374 E56.99547
G1 X39.729 Y190.364 E57.01822
G1 X38.827 Y190.311 E57.04828
G1 X37.934 Y190.178 E57.0783
G1 X37.056 Y189.967 E57.10834
G1 X36.2 Y189.679 E57.13838
G1 X35.373 Y189.316 E57.16842
G1 X34.581 Y188.882 E57.19845
G1 X33.831 Y188.379 E57.22849
G1 X32.885 Y187.591 E57.26944
G1 X32.114 Y186.865 E57.30466
G1 X24.359 Y179.233 E57.66655
G1 X23.889 Y178.756 E57.68883
G1 X23.285 Y178.085 E57.71885
G1 X22.742 Y177.364 E57.74887
G1 X22.264 Y176.597 E57.77893
G1 X21.857 Y175.791 E57.80896
G1 X21.523 Y174.952 E57.839
G1 X21.264 Y174.087 E57.86903
G1 X21.082 Y173.202 E57.89908
G1 X20.98 Y172.305 E57.92911
G1 X20.956 Y171.748 E57.94765
G1 X20.945 Y171.004 E57.9724
G1 X20.944 Y87.986 E60.73359
G1 X20.954 Y87.218 E60.75914
G1 X21.002 Y86.164 E60.79423
G1 X21.13 Y85.003 E60.83308
G1 X21.266 Y84.196 E60.8603
G1 X21.56 Y82.942 E60.90314
G1 X21.788 Y82.187 E60.92937
G1 X22.183 Y81.102 E60.96777
G1 X22.4 Y80.598 E60.98602
G1 X22.679 Y79.993 E61.00818
G1 X23.505 Y78.352 E61.06929
G1 X24.652 Y75.98 E61.15692
G1 X25.674 Y73.703 E61.23993
G1 X26.664 Y71.322 E61.3257
G1 X27.562 Y68.974 E61.40931
G1 X28.403 Y66.577 E61.4938
G1 X29.18 Y64.14 E61.57887
G1 X29.881 Y61.709 E61.66302
G1 X30.517 Y59.246 E61.74763
G1 X30.905 Y57.583 E61.80443
G1 X31.059 Y57.003 E61.82439
G1 X31.285 Y56.241 E61.85082
G1 X31.712 Y55.069 E61.89231
G1 X32.046 Y54.302 E61.92013
G1 X32.63 Y53.162 E61.96273
G1 X33.033 Y52.484 E61.98897
G1 X33.718 Y51.474 E62.02956
G1 X34.186 Y50.866 E62.05508
G1 X34.965 Y49.968 E62.09462
G1 X35.509 Y49.41 E62.12054
G1 X36.437 Y48.569 E62.16219
G1 X37.07 Y48.062 E62.18916
G1 F1500 E61.18916
;MESH:LeftPCB.stl
G0 F3600 X67.986 Y86.855
G0 X68.075 Y89.092
G0 X68.354 Y89.769
G0 X69.99 Y91.202
;TYPE:WALL-INNER
G1 F1500 E62.18916
