; HEADER_BLOCK_START
; generated by OrcaSlicer 1.7.0 on 2023-10-24 at 20:38:23
; total layer number: 60
; HEADER_BLOCK_END

; THUMBNAIL_BLOCK_START
; THUMBNAIL_BLOCK_END

; external perimeters extrusion width = 0.40mm
; perimeters extrusion width = 0.45mm
; infill extrusion width = 0.45mm
; solid infill extrusion width = 0.45mm
; top infill extrusion width = 0.38mm
; first layer extrusion width = 0.45mm

; EXECUTABLE_BLOCK_START
M73 P0 R318
M201 X500 Y500 Z100 E5000
M203 X500 Y500 Z10 E60
M204 P500 R1000 T500
M205 X8.00 Y8.00 Z0.40 E5.00 ; sets the jerk limits, mm/sec
;TYPE:Custom
G90 ; use absolute coordinates
M83 ; extruder relative mode
M140 S80 ; set final bed temp
M104 S150 ; set temporary nozzle temp to prevent oozing during homing
G4 S10 ; allow partial nozzle warmup
G28 ; home all axis
G1 Z50 F240
G1 X2 Y10 F3000
M104 S240 ; set final nozzle temp
M190 S80 ; wait for bed temp to stabilize
M109 S240 ; wait for nozzle temp to stabilize
M73 P0 R317
G1 Z0.28 F240
G92 E0
G1 Y140 E10 F1500 ; prime the nozzle
G1 X2.3 F5000
G92 E0
G1 Y10 E10 F1200 ; prime the nozzle
G92 E0
G90
G21
M83 ; use relative distances for extrusion
; Filament gcode
M106 S0
;LAYER_CHANGE
;Z:0.2
;HEIGHT:0.2
;BEFORE_LAYER_CHANGE
;0.2
G92 E0

G1 E-5 F3600
;_SET_FAN_SPEED_CHANGING_LAYER
G1 X30.652 Y36.002 F9000
G1 Z.2
G1 E5 F2400
;TYPE:Skirt
;WIDTH:0.45
G1 F1200
G1 X31.637 Y35.231 E.01478
G1 X33.144 Y34.258 E.0212
G1 X34.246 Y33.679 E.01471
G1 X35.922 Y32.984 E.02145
G1 X37.117 Y32.611 E.01479
G1 X38.877 Y32.233 E.02127
G1 X41.226 Y32.028 E.02787
G1 X173.108 Y32.024 E1.55857
G1 X175.625 Y32.232 E.02986
G1 X177.408 Y32.615 E.02155
G1 X178.602 Y32.988 E.01478
G1 X180.257 Y33.674 E.02117
G1 X181.364 Y34.254 E.01477
G1 X182.236 Y34.789 E.01209
G1 X183.698 Y35.866 E.02145
G1 X184.626 Y36.688 E.01465
G1 X185.948 Y38.102 E.02288
G1 X196.205 Y50.466 E.18985
G1 X196.946 Y51.508 E.01511
G1 X197.552 Y52.632 E.01509
G1 X207.862 Y77.442 E.31751
G1 X208.328 Y79.129 E.02068
G1 X208.508 Y81.025 E.02251
G1 X208.508 Y143.027 E.73273
G1 X208.393 Y144.537 E.0179
G1 X208.128 Y145.787 E.01511
G1 X207.784 Y146.825 E.01292
G1 X197.784 Y171.499 E.31463
G1 X197.371 Y172.402 E.01173
G1 X196.72 Y173.502 E.01511
G1 X195.937 Y174.513 E.01511
G1 X195.035 Y175.419 E.01511
G1 X193.634 Y176.466 E.02068
G1 X191.763 Y177.382 E.02461
G1 X190.077 Y177.848 E.02068
G1 X188.181 Y178.028 E.02251
G1 X33.944 Y178.021 E1.82276
G1 X32.67 Y177.912 E.01511
G1 X30.651 Y177.402 E.02461
G1 X29.063 Y176.666 E.02068
G1 X27.944 Y175.924 E.01587
G1 X26.935 Y175.061 E.01569
G1 X18.223 Y166.486 E.14446
G1 X17.521 Y165.715 E.01232
G1 X16.523 Y164.278 E.02068
G1 X15.671 Y162.378 E.02461
G1 X15.344 Y161.142 E.01511
G1 X15.141 Y159.126 E.02395
G1 X15.141 Y74.805 E.9965
G1 X15.22 Y73.288 E.01795
M73 P0 R316
G1 X15.542 Y71.268 E.02417
G1 X16.085 Y69.357 E.02347
G1 X25.907 Y42.539 E.33752
G1 X26.787 Y40.702 E.02408
G1 X27.874 Y38.995 E.02392
G1 X29.17 Y37.415 E.02415
G1 X30.623 Y36.03 E.02373
G1 X30.904 Y36.324 F9000
G1 F1200
G1 X30.922 Y36.307 E.0003
G1 X31.868 Y35.567 E.0142
G1 X33.355 Y34.606 E.02092
G1 X34.413 Y34.05 E.01413
G1 X36.067 Y33.364 E.02115
G1 X37.215 Y33.007 E.01421
G1 X38.951 Y32.634 E.02098
G1 X41.246 Y32.434 E.02723
G1 X173.108 Y32.431 E1.55833
G1 X175.552 Y32.633 E.02899
G1 X177.311 Y33.01 E.02126
G1 X178.458 Y33.369 E.0142
G1 X180.09 Y34.045 E.02088
G1 X181.154 Y34.603 E.01419
G1 X182.005 Y35.124 E.0118
G1 X183.446 Y36.186 E.02116
G1 X184.338 Y36.976 E.01408
G1 X185.635 Y38.362 E.02244
G1 X196.361 Y51.356 E.19912
G1 X197.176 Y52.788 E.01947
G1 X207.176 Y76.852 E.30796
G1 X207.624 Y77.997 E.01453
G1 X207.925 Y79.188 E.01451
G1 X208.101 Y81.025 E.02181
G1 X208.101 Y143.027 E.73273
G1 X207.993 Y144.462 E.01701
G1 X207.74 Y145.663 E.01451
G1 X207.407 Y146.673 E.01256
G1 X197.407 Y171.347 E.31463
G1 X197.002 Y172.231 E.01149
G1 X196.374 Y173.286 E.01451
G1 X195.621 Y174.256 E.01451
G1 X194.753 Y175.126 E.01451
G1 X193.432 Y176.112 E.01949
G1 X191.607 Y177.006 E.02402
G1 X190.018 Y177.445 E.01949
G1 X188.181 Y177.621 E.02181
G1 X33.969 Y177.614 E1.82246
G1 X32.745 Y177.512 E.01451
G1 X30.775 Y177.014 E.02402
G1 X29.279 Y176.321 E.01949
G1 X28.206 Y175.612 E.01519
G1 X27.221 Y174.771 E.01531
G1 X18.509 Y166.196 E.14446
G1 X17.824 Y165.443 E.01203
G1 X16.883 Y164.089 E.01949
G1 X16.052 Y162.234 E.02402
G1 X15.658 Y160.547 E.02048
G1 X15.548 Y159.126 E.01684
G1 X15.548 Y74.805 E.9965
G1 X15.624 Y73.337 E.01737
G1 X15.937 Y71.366 E.02359
G1 X16.467 Y69.497 E.02295
G1 X26.287 Y42.684 E.33747
G1 X27.147 Y40.891 E.02349
G1 X28.209 Y39.226 E.02334
G1 X29.475 Y37.685 E.02357
G1 X30.875 Y36.352 E.02285
; printing object LeftPCB.stl id:94750816256064 copy 0
G1 E-3.5 F3600
;WIPE_START
G1 F1200
G1 X30.922 Y36.307 E-.09756
G1 X31.658 Y35.731 E-1.40245
;WIPE_END
G1 X33.266 Y39.054 F9000
G1 E5 F2400
;TYPE:Brim
G1 F1200
G1 X33.31 Y39.015 E.00069
G1 X33.923 Y38.535 E.0092
G1 X34.553 Y38.101 E.00904
G1 X35.218 Y37.698 E.00919
G1 X35.903 Y37.339 E.00913
G1 X36.612 Y37.019 E.0092
G1 X37.342 Y36.742 E.00922
G1 X38.085 Y36.511 E.0092
G1 X38.831 Y36.327 E.00908
G1 X39.597 Y36.186 E.0092
G1 X40.372 Y36.092 E.00922
G1 X41.417 Y36.041 E.01237
G1 X173.102 Y36.041 E1.55625
G1 X174.152 Y36.094 E.01242
G1 X174.91 Y36.186 E.00902
G1 X175.676 Y36.325 E.0092
G1 X176.44 Y36.514 E.0093
G1 X177.182 Y36.746 E.00919
G1 X177.895 Y37.017 E.00901
G1 X178.605 Y37.336 E.0092
G1 X179.292 Y37.696 E.00917
G1 X179.958 Y38.099 E.0092
G1 X180.601 Y38.542 E.00922
G1 X181.213 Y39.023 E.0092
G1 X181.789 Y39.533 E.0091
G1 X182.339 Y40.084 E.0092
G1 X182.857 Y40.669 E.00923
G1 X183.336 Y41.282 E.0092
G1 X183.771 Y41.912 E.00904
G1 X184.173 Y42.577 E.00919
G1 X184.536 Y43.268 E.00922
G1 X184.855 Y43.978 E.0092
G1 X185.128 Y44.7 E.00913
G1 X185.36 Y45.444 E.0092
G1 X185.544 Y46.19 E.00909
G1 X185.685 Y46.956 E.0092
G1 X185.779 Y47.732 E.00924
G1 X185.818 Y48.388 E.00777
G1 X185.83 Y50.449 E.02435
G1 X185.879 Y50.58 E.00166
G1 X186.033 Y50.651 E.00201
G1 X188.175 Y50.651 E.02531
G1 X188.961 Y50.7 E.00931
G1 X189.729 Y50.844 E.00923
G1 X190.473 Y51.082 E.00923
G1 X191.182 Y51.411 E.00923
G1 X191.845 Y51.824 E.00923
G1 X192.452 Y52.317 E.00923
G1 X192.993 Y52.88 E.00923
G1 X193.461 Y53.506 E.00923
G1 X193.847 Y54.185 E.00923
G1 X194.147 Y54.907 E.00923
G1 X194.355 Y55.66 E.00923
G1 X194.468 Y56.436 E.00926
G1 X194.491 Y56.965 E.00626
G1 X194.491 Y74.511 E.20736
G1 X194.539 Y74.643 E.00166
G1 X194.694 Y74.715 E.00202
G1 X198.175 Y74.715 E.04113
G1 X198.961 Y74.764 E.00931
G1 X199.729 Y74.908 E.00923
G1 X200.473 Y75.146 E.00923
G1 X201.182 Y75.475 E.00923
G1 X201.845 Y75.888 E.00923
G1 X202.452 Y76.381 E.00923
G1 X202.993 Y76.944 E.00923
G1 X203.461 Y77.57 E.00923
G1 X203.847 Y78.249 E.00923
G1 X204.147 Y78.971 E.00923
G1 X204.355 Y79.724 E.00923
G1 X204.468 Y80.5 E.00926
G1 X204.491 Y81.029 E.00626
G1 X204.491 Y91.018 E.11805
G1 X204.442 Y91.805 E.00931
G1 X204.297 Y92.573 E.00923
G1 X204.059 Y93.317 E.00923
G1 X203.731 Y94.026 E.00923
G1 X203.317 Y94.689 E.00923
G1 X202.825 Y95.296 E.00923
G1 X202.261 Y95.837 E.00923
G1 X201.635 Y96.304 E.00923
G1 X200.956 Y96.691 E.00923
G1 X200.234 Y96.99 E.00923
G1 X199.481 Y97.199 E.00923
G1 X198.706 Y97.312 E.00926
G1 X198.177 Y97.334 E.00626
G1 X194.694 Y97.334 E.04116
G1 X194.562 Y97.383 E.00166
G1 X194.491 Y97.538 E.00202
G1 X194.491 Y126.513 E.34243
G1 X194.539 Y126.645 E.00166
G1 X194.694 Y126.717 E.00202
G1 X198.175 Y126.717 E.04113
G1 X198.961 Y126.766 E.00931
G1 X199.729 Y126.91 E.00923
G1 X200.473 Y127.148 E.00923
G1 X201.182 Y127.477 E.00923
G1 X201.845 Y127.89 E.00923
G1 X202.452 Y128.383 E.00923
G1 X202.993 Y128.946 E.00923
G1 X203.461 Y129.572 E.00923
G1 X203.847 Y130.251 E.00923
G1 X204.147 Y130.973 E.00923
G1 X204.355 Y131.726 E.00923
G1 X204.468 Y132.502 E.00926
G1 X204.491 Y133.031 E.00626
G1 X204.491 Y143.02 E.11805
G1 X204.442 Y143.807 E.00931
G1 X204.297 Y144.575 E.00923
G1 X204.059 Y145.319 E.00923
G1 X203.731 Y146.028 E.00923
G1 X203.317 Y146.691 E.00923
G1 X202.825 Y147.298 E.00923
G1 X202.261 Y147.839 E.00923
G1 X201.635 Y148.306 E.00923
G1 X200.956 Y148.693 E.00923
G1 X200.234 Y148.992 E.00923
G1 X199.481 Y149.201 E.00923
G1 X198.706 Y149.314 E.00926
G1 X198.177 Y149.336 E.00626
G1 X194.694 Y149.336 E.04116
G1 X194.562 Y149.385 E.00166
G1 X194.491 Y149.54 E.00202
G1 X194.491 Y167.694 E.21455
G1 X194.442 Y168.481 E.00931
G1 X194.297 Y169.249 E.00923
G1 X194.059 Y169.993 E.00923
G1 X193.731 Y170.702 E.00923
G1 X193.317 Y171.365 E.00923
G1 X192.825 Y171.972 E.00923
G1 X192.261 Y172.513 E.00923
G1 X191.635 Y172.98 E.00923
G1 X190.956 Y173.367 E.00923
G1 X190.234 Y173.666 E.00923
G1 X189.481 Y173.875 E.00923
G1 X188.706 Y173.988 E.00926
G1 X188.177 Y174.01 E.00626
G1 X34.186 Y174.01 E1.81985
G1 X33.4 Y173.962 E.00931
G1 X32.632 Y173.817 E.00923
G1 X31.888 Y173.579 E.00923
G1 X31.179 Y173.251 E.00923
G1 X30.517 Y172.838 E.00921
G1 X29.748 Y172.192 E.01187
G1 X21.046 Y163.627 E.14429
G1 X20.52 Y163.041 E.00931
G1 X20.074 Y162.399 E.00923
G1 X19.711 Y161.707 E.00923
G1 X19.436 Y160.976 E.00923
G1 X19.254 Y160.218 E.0092
G1 X19.158 Y159.117 E.01307
G1 X19.158 Y74.81 E.99634
G1 X19.209 Y73.765 E.01236
M73 P0 R315
G1 X19.303 Y72.99 E.00922
G1 X19.444 Y72.224 E.0092
G1 X19.628 Y71.478 E.00909
G1 X19.859 Y70.734 E.0092
G1 X20.136 Y70.005 E.00922
G1 X20.456 Y69.295 E.0092
G1 X20.816 Y68.611 E.00913
G1 X21.218 Y67.946 E.00919
G1 X21.653 Y67.316 E.00904
G1 X22.132 Y66.703 E.0092
G1 X22.65 Y66.118 E.00923
G1 X23.2 Y65.567 E.0092
G1 X23.785 Y65.05 E.00923
G1 X24.398 Y64.57 E.0092
G1 X25.028 Y64.136 E.00904
G1 X25.693 Y63.733 E.00919
G1 X26.378 Y63.374 E.00913
G1 X27.087 Y63.054 E.0092
G1 X27.817 Y62.777 E.00922
G1 X28.54 Y62.552 E.00896
G1 X28.652 Y62.467 E.00166
G1 X28.683 Y62.358 E.00134
G1 X28.683 Y48.775 E.16052
G1 X28.734 Y47.73 E.01237
G1 X28.828 Y46.955 E.00922
G1 X28.969 Y46.189 E.0092
G1 X29.153 Y45.443 E.00909
G1 X29.384 Y44.699 E.0092
G1 X29.661 Y43.97 E.00922
G1 X29.981 Y43.26 E.0092
G1 X30.341 Y42.576 E.00914
G1 X30.743 Y41.911 E.00919
G1 X31.178 Y41.281 E.00904
G1 X31.657 Y40.668 E.0092
G1 X32.175 Y40.083 E.00923
G1 X32.725 Y39.532 E.0092
G1 X33.236 Y39.08 E.00806
G1 X33.506 Y39.385 F9000
G1 F1200
G1 X33.573 Y39.326 E.00106
G1 X34.161 Y38.866 E.00882
G1 X34.771 Y38.445 E.00875
G1 X35.422 Y38.051 E.00899
G1 X36.084 Y37.703 E.00884
G1 X36.765 Y37.397 E.00882
G1 X37.471 Y37.129 E.00893
G1 X38.198 Y36.902 E.009
G1 X38.92 Y36.724 E.0088
G1 X39.655 Y36.589 E.00882
G1 X40.411 Y36.498 E.009
G1 X41.43 Y36.448 E.01206
G1 X173.089 Y36.448 E1.55594
G1 X174.113 Y36.499 E.01211
G1 X174.852 Y36.589 E.0088
G1 X175.594 Y36.725 E.00891
G1 X176.326 Y36.905 E.00892
G1 X177.052 Y37.132 E.00899
G1 X177.742 Y37.395 E.00872
G1 X178.423 Y37.701 E.00882
G1 X179.095 Y38.053 E.00897
G1 X179.74 Y38.443 E.00891
G1 X180.356 Y38.868 E.00884
G1 X180.955 Y39.338 E.00899
G1 X181.512 Y39.832 E.00881
G1 X182.045 Y40.366 E.00891
G1 X182.546 Y40.932 E.00894
G1 X183.01 Y41.526 E.00891
G1 X183.43 Y42.136 E.00875
G1 X183.82 Y42.781 E.0089
G1 X184.171 Y43.45 E.00893
G1 X184.48 Y44.137 E.0089
G1 X184.744 Y44.837 E.00884
G1 X184.966 Y45.549 E.00882
G1 X185.145 Y46.272 E.0088
G1 X185.281 Y47.014 E.00891
G1 X185.373 Y47.765 E.00894
G1 X185.411 Y48.398 E.0075
G1 X185.423 Y50.44 E.02413
G1 X185.493 Y50.71 E.0033
G1 X185.597 Y50.871 E.00226
G1 X185.719 Y50.955 E.00175
G1 X185.851 Y51.015 E.00173
G1 X186.046 Y51.058 E.00236
G1 X188.158 Y51.058 E.02496
G1 X188.918 Y51.106 E.009
G1 X189.621 Y51.238 E.00846
G1 X190.318 Y51.46 E.00864
G1 X190.981 Y51.766 E.00864
G1 X191.614 Y52.161 E.00882
G1 X192.17 Y52.612 E.00846
G1 X192.677 Y53.139 E.00864
G1 X193.115 Y53.724 E.00864
G1 X193.477 Y54.358 E.00864
G1 X193.763 Y55.047 E.00882
G1 X193.957 Y55.752 E.00864
G1 X194.063 Y56.48 E.0087
G1 X194.084 Y56.976 E.00587
G1 X194.084 Y74.501 E.2071
G1 X194.152 Y74.771 E.0033
G1 X194.256 Y74.932 E.00226
G1 X194.378 Y75.017 E.00176
G1 X194.511 Y75.079 E.00174
G1 X194.707 Y75.122 E.00237
G1 X198.158 Y75.122 E.04078
G1 X198.918 Y75.17 E.009
G1 X199.621 Y75.302 E.00846
G1 X200.318 Y75.524 E.00864
G1 X200.994 Y75.838 E.00882
G1 X201.614 Y76.225 E.00864
G1 X202.181 Y76.686 E.00864
G1 X202.687 Y77.214 E.00864
G1 X203.123 Y77.8 E.00864
G1 X203.484 Y78.436 E.00864
G1 X203.763 Y79.111 E.00864
G1 X203.957 Y79.816 E.00864
G1 X204.062 Y80.531 E.00855
G1 X204.084 Y81.04 E.00602
G1 X204.083 Y91.01 E.11782
G1 X204.038 Y91.747 E.00873
G1 X203.903 Y92.465 E.00864
G1 X203.676 Y93.175 E.00882
G1 X203.368 Y93.838 E.00864
G1 X202.98 Y94.458 E.00864
G1 X202.53 Y95.014 E.00846
G1 X202.003 Y95.521 E.00864
G1 X201.405 Y95.967 E.00882
G1 X200.783 Y96.321 E.00846
G1 X200.109 Y96.602 E.00864
G1 X199.405 Y96.797 E.00864
G1 X198.662 Y96.907 E.00887
G1 X198.166 Y96.927 E.00587
G1 X194.705 Y96.927 E.0409
G1 X194.434 Y96.996 E.0033
G1 X194.274 Y97.099 E.00226
G1 X194.188 Y97.222 E.00176
G1 X194.127 Y97.355 E.00174
G1 X194.084 Y97.551 E.00237
G1 X194.084 Y126.503 E.34215
G1 X194.112 Y126.664 E.00194
G1 X194.152 Y126.773 E.00137
G1 X194.256 Y126.934 E.00226
G1 X194.378 Y127.019 E.00176
G1 X194.511 Y127.081 E.00174
G1 X194.707 Y127.124 E.00237
G1 X198.158 Y127.124 E.04078
G1 X198.903 Y127.17 E.00882
G1 X199.621 Y127.304 E.00864
G1 X200.318 Y127.526 E.00864
G1 X200.981 Y127.832 E.00864
G1 X201.614 Y128.227 E.00882
G1 X202.17 Y128.678 E.00846
G1 X202.677 Y129.205 E.00864
G1 X203.123 Y129.802 E.00882
G1 X203.484 Y130.438 E.00864
G1 X203.763 Y131.113 E.00864
G1 X203.957 Y131.818 E.00864
G1 X204.063 Y132.546 E.0087
G1 X204.084 Y133.042 E.00587
G1 X204.084 Y143.004 E.11773
G1 X204.036 Y143.764 E.009
G1 X203.9 Y144.482 E.00864
G1 X203.676 Y145.177 E.00864
G1 X203.368 Y145.84 E.00864
G1 X202.98 Y146.46 E.00864
G1 X202.53 Y147.016 E.00846
G1 X202.003 Y147.523 E.00864
G1 X201.418 Y147.961 E.00864
G1 X200.783 Y148.323 E.00864
G1 X200.094 Y148.609 E.00882
G1 X199.39 Y148.803 E.00864
G1 X198.674 Y148.907 E.00855
G1 X198.166 Y148.929 E.00602
G1 X194.705 Y148.929 E.0409
G1 X194.434 Y148.998 E.0033
G1 X194.274 Y149.101 E.00226
G1 X194.188 Y149.224 E.00176
G1 X194.127 Y149.357 E.00174
G1 X194.084 Y149.553 E.00237
G1 X194.084 Y167.678 E.2142
G1 X194.038 Y168.423 E.00882
G1 X193.9 Y169.156 E.00882
G1 X193.676 Y169.851 E.00864
G1 X193.375 Y170.501 E.00846
G1 X192.98 Y171.134 E.00882
G1 X192.519 Y171.701 E.00864
G1 X191.992 Y172.206 E.00864
G1 X191.405 Y172.643 E.00864
G1 X190.783 Y172.997 E.00846
G1 X190.109 Y173.278 E.00864
G1 X189.39 Y173.477 E.00882
G1 X188.674 Y173.581 E.00855
G1 X188.166 Y173.603 E.00602
G1 X34.195 Y173.603 E1.81961
G1 X33.443 Y173.556 E.00891
G1 X32.725 Y173.42 E.00864
G1 X32.029 Y173.196 E.00864
G1 X31.38 Y172.895 E.00846
G1 X30.75 Y172.502 E.00877
G1 X30.019 Y171.887 E.0113
G1 X21.344 Y163.348 E.14385
G1 X20.845 Y162.793 E.00882
G1 X20.419 Y162.181 E.00882
G1 X20.087 Y161.547 E.00846
G1 X19.829 Y160.863 E.00864
G1 X19.656 Y160.144 E.00874
G1 X19.565 Y159.094 E.01246
G1 X19.565 Y74.823 E.99591
G1 X19.616 Y73.795 E.01216
G1 X19.707 Y73.048 E.0089
G1 X19.842 Y72.313 E.00882
G1 X20.02 Y71.59 E.0088
G1 X20.243 Y70.871 E.00891
G1 X20.511 Y70.165 E.00892
G1 X20.821 Y69.477 E.00891
G1 X21.172 Y68.808 E.00893
G1 X21.558 Y68.17 E.00882
G1 X21.979 Y67.56 E.00875
G1 X22.448 Y66.96 E.009
G1 X22.949 Y66.394 E.00894
G1 X23.482 Y65.862 E.0089
G1 X24.048 Y65.361 E.00894
G1 X24.636 Y64.901 E.00882
G1 X25.246 Y64.48 E.00875
G1 X25.89 Y64.09 E.0089
G1 X26.559 Y63.738 E.00893
G1 X27.247 Y63.429 E.00891
G1 X27.946 Y63.164 E.00884
G1 X28.651 Y62.944 E.00873
G1 X28.884 Y62.802 E.00323
G1 X29.045 Y62.565 E.00338
G1 X29.09 Y62.345 E.00265
G1 X29.09 Y48.788 E.16022
G1 X29.141 Y47.76 E.01216
G1 X29.232 Y47.013 E.00889
G1 X29.367 Y46.278 E.00882
G1 X29.545 Y45.556 E.0088
G1 X29.768 Y44.836 E.00891
G1 X30.036 Y44.13 E.00892
G1 X30.346 Y43.442 E.00891
G1 X30.697 Y42.773 E.00893
G1 X31.083 Y42.135 E.00882
G1 X31.504 Y41.525 E.00875
G1 X31.973 Y40.925 E.009
G1 X32.469 Y40.365 E.00885
G1 X33.001 Y39.832 E.0089
G1 X33.476 Y39.412 E.00749
G1 X33.746 Y39.717 F9000
G1 F1200
G1 X33.837 Y39.636 E.00143
G1 X34.4 Y39.196 E.00845
G1 X34.989 Y38.789 E.00846
G1 X35.625 Y38.404 E.00879
G1 X36.26 Y38.071 E.00847
