;FLAVOR:Marlin
;TIME:17236
;Filament used: 21.198m
;Layer height: 0.2
;MINX:27.16
;MINY:44.378
;MINZ:0.2
;MAXX:211.873
;MAXY:191.727
;MAXZ:12
;Generated with Cura_SteamEngine 5.4.0
M140 S80
M105
M190 S80
M104 S210
M105
M109 S210
M82 ;absolute extrusion mode
; Ender 3 Custom Start G-code
G92 E0 ; Reset Extruder
G28 ; Home all axes
G1 Z2.0 F3000 ; Move Z Axis up little to prevent scratching of Heat Bed
G1 X0.1 Y20 Z0.3 F5000.0 ; Move to start position
G1 X0.1 Y200.0 Z0.3 F1500.0 E15 ; Draw the first line
G1 X0.4 Y200.0 Z0.3 F5000.0 ; Move to side a little
G1 X0.4 Y20 Z0.3 F1500.0 E30 ; Draw the second line
G92 E0 ; Reset Extruder
G1 Z2.0 F3000 ; Move Z Axis up little to prevent scratching of Heat Bed
G1 X5 Y20 Z0.3 F5000.0 ; Move over to prevent blob squish
G92 E0
G92 E0
G1 F2700 E-5
;LAYER_COUNT:60
;LAYER:0
M107
G0 F6000 X42.132 Y48.456 Z0.2
;TYPE:SKIRT
G1 F2700 E0
G1 F1200 X42.779 Y47.942 E0.02748
G1 X43.785 Y47.234 E0.0684
G1 X44.473 Y46.808 E0.09531
G1 X45.628 Y46.187 E0.13893
G1 X46.411 Y45.826 E0.16761
G1 X47.609 Y45.359 E0.21037
G1 X48.333 Y45.126 E0.23567
G1 X49.587 Y44.803 E0.27874
G1 X50.413 Y44.641 E0.30674
G1 X51.739 Y44.464 E0.35123
G1 X52.345 Y44.42 E0.37144
G1 X52.93 Y44.395 E0.39091
G1 X53.908 Y44.379 E0.42345
G1 X184.232 Y44.378 E4.75804
G1 X185.026 Y44.388 E4.78445
G1 X186.132 Y44.44 E4.82128
G1 X187.327 Y44.573 E4.86127
G1 X188.22 Y44.728 E4.89141
G1 X189.47 Y45.024 E4.93414
G1 X190.249 Y45.258 E4.96119
G1 X191.403 Y45.681 E5.00207
G1 X192.25 Y46.052 E5.03283
G1 X193.374 Y46.629 E5.07485
G1 X194.133 Y47.08 E5.10421
G1 X195.186 Y47.797 E5.14658
G1 X195.823 Y48.29 E5.17338
G1 X196.748 Y49.092 E5.21409
G1 X197.317 Y49.646 E5.24051
G1 X198.247 Y50.675 E5.28664
G1 X198.788 Y51.357 E5.31559
G1 X199.51 Y52.385 E5.35738
G1 X199.938 Y53.08 E5.38452
G1 X200.546 Y54.214 E5.42732
G1 X200.892 Y54.965 E5.45482
G1 X201.36 Y56.169 E5.49778
G1 X201.631 Y57.015 E5.52733
G1 X201.851 Y57.81 E5.55477
G1 X202.115 Y58.933 E5.59314
G1 X202.74 Y61.428 E5.67868
G1 X203.425 Y63.871 E5.76307
G1 X204.178 Y66.29 E5.84734
G1 X204.988 Y68.653 E5.93042
G1 X205.884 Y71.048 E6.01547
G1 X206.813 Y73.332 E6.09748
G1 X207.846 Y75.678 E6.18274
G1 X208.926 Y77.954 E6.26653
G1 X210.004 Y80.098 E6.34634
G1 X210.417 Y80.99 E6.37904
G1 X210.89 Y82.203 E6.42234
G1 X211.133 Y82.957 E6.44869
G1 X211.463 Y84.24 E6.49275
G1 X211.619 Y85.05 E6.52019
G1 X211.778 Y86.245 E6.56028
G1 X211.832 Y86.97 E6.58446
G1 X211.858 Y87.572 E6.6045
G1 X211.872 Y88.446 E6.63358
G1 X211.873 Y171.457 E9.39453
G1 X211.86 Y172.34 E9.42391
G1 X211.801 Y173.312 E9.45629
G1 X211.655 Y174.275 E9.48869
G1 X211.424 Y175.222 E9.52111
G1 X211.111 Y176.143 E9.55346
G1 X210.717 Y177.035 E9.5859
G1 X210.246 Y177.888 E9.61831
G1 X209.703 Y178.694 E9.65063
G1 X209.118 Y179.419 E9.68161
G1 X208.694 Y179.874 E9.7023
G1 X208.169 Y180.406 E9.72716
G1 X200.26 Y188.189 E10.09622
G1 X199.749 Y188.677 E10.11972
G1 X199.014 Y189.317 E10.15214
G1 X198.225 Y189.888 E10.18453
G1 X197.389 Y190.388 E10.21693
G1 X196.512 Y190.812 E10.24933
G1 X195.601 Y191.156 E10.28172
G1 X194.663 Y191.418 E10.31411
G1 X193.694 Y191.598 E10.34689
G1 X192.429 Y191.702 E10.38911
G1 X191.301 Y191.726 E10.42663
G1 X38.709 Y191.727 E15.50186
G1 X37.976 Y191.715 E15.52625
G1 X37.004 Y191.656 E15.55864
G1 X36.041 Y191.51 E15.59103
G1 X35.094 Y191.279 E15.62345
G1 X34.206 Y190.979 E15.65463
G1 X33.314 Y190.589 E15.68701
G1 X32.431 Y190.102 E15.72055
G1 X31.68 Y189.6 E15.75059
G1 X30.865 Y188.942 E15.78543
G1 X30.167 Y188.264 E15.81779
G1 X29.531 Y187.527 E15.85017
G1 X28.961 Y186.737 E15.88257
G1 X28.499 Y185.961 E15.91261
G1 X28.045 Y185.019 E15.94739
G1 X27.716 Y184.141 E15.97858
G1 X27.447 Y183.168 E16.01215
G1 X27.27 Y182.201 E16.04485
G1 X27.174 Y181.036 E16.08373
G1 X27.16 Y180.386 E16.10535
G1 X27.161 Y156.605 E16.89631
G1 X27.179 Y155.576 E16.93054
G1 X27.208 Y154.887 E16.95348
G1 X27.282 Y152.295 E17.03972
G1 X27.282 Y149.783 E17.12327
G1 X27.16 Y145.724 E17.25834
G1 X27.161 Y104.604 E18.62599
G1 X27.179 Y103.575 E18.66022
G1 X27.208 Y102.886 E18.68316
G1 X27.282 Y100.294 E18.76941
G1 X27.282 Y97.782 E18.85296
G1 X27.16 Y93.722 E18.98805
G1 X27.161 Y70.538 E19.75916
G1 X27.173 Y69.801 E19.78367
G1 X27.232 Y68.829 E19.81606
G1 X27.378 Y67.866 E19.84846
G1 X27.609 Y66.919 E19.88088
G1 X27.922 Y65.998 E19.91323
G1 X28.316 Y65.106 E19.94566
G1 X28.787 Y64.253 E19.97807
G1 X29.313 Y63.471 E20.00942
G1 X30.116 Y62.499 E20.05135
G1 X30.715 Y61.857 E20.08056
G1 X31.614 Y60.918 E20.12379
G1 X33.296 Y59.057 E20.20722
G1 X34.93 Y57.142 E20.29095
G1 X36.52 Y55.17 E20.37521
G1 X38.03 Y53.183 E20.45821
G1 X38.828 Y52.079 E20.50352
G1 X39.698 Y50.934 E20.55135
G1 X40.511 Y49.993 E20.59271
G1 X41.157 Y49.334 E20.6234
G1 X42.132 Y48.456 E20.66704
G0 F6000 X42.381 Y48.769
G1 F1200 X43.009 Y48.269 E20.69374
G1 X43.996 Y47.574 E20.73389
G1 X44.663 Y47.16 E20.76
G1 X45.796 Y46.55 E20.8028
G1 X46.556 Y46.199 E20.83064
G1 X47.732 Y45.74 E20.87263
G1 X48.456 Y45.507 E20.89793
G1 X49.664 Y45.196 E20.93942
G1 X50.49 Y45.034 E20.96741
G1 X51.768 Y44.863 E21.0103
G1 X52.362 Y44.82 E21.03011
G1 X52.937 Y44.795 E21.04925
G1 X53.908 Y44.779 E21.08155
G1 X184.227 Y44.778 E25.41598
G1 X185.008 Y44.788 E25.44195
G1 X186.088 Y44.838 E25.47791
G1 X187.283 Y44.971 E25.5179
G1 X188.128 Y45.117 E25.54643
G1 X189.355 Y45.407 E25.58836
G1 X190.111 Y45.634 E25.61461
G1 X191.265 Y46.057 E25.65549
G1 X192.067 Y46.408 E25.68461
G1 X193.191 Y46.985 E25.72663
G1 X193.908 Y47.411 E25.75437
G1 X194.942 Y48.114 E25.79596
G1 X195.561 Y48.592 E25.82197
G1 X196.469 Y49.379 E25.86194
G1 X197.038 Y49.933 E25.88835
G1 X197.934 Y50.924 E25.93279
G1 X198.461 Y51.587 E25.96095
G1 X199.17 Y52.595 E26.00194
G1 X199.586 Y53.269 E26.02829
G1 X200.183 Y54.381 E26.07027
G1 X200.519 Y55.11 E26.09696
G1 X200.979 Y56.291 E26.13912
G1 X201.245 Y57.122 E26.16814
G1 X201.465 Y57.917 E26.19557
G1 X201.727 Y59.03 E26.2336
G1 X202.355 Y61.536 E26.31953
G1 X203.043 Y63.99 E26.4043
G1 X203.796 Y66.409 E26.48856
G1 X204.613 Y68.793 E26.57238
G1 X205.509 Y71.188 E26.65743
G1 X206.447 Y73.493 E26.7402
G1 X207.48 Y75.839 E26.82546
G1 X208.569 Y78.134 E26.90995
G1 X209.641 Y80.266 E26.98932
G1 X210.044 Y81.135 E27.02118
G1 X210.509 Y82.326 E27.0637
G1 X210.752 Y83.08 E27.09005
G1 X211.07 Y84.316 E27.1325
G1 X211.222 Y85.103 E27.15916
G1 X211.381 Y86.298 E27.19926
G1 X211.432 Y86.988 E27.22227
G1 X211.458 Y87.578 E27.24191
G1 X211.472 Y88.446 E27.27078
G1 X211.473 Y171.451 E30.03154
G1 X211.461 Y172.316 E30.06031
G1 X211.405 Y173.253 E30.09154
G1 X211.266 Y174.181 E30.12274
G1 X211.045 Y175.094 E30.15399
G1 X210.745 Y175.982 E30.18516
G1 X210.367 Y176.842 E30.21641
G1 X209.914 Y177.665 E30.24765
G1 X209.391 Y178.443 E30.27883
G1 X208.825 Y179.146 E30.30885
G1 X208.409 Y179.593 E30.32916
G1 X207.888 Y180.121 E30.35383
G1 X199.984 Y187.9 E30.72268
G1 X199.486 Y188.376 E30.7456
G1 X198.779 Y188.993 E30.77681
G1 X198.019 Y189.545 E30.80805
G1 X197.214 Y190.028 E30.83927
G1 X196.37 Y190.438 E30.87048
G1 X195.493 Y190.771 E30.90168
G1 X194.589 Y191.025 E30.93291
G1 X193.661 Y191.199 E30.96432
G1 X192.42 Y191.302 E31.00574
G1 X191.301 Y191.326 E31.04296
G1 X38.715 Y191.327 E36.11799
G1 X38 Y191.316 E36.14178
G1 X37.063 Y191.26 E36.173
G1 X36.135 Y191.121 E36.20421
G1 X35.222 Y190.9 E36.23545
G1 X34.366 Y190.612 E36.26549
G1 X33.474 Y190.222 E36.29787
G1 X32.653 Y189.769 E36.32906
G1 X31.902 Y189.267 E36.3591
G1 X31.143 Y188.655 E36.39153
G1 X30.469 Y188.002 E36.42274
G1 X29.855 Y187.293 E36.45394
G1 X29.305 Y186.532 E36.48517
G1 X28.843 Y185.756 E36.51521
G1 X28.42 Y184.879 E36.54759
G1 X28.091 Y184.001 E36.57878
G1 X27.84 Y183.096 E36.61001
G1 X27.669 Y182.168 E36.6414
G1 X27.573 Y181.003 E36.68028
G1 X27.56 Y180.386 E36.7008
G1 X27.561 Y156.612 E37.49153
G1 X27.579 Y155.593 E37.52543
G1 X27.608 Y154.904 E37.54836
G1 X27.682 Y152.306 E37.63481
G1 X27.682 Y149.783 E37.71872
G1 X27.56 Y145.724 E37.85379
G1 X27.561 Y104.611 E39.22121
G1 X27.579 Y103.592 E39.25511
G1 X27.608 Y102.903 E39.27804
G1 X27.682 Y100.305 E39.36449
G1 X27.682 Y97.782 E39.4484
G1 X27.56 Y93.722 E39.5835
G1 X27.561 Y70.544 E40.35441
G1 X27.572 Y69.825 E40.37832
G1 X27.628 Y68.888 E40.40954
G1 X27.767 Y67.96 E40.44075
G1 X27.988 Y67.047 E40.472
G1 X28.288 Y66.159 E40.50317
G1 X28.666 Y65.299 E40.53442
G1 X29.119 Y64.476 E40.56566
G1 X29.622 Y63.726 E40.5957
G1 X30.409 Y62.772 E40.63683
G1 X31.004 Y62.134 E40.66585
G1 X31.903 Y61.195 E40.70908
G1 X33.593 Y59.325 E40.79292
G1 X35.234 Y57.402 E40.877
G1 X36.831 Y55.421 E40.96163
G1 X38.348 Y53.425 E41.04502
G1 X39.146 Y52.321 E41.09032
G1 X40.001 Y51.196 E41.13732
G1 X40.814 Y50.255 E41.17868
G1 X41.425 Y49.631 E41.20773
G1 X42.381 Y48.769 E41.25054
G0 F6000 X42.63 Y49.082
G1 F1200 X43.24 Y48.596 E41.27648
G1 X44.207 Y47.914 E41.31584
G1 X44.853 Y47.512 E41.34115
G1 X45.964 Y46.913 E41.38313
G1 X46.702 Y46.572 E41.41017
G1 X47.855 Y46.121 E41.45134
G1 X48.579 Y45.888 E41.47664
G1 X49.741 Y45.589 E41.51655
G1 X50.567 Y45.427 E41.54454
G1 X51.797 Y45.262 E41.58582
G1 X52.38 Y45.22 E41.60526
G1 X52.944 Y45.195 E41.62404
G1 X53.908 Y45.179 E41.65611
G1 X184.222 Y45.178 E45.99037
G1 X184.99 Y45.188 E46.01591
G1 X186.044 Y45.236 E46.05101
G1 X187.239 Y45.369 E46.091
G1 X188.036 Y45.506 E46.11789
G1 X189.24 Y45.79 E46.15904
G1 X189.973 Y46.01 E46.18449
G1 X191.127 Y46.433 E46.22537
G1 X191.884 Y46.764 E46.25285
G1 X193.008 Y47.341 E46.29487
G1 X193.683 Y47.742 E46.32099
G1 X194.698 Y48.431 E46.36179
G1 X195.299 Y48.894 E46.38702
G1 X196.19 Y49.666 E46.42623
G1 X196.759 Y50.22 E46.45265
G1 X197.621 Y51.173 E46.49539
G1 X198.134 Y51.817 E46.52277
G1 X198.83 Y52.805 E46.56297
G1 X199.234 Y53.458 E46.58851
G1 X199.82 Y54.549 E46.6297
G1 X200.146 Y55.255 E46.65556
G1 X200.598 Y56.413 E46.69691
G1 X200.86 Y57.229 E46.72541
G1 X201.076 Y58.009 E46.75233
G1 X201.339 Y59.127 E46.79053
G1 X201.97 Y61.644 E46.87684
G1 X202.661 Y64.109 E46.96198
G1 X203.414 Y66.528 E47.04625
G1 X204.238 Y68.933 E47.1308
G1 X205.134 Y71.328 E47.21585
G1 X206.081 Y73.654 E47.29938
G1 X207.119 Y76.011 E47.38504
G1 X208.212 Y78.314 E47.46983
G1 X209.278 Y80.435 E47.54878
G1 X209.671 Y81.281 E47.57981
G1 X210.128 Y82.449 E47.62152
G1 X210.371 Y83.203 E47.64787
G1 X210.677 Y84.392 E47.68871
G1 X210.825 Y85.156 E47.71459
G1 X210.984 Y86.351 E47.75469
G1 X211.032 Y87.006 E47.77653
G1 X211.058 Y87.585 E47.79581
G1 X211.072 Y88.446 E47.82445
G1 X211.073 Y171.446 E50.58504
G1 X211.062 Y172.293 E50.61321
G1 X211.009 Y173.195 E50.64327
G1 X210.877 Y174.088 E50.67329
G1 X210.666 Y174.966 E50.70332
G1 X210.378 Y175.822 E50.73336
G1 X210.016 Y176.65 E50.76342
G1 X209.582 Y177.442 E50.79346
G1 X209.079 Y178.192 E50.82349
G1 X208.513 Y178.895 E50.85351
G1 X208.124 Y179.312 E50.87248
G1 X207.607 Y179.836 E50.89696
G1 X199.707 Y187.611 E51.26563
G1 X199.222 Y188.075 E51.28795
G1 X198.543 Y188.67 E51.31798
G1 X197.813 Y189.202 E51.34802
G1 X197.039 Y189.668 E51.37807
G1 X196.227 Y190.064 E51.40812
G1 X195.384 Y190.386 E51.43813
G1 X194.515 Y190.632 E51.46817
G1 X193.628 Y190.8 E51.4982
G1 X192.387 Y190.903 E51.53961
G1 X191.301 Y190.926 E51.57574
G1 X38.721 Y190.927 E56.65057
G1 X38.023 Y190.917 E56.67379
G1 X37.121 Y190.864 E56.70384
G1 X36.228 Y190.732 E56.73387
G1 X35.35 Y190.521 E56.7639
G1 X34.494 Y190.233 E56.79394
G1 X33.667 Y189.871 E56.82397
G1 X32.875 Y189.436 E56.85402
G1 X32.124 Y188.934 E56.88407
G1 X31.421 Y188.367 E56.91411
G1 X30.771 Y187.74 E56.94414
G1 X30.179 Y187.058 E56.97418
G1 X29.649 Y186.327 E57.00421
G1 X29.187 Y185.551 E57.03425
G1 X28.794 Y184.738 E57.06428
G1 X28.476 Y183.893 E57.09431
G1 X28.233 Y183.023 E57.12436
G1 X28.068 Y182.135 E57.1544
G1 X27.973 Y180.994 E57.19248
G1 X27.96 Y180.386 E57.2127
G1 X27.961 Y156.619 E58.0032
G1 X27.979 Y155.61 E58.03676
G1 X28.008 Y154.921 E58.0597
G1 X28.082 Y152.317 E58.14634
G1 X28.082 Y149.783 E58.23063
G1 X27.96 Y145.724 E58.36569
G1 X27.961 Y104.618 E59.73288
G1 X27.979 Y103.609 E59.76645
G1 X28.008 Y102.92 E59.78938
G1 X28.082 Y100.316 E59.87603
G1 X28.082 Y97.782 E59.96031
G1 X27.96 Y93.722 E60.0954
G1 X27.961 Y70.55 E60.86611
G1 X27.971 Y69.848 E60.88946
G1 X28.024 Y68.946 E60.91951
G1 X28.156 Y68.053 E60.94954
G1 X28.367 Y67.175 E60.97957
G1 X28.655 Y66.319 E61.00961
G1 X29.017 Y65.491 E61.03966
G1 X29.451 Y64.699 E61.0697
G1 X29.954 Y63.949 E61.09974
G1 X30.702 Y63.045 E61.13876
G1 X31.293 Y62.411 E61.16759
G1 X32.192 Y61.472 E61.21083
G1 X33.89 Y59.593 E61.29506
G1 X35.538 Y57.662 E61.3795
G1 X37.142 Y55.672 E61.46451
G1 X38.666 Y53.667 E61.54827
G1 X39.464 Y52.563 E61.59358
G1 X40.304 Y51.458 E61.63975
G1 X41.117 Y50.517 E61.68111
G1 X41.693 Y49.928 E61.70851
G1 X42.63 Y49.082 E61.7505
G1 F2700 E56.7505
;MESH:RightPCB.stl
G0 F6000 X75.01 Y87.715
G0 X77.174 Y90.658
;TYPE:WALL-INNER
G1 F2700 E61.7505
G1 F1200 X76.571 Y90.914 E61.77228
G1 X76.174 Y90.953 E61.78555
G1 X75.518 Y90.812 E61.80787
G1 X74.997 Y90.461 E61.82876
G1 X74.747 Y90.154 E61.84193
G1 X74.517 Y89.59 E61.86219
G1 X74.471 Y89.194 E61.87545
G1 X74.594 Y88.567 E61.8967
G1 X74.852 Y88.134 E61.91347
G1 X75.124 Y87.858 E61.92635
G1 X75.702 Y87.547 E61.94818
G1 X76.359 Y87.485 E61.97013
G1 X76.865 Y87.619 E61.98754
G1 X77.184 Y87.786 E61.99952
G1 X77.645 Y88.245 E62.02116
G1 X77.899 Y88.857 E62.04319
G1 X77.925 Y89.396 E62.06114
G1 X77.807 Y89.855 E62.07691
G1 X77.63 Y90.202 E62.08986
G1 X77.174 Y90.658 E62.11131
G1 F2700 E57.11131
G0 F6000 X76.503 Y91.022
G0 X76.154 Y91.135
G0 X76.278 Y149.536
G0 X76.511 Y153.149
G1 F2700 E62.11131
G1 F1200 X75.856 Y153.147 E62.1331
G1 X75.308 Y152.923 E62.15279
G1 X75.14 Y152.804 E62.15963
G1 X74.762 Y152.418 E62.1776
G1 X74.577 Y152.058 E62.19107
G1 X74.461 Y151.458 E62.21139
G1 X74.502 Y151.073 E62.22427
G1 X74.748 Y150.478 E62.24568
G1 X75.205 Y150.016 E62.2673
G1 X75.561 Y149.827 E62.2807
G1 X76.18 Y149.705 E62.30169
G1 X76.819 Y149.824 E62.32331
G1 X77.174 Y150.011 E62.33665
G1 X77.626 Y150.463 E62.35791
G1 X77.882 Y151.058 E62.37946
G1 X77.923 Y151.453 E62.39266
G1 X77.854 Y151.925 E62.40853
G1 X77.703 Y152.292 E62.42173
G1 X77.315 Y152.762 E62.442
G1 X76.993 Y152.977 E62.45488
G1 X76.511 Y153.149 E62.4719
G1 F2700 E57.4719
G0 F6000 X77.851 Y152.394
G0 X169.911 Y152.569
G0 X171.479 Y153.208
G1 F2700 E62.4719
G1 F1200 X170.841 Y153.083 E62.49352
G1 X170.488 Y152.891 E62.50689
G1 X170.053 Y152.453 E62.52742
G1 X169.87 Y152.11 E62.54035
G1 X169.743 Y151.495 E62.56124
G1 X169.791 Y151.079 E62.57516
G1 X170.039 Y150.497 E62.59621
G1 X170.38 Y150.133 E62.61279
G1 X170.68 Y149.924 E62.62496
G1 X171.308 Y149.735 E62.64677
G1 X171.973 Y149.804 E62.669
G1 X172.421 Y150.019 E62.68553
G1 X172.728 Y150.269 E62.6987
G1 X173.082 Y150.806 E62.72009
G1 X173.215 Y151.461 E62.74232
G1 X173.099 Y152.048 E62.76222
G1 X173.034 Y152.205 E62.76788
G1 X172.7 Y152.701 E62.78776
G1 X172.154 Y153.07 E62.80968
G1 X171.479 Y153.208 E62.8326
G1 F2700 E57.8326
G0 F6000 X170.729 Y153.137
G0 X171.367 Y153.37
G0 X171.367 Y179.928
G0 X191.914 Y180.128
G1 F2700 E62.8326
G1 F1200 X200.273 Y171.899 E63.22273
G1 X200.273 Y87.861 E66.01785
G1 X200.234 Y87.232 E66.03881
G1 X200.11 Y86.547 E66.06196
G1 X199.89 Y85.843 E66.0865
G1 X199.597 Y85.189 E66.11033
G1 X199.226 Y84.576 E66.13416
G1 X198.797 Y84.026 E66.15736
G1 X198.277 Y83.505 E66.18184
G1 X197.712 Y83.064 E66.20568
G1 X197.094 Y82.687 E66.22976
G1 X196.458 Y82.4 E66.25297
G1 X195.75 Y82.179 E66.27764
G1 X195.062 Y82.053 E66.3009
G1 X194.43 Y82.013 E66.32196
G1 X191.292 Y82.011 E66.42633
G1 X190.985 Y81.896 E66.43724
G1 X190.845 Y81.75 E66.44397
G1 X190.743 Y81.507 E66.45273
G1 X190.743 Y61.826 E67.10732
G1 X190.704 Y61.197 E67.12828
G1 X190.579 Y60.506 E67.15164
G1 X190.36 Y59.806 E67.17603
G1 X190.063 Y59.146 E67.20011
G1 X189.696 Y58.541 E67.22364
G1 X189.267 Y57.991 E67.24684
G1 X188.743 Y57.467 E67.27149
G1 X188.175 Y57.022 E67.29549
G1 X187.569 Y56.654 E67.31907
G1 X186.92 Y56.363 E67.34273
G1 X186.215 Y56.142 E67.3673
G1 X185.53 Y56.017 E67.39046
G1 X184.9 Y55.978 E67.41145
G1 X53.263 Y55.978 E71.78972
G1 X52.631 Y56.018 E71.81078
G1 X51.943 Y56.142 E71.83403
G1 X51.258 Y56.357 E71.85791
