; HEADER_BLOCK_START
; generated by OrcaSlicer 1.7.0 on 2023-10-24 at 20:38:46
; total layer number: 60
; HEADER_BLOCK_END

; THUMBNAIL_BLOCK_START
; THUMBNAIL_BLOCK_END

; external perimeters extrusion width = 0.40mm
; perimeters extrusion width = 0.45mm
; infill extrusion width = 0.45mm
; solid infill extrusion width = 0.45mm
; top infill extrusion width = 0.38mm
; first layer extrusion width = 0.45mm

; EXECUTABLE_BLOCK_START
M73 P0 R311
M201 X500 Y500 Z100 E5000
M203 X500 Y500 Z10 E60
M204 P500 R1000 T500
M205 X8.00 Y8.00 Z0.40 E5.00 ; sets the jerk limits, mm/sec
;TYPE:Custom
G90 ; use absolute coordinates
M83 ; extruder relative mode
M140 S80 ; set final bed temp
M104 S150 ; set temporary nozzle temp to prevent oozing during homing
G4 S10 ; allow partial nozzle warmup
G28 ; home all axis
G1 Z50 F240
G1 X2 Y10 F3000
M104 S240 ; set final nozzle temp
M190 S80 ; wait for bed temp to stabilize
M109 S240 ; wait for nozzle temp to stabilize
G1 Z0.28 F240
G92 E0
G1 Y140 E10 F1500 ; prime the nozzle
M73 P0 R310
G1 X2.3 F5000
G92 E0
G1 Y10 E10 F1200 ; prime the nozzle
G92 E0
G90
G21
M83 ; use relative distances for extrusion
; Filament gcode
M106 S0
;LAYER_CHANGE
;Z:0.2
;HEIGHT:0.2
;BEFORE_LAYER_CHANGE
;0.2
G92 E0

G1 E-5 F3600
;_SET_FAN_SPEED_CHANGING_LAYER
G1 X32.755 Y39.273 F9000
G1 Z.2
G1 E5 F2400
;TYPE:Skirt
;WIDTH:0.45
G1 F1200
G1 X33.256 Y38.855 E.00771
G1 X34.291 Y38.141 E.01486
G1 X35.867 Y37.253 E.02138
G1 X37.005 Y36.741 E.01475
G1 X38.698 Y36.156 E.02116
G1 X39.929 Y35.852 E.01498
G1 X41.703 Y35.582 E.02121
G1 X43.04 Y35.506 E.01583
G1 X174.925 Y35.501 E1.55861
G1 X177.228 Y35.677 E.02729
G1 X179.215 Y36.089 E.02399
G1 X181.15 Y36.743 E.02414
G1 X182.988 Y37.622 E.02407
G1 X184.878 Y38.844 E.0266
G1 X186.443 Y40.165 E.0242
G1 X187.836 Y41.666 E.0242
G1 X189.023 Y43.303 E.0239
G1 X189.91 Y44.875 E.02133
G1 X190.425 Y46.017 E.01481
G1 X200.252 Y72.835 E.33754
G1 X200.795 Y74.746 E.02348
G1 X201.117 Y76.766 E.02417
G1 X201.196 Y78.283 E.01795
G1 X201.196 Y162.604 E.9965
G1 X201.139 Y163.645 E.01232
G1 X200.816 Y165.364 E.02068
G1 X200.398 Y166.573 E.01511
G1 X199.834 Y167.72 E.01511
G1 X199.072 Y168.862 E.01622
G1 X198.113 Y169.964 E.01726
G1 X189.228 Y178.699 E.14725
G1 X187.574 Y179.965 E.02461
G1 X186.013 Y180.754 E.02068
G1 X184.012 Y181.333 E.02461
G1 X182.157 Y181.506 E.02202
G1 X28.156 Y181.506 E1.81997
G1 X27.115 Y181.449 E.01232
G1 X25.853 Y181.241 E.01511
G1 X24.187 Y180.708 E.02068
G1 X23.039 Y180.144 E.01511
G1 X21.97 Y179.443 E.01511
G1 X20.437 Y178.033 E.02461
G1 X19.391 Y176.631 E.02068
G1 X18.475 Y174.761 E.02461
G1 X18.009 Y173.074 E.02068
G1 X17.832 Y171.338 E.02063
G1 X17.828 Y60.439 E1.3106
G1 X17.886 Y59.397 E.01232
G1 X18.209 Y57.678 E.02068
G1 X18.627 Y56.469 E.01511
G1 X19.19 Y55.322 E.01511
G1 X19.892 Y54.253 E.01511
G1 X30.382 Y41.582 E.1944
G1 X31.873 Y40.009 E.02562
G1 X32.725 Y39.299 E.01311
G1 X32.985 Y39.611 F9000
G1 F1200
G1 X33.507 Y39.176 E.00803
G1 X34.501 Y38.489 E.01427
G1 X36.056 Y37.613 E.02109
G1 X37.15 Y37.121 E.01417
G1 X38.82 Y36.544 E.02088
G1 X40.002 Y36.252 E.01439
G1 X41.752 Y35.986 E.02092
G1 X43.06 Y35.912 E.01549
G1 X174.925 Y35.909 E1.55837
G1 X177.179 Y36.081 E.0267
M73 P0 R309
G1 X179.118 Y36.485 E.02341
G1 X181.006 Y37.123 E.02356
G1 X182.798 Y37.983 E.02349
G1 X184.627 Y39.165 E.02574
G1 X186.156 Y40.453 E.02362
G1 X187.516 Y41.917 E.02362
G1 X188.675 Y43.514 E.02332
G1 X189.55 Y45.064 E.02104
G1 X190.044 Y46.161 E.01422
G1 X199.869 Y72.975 E.33748
G1 X200.4 Y74.843 E.02296
G1 X200.713 Y76.815 E.02359
G1 X200.789 Y78.283 E.01737
G1 X200.789 Y162.604 E.9965
G1 X200.733 Y163.62 E.01203
G1 X200.428 Y165.24 E.01949
G1 X200.029 Y166.402 E.01451
G1 X199.489 Y167.505 E.01451
G1 X198.763 Y168.598 E.01551
G1 X197.828 Y169.674 E.01684
G1 X188.961 Y178.392 E.14696
G1 X187.347 Y179.628 E.02402
G1 X185.876 Y180.371 E.01949
G1 X183.923 Y180.936 E.02402
G1 X182.157 Y181.099 E.02097
G1 X28.156 Y181.099 E1.81997
G1 X27.14 Y181.042 E.01203
G1 X25.928 Y180.841 E.01451
G1 X24.358 Y180.338 E.01949
G1 X23.255 Y179.799 E.01451
G1 X22.227 Y179.127 E.01451
G1 X20.731 Y177.751 E.02402
G1 X19.744 Y176.43 E.01949
G1 X18.851 Y174.605 E.02402
G1 X18.411 Y173.015 E.01949
G1 X18.236 Y171.179 E.02181
G1 X18.236 Y60.439 E1.30872
G1 X18.292 Y59.422 E.01203
G1 X18.493 Y58.211 E.01451
G1 X18.843 Y57.034 E.01451
G1 X19.335 Y55.909 E.01451
G1 X20.208 Y54.509 E.01949
G1 X30.695 Y41.842 E.19435
G1 X32.143 Y40.314 E.02488
G1 X32.955 Y39.637 E.01249
; printing object RightPCB.stl id:94750816256064 copy 0
G1 E-3.5 F3600
;WIPE_START
G1 F1200
G1 X33.507 Y39.176 E-1.0798
G1 X33.738 Y39.016 E-.4202
;WIPE_END
G1 X35.17 Y42.46 F9000
G1 E5 F2400
;TYPE:Brim
G1 F1200
G1 X35.731 Y42.02 E.00843
G1 X36.373 Y41.577 E.00922
G1 X37.04 Y41.174 E.0092
G1 X37.727 Y40.814 E.00917
G1 X38.437 Y40.495 E.0092
G1 X39.15 Y40.224 E.00901
G1 X39.892 Y39.992 E.00919
G1 X40.656 Y39.803 E.0093
G1 X41.422 Y39.663 E.0092
G1 X42.18 Y39.571 E.00902
G1 X43.235 Y39.519 E.01249
G1 X174.92 Y39.519 E1.55625
G1 X175.96 Y39.57 E.0123
G1 X176.737 Y39.664 E.00925
G1 X177.502 Y39.805 E.00919
G1 X178.247 Y39.989 E.00907
G1 X178.99 Y40.22 E.0092
G1 X179.719 Y40.497 E.00922
G1 X180.429 Y40.817 E.0092
G1 X181.113 Y41.176 E.00913
G1 X181.779 Y41.579 E.00919
G1 X182.409 Y42.013 E.00904
G1 X183.022 Y42.493 E.0092
G1 X183.607 Y43.01 E.00923
G1 X184.157 Y43.56 E.0092
G1 X184.675 Y44.145 E.00923
G1 X185.154 Y44.759 E.0092
G1 X185.589 Y45.388 E.00904
G1 X185.991 Y46.054 E.00919
G1 X186.351 Y46.738 E.00913
G1 X186.671 Y47.448 E.0092
G1 X186.947 Y48.177 E.00922
G1 X187.179 Y48.92 E.0092
G1 X187.363 Y49.667 E.00909
G1 X187.503 Y50.433 E.0092
G1 X187.598 Y51.208 E.00922
G1 X187.649 Y52.253 E.01236
G1 X187.649 Y65.834 E.1605
G1 X187.697 Y65.966 E.00166
G1 X187.792 Y66.028 E.00134
G1 X188.52 Y66.255 E.00902
G1 X189.249 Y66.532 E.00922
G1 X189.959 Y66.852 E.0092
G1 X190.643 Y67.211 E.00913
G1 X191.309 Y67.614 E.00919
G1 X191.939 Y68.048 E.00904
G1 X192.552 Y68.528 E.0092
G1 X193.137 Y69.045 E.00923
G1 X193.687 Y69.595 E.0092
G1 X194.205 Y70.18 E.00923
G1 X194.684 Y70.794 E.0092
G1 X195.119 Y71.423 E.00904
G1 X195.521 Y72.089 E.00919
G1 X195.881 Y72.773 E.00913
G1 X196.201 Y73.483 E.0092
G1 X196.477 Y74.212 E.00922
G1 X196.709 Y74.955 E.0092
G1 X196.893 Y75.702 E.00909
G1 X197.033 Y76.468 E.0092
G1 X197.128 Y77.243 E.00922
G1 X197.179 Y78.288 E.01236
G1 X197.179 Y162.597 E.99636
G1 X197.13 Y163.383 E.00931
G1 X196.985 Y164.151 E.00923
G1 X196.747 Y164.896 E.00923
G1 X196.419 Y165.605 E.00923
G1 X196.007 Y166.265 E.0092
G1 X195.289 Y167.107 E.01307
G1 X186.588 Y175.671 E.14428
G1 X185.993 Y176.188 E.00931
G1 X185.344 Y176.623 E.00923
G1 X184.647 Y176.976 E.00923
G1 X183.911 Y177.239 E.00923
G1 X183.15 Y177.409 E.00921
G1 X182.149 Y177.488 E.01187
G1 X28.162 Y177.488 E1.8198
G1 X27.376 Y177.439 E.00931
G1 X26.608 Y177.295 E.00923
G1 X25.864 Y177.057 E.00923
G1 X25.155 Y176.728 E.00923
G1 X24.492 Y176.315 E.00923
G1 X23.885 Y175.823 E.00923
G1 X23.344 Y175.259 E.00923
G1 X22.876 Y174.633 E.00923
G1 X22.49 Y173.954 E.00923
G1 X22.19 Y173.232 E.00923
G1 X21.982 Y172.479 E.00923
G1 X21.868 Y171.704 E.00926
G1 X21.846 Y171.174 E.00626
G1 X21.846 Y146.511 E.29147
G1 X21.895 Y145.725 E.00931
G1 X22.039 Y144.957 E.00923
G1 X22.278 Y144.212 E.00923
G1 X22.606 Y143.503 E.00923
G1 X23.02 Y142.84 E.00923
G1 X23.511 Y142.234 E.00922
G1 X24.134 Y141.647 E.01011
G1 X24.196 Y141.521 E.00166
G1 X24.122 Y141.341 E.0023
G1 X23.885 Y141.149 E.00361
G1 X23.344 Y140.585 E.00923
G1 X22.876 Y139.959 E.00923
G1 X22.49 Y139.28 E.00923
G1 X22.19 Y138.558 E.00923
G1 X21.982 Y137.805 E.00923
G1 X21.868 Y137.03 E.00926
G1 X21.846 Y136.5 E.00626
G1 X21.846 Y94.51 E.49624
G1 X21.895 Y93.724 E.00931
G1 X22.039 Y92.956 E.00923
G1 X22.278 Y92.211 E.00923
G1 X22.606 Y91.502 E.00923
G1 X23.02 Y90.839 E.00923
G1 X23.511 Y90.233 E.00922
G1 X24.134 Y89.646 E.01012
G1 X24.197 Y89.52 E.00166
G1 X24.123 Y89.34 E.0023
G1 X23.885 Y89.147 E.00362
G1 X23.344 Y88.583 E.00923
G1 X22.876 Y87.957 E.00923
G1 X22.49 Y87.278 E.00923
G1 X22.19 Y86.556 E.00923
G1 X21.982 Y85.803 E.00923
G1 X21.868 Y85.028 E.00926
G1 X21.846 Y84.498 E.00626
G1 X21.846 Y60.445 E.28426
G1 X21.895 Y59.659 E.00931
G1 X22.039 Y58.891 E.00923
G1 X22.278 Y58.146 E.00923
G1 X22.606 Y57.437 E.00923
G1 X23.02 Y56.774 E.00923
G1 X23.512 Y56.168 E.00923
G1 X24.075 Y55.626 E.00923
G1 X24.702 Y55.159 E.00923
G1 X25.381 Y54.772 E.00923
G1 X26.102 Y54.473 E.00923
G1 X26.856 Y54.265 E.00923
G1 X27.631 Y54.151 E.00926
G1 X28.16 Y54.129 E.00626
G1 X30.299 Y54.129 E.02527
G1 X30.43 Y54.08 E.00166
G1 X30.502 Y53.926 E.00201
G1 X30.514 Y51.866 E.02435
G1 X30.553 Y51.209 E.00777
G1 X30.646 Y50.442 E.00914
G1 X30.786 Y49.676 E.0092
G1 X30.973 Y48.914 E.00927
G1 X31.206 Y48.171 E.0092
G1 X31.477 Y47.456 E.00904
G1 X31.796 Y46.746 E.0092
G1 X32.159 Y46.055 E.00922
G1 X32.561 Y45.389 E.00919
G1 X32.995 Y44.76 E.00904
G1 X33.475 Y44.146 E.0092
G1 X33.993 Y43.562 E.00923
G1 X34.543 Y43.011 E.0092
G1 X35.119 Y42.501 E.0091
G1 X35.138 Y42.485 E.00029
G1 X35.39 Y42.805 F9000
G1 F1200
G1 X35.97 Y42.35 E.00871
G1 X36.598 Y41.917 E.00902
G1 X37.243 Y41.527 E.00891
G1 X37.902 Y41.182 E.00879
G1 X38.596 Y40.87 E.00899
G1 X39.286 Y40.608 E.00872
G1 X39.998 Y40.385 E.00881
G1 X40.745 Y40.201 E.00909
G1 X41.479 Y40.067 E.00882
G1 X42.21 Y39.978 E.0087
G1 X43.248 Y39.926 E.01228
G1 X174.908 Y39.926 E1.55594
G1 X175.921 Y39.975 E.012
M73 P0 R308
G1 X176.672 Y40.066 E.00893
G1 X177.413 Y40.202 E.0089
G1 X178.134 Y40.38 E.00878
G1 X178.854 Y40.604 E.00891
G1 X179.56 Y40.872 E.00892
G1 X180.247 Y41.181 E.00891
G1 X180.916 Y41.533 E.00893
G1 X181.555 Y41.919 E.00882
G1 X182.17 Y42.344 E.00884
G1 X182.764 Y42.808 E.00891
G1 X183.33 Y43.31 E.00894
G1 X183.863 Y43.842 E.0089
G1 X184.364 Y44.409 E.00894
G1 X184.828 Y45.003 E.00891
G1 X185.248 Y45.613 E.00875
G1 X185.635 Y46.251 E.00882
G1 X185.983 Y46.913 E.00884
G1 X186.293 Y47.601 E.00891
G1 X186.563 Y48.314 E.00901
G1 X186.787 Y49.033 E.00891
G1 X186.965 Y49.756 E.0088
G1 X187.101 Y50.498 E.00891
G1 X187.192 Y51.246 E.00891
G1 X187.241 Y52.265 E.01206
G1 X187.241 Y65.823 E.16022
G1 X187.27 Y65.985 E.00194
G1 X187.308 Y66.088 E.0013
G1 X187.489 Y66.316 E.00344
G1 X187.56 Y66.363 E.00101
G1 X187.679 Y66.42 E.00156
G1 X188.391 Y66.641 E.00881
G1 X189.09 Y66.907 E.00884
G1 X189.777 Y67.216 E.00891
G1 X190.446 Y67.568 E.00893
G1 X191.091 Y67.958 E.0089
G1 X191.7 Y68.379 E.00875
G1 X192.288 Y68.838 E.00882
G1 X192.855 Y69.339 E.00894
G1 X193.388 Y69.872 E.0089
G1 X193.889 Y70.438 E.00894
G1 X194.358 Y71.038 E.009
G1 X194.778 Y71.648 E.00875
G1 X195.165 Y72.286 E.00882
G1 X195.516 Y72.955 E.00893
G1 X195.826 Y73.642 E.00891
G1 X196.093 Y74.349 E.00892
G1 X196.315 Y75.061 E.00882
G1 X196.494 Y75.784 E.0088
G1 X196.631 Y76.533 E.009
G1 X196.722 Y77.281 E.00891
G1 X196.771 Y78.3 E.01206
G1 X196.771 Y162.581 E.99602
G1 X196.726 Y163.325 E.00882
G1 X196.588 Y164.059 E.00882
G1 X196.364 Y164.754 E.00864
G1 X196.063 Y165.404 E.00846
G1 X195.671 Y166.031 E.00874
G1 X194.994 Y166.825 E.01233
G1 X186.308 Y175.374 E.14403
G1 X185.739 Y175.868 E.00891
G1 X185.132 Y176.275 E.00864
G1 X184.479 Y176.604 E.00864
G1 X183.805 Y176.845 E.00846
G1 X183.098 Y177.004 E.00856
G1 X182.128 Y177.081 E.0115
G1 X28.179 Y177.081 E1.81936
G1 X27.419 Y177.033 E.009
G1 X26.701 Y176.897 E.00864
G1 X26.005 Y176.674 E.00864
G1 X25.342 Y176.366 E.00864
G1 X24.723 Y175.978 E.00864
G1 X24.167 Y175.527 E.00846
G1 X23.66 Y175.001 E.00864
G1 X23.214 Y174.403 E.00882
G1 X22.86 Y173.781 E.00846
G1 X22.579 Y173.106 E.00864
G1 X22.383 Y172.402 E.00864
G1 X22.274 Y171.659 E.00887
G1 X22.253 Y171.163 E.00587
G1 X22.253 Y146.527 E.29115
G1 X22.299 Y145.783 E.00882
G1 X22.433 Y145.064 E.00864
G1 X22.655 Y144.368 E.00864
G1 X22.962 Y143.704 E.00864
G1 X23.348 Y143.084 E.00864
G1 X23.805 Y142.518 E.0086
G1 X24.405 Y141.951 E.00976
G1 X24.555 Y141.715 E.0033
G1 X24.6 Y141.532 E.00223
G1 X24.568 Y141.355 E.00212
G1 X24.505 Y141.201 E.00197
G1 X24.367 Y141.015 E.00273
G1 X24.156 Y140.843 E.00322
G1 X23.65 Y140.315 E.00864
G1 X23.214 Y139.729 E.00864
G1 X22.86 Y139.107 E.00846
G1 X22.579 Y138.432 E.00864
G1 X22.383 Y137.728 E.00864
G1 X22.274 Y136.985 E.00887
G1 X22.253 Y136.489 E.00587
G1 X22.253 Y94.526 E.49592
G1 X22.299 Y93.782 E.00882
G1 X22.433 Y93.063 E.00864
G1 X22.655 Y92.367 E.00864
G1 X22.962 Y91.703 E.00864
G1 X23.348 Y91.083 E.00864
G1 X23.805 Y90.517 E.0086
G1 X24.406 Y89.949 E.00977
G1 X24.555 Y89.714 E.0033
G1 X24.601 Y89.53 E.00223
G1 X24.569 Y89.354 E.00212
G1 X24.505 Y89.199 E.00197
G1 X24.367 Y89.014 E.00273
G1 X24.156 Y88.841 E.00323
G1 X23.65 Y88.313 E.00864
G1 X23.214 Y87.727 E.00864
G1 X22.86 Y87.105 E.00846
G1 X22.579 Y86.43 E.00864
G1 X22.383 Y85.726 E.00864
G1 X22.274 Y84.983 E.00887
G1 X22.253 Y84.487 E.00587
G1 X22.253 Y60.461 E.28394
G1 X22.299 Y59.717 E.00882
G1 X22.433 Y58.998 E.00864
G1 X22.655 Y58.302 E.00864
G1 X22.962 Y57.638 E.00864
G1 X23.348 Y57.018 E.00864
G1 X23.807 Y56.45 E.00864
G1 X24.334 Y55.943 E.00864
G1 X24.931 Y55.496 E.00882
G1 X25.553 Y55.142 E.00846
G1 X26.228 Y54.861 E.00864
G1 X26.947 Y54.663 E.00882
G1 X27.663 Y54.558 E.00855
G1 X28.166 Y54.536 E.00596
G1 X30.288 Y54.536 E.02507
G1 X30.558 Y54.467 E.0033
G1 X30.719 Y54.364 E.00226
G1 X30.804 Y54.243 E.00175
G1 X30.866 Y54.11 E.00173
G1 X30.909 Y53.916 E.00236
G1 X30.921 Y51.876 E.02411
G1 X30.959 Y51.242 E.0075
G1 X31.048 Y50.506 E.00876
G1 X31.183 Y49.765 E.00891
G1 X31.365 Y49.027 E.00898
G1 X31.592 Y48.301 E.009
G1 X31.855 Y47.608 E.00875
G1 X32.164 Y46.921 E.00891
G1 X32.515 Y46.252 E.00893
G1 X32.905 Y45.608 E.0089
G1 X33.326 Y44.998 E.00875
G1 X33.79 Y44.404 E.00891
G1 X34.292 Y43.838 E.00894
G1 X34.825 Y43.305 E.0089
G1 X35.359 Y42.832 E.00844
G1 X35.629 Y43.136 F9000
G1 F1200
G1 X35.641 Y43.126 E.00018
G1 X36.208 Y42.681 E.00853
G1 X36.822 Y42.257 E.00881
G1 X37.44 Y41.884 E.00853
G1 X38.077 Y41.55 E.0085
G1 X38.755 Y41.245 E.00879
G1 X39.423 Y40.992 E.00844
G1 X40.104 Y40.778 E.00844
G1 X40.834 Y40.598 E.00888
G1 X41.537 Y40.47 E.00844
G1 X42.241 Y40.384 E.00838
G1 X43.261 Y40.333 E.01208
G1 X174.895 Y40.333 E1.55563
G1 X175.883 Y40.381 E.01169
G1 X176.607 Y40.468 E.00862
G1 X177.324 Y40.6 E.00861
G1 X178.021 Y40.772 E.00849
G1 X178.725 Y40.99 E.0087
G1 X179.407 Y41.249 E.00863
G1 X180.072 Y41.549 E.00862
G1 X180.719 Y41.889 E.00864
G1 X181.337 Y42.263 E.00853
G1 X181.932 Y42.674 E.00855
G1 X182.506 Y43.124 E.00862
G1 X183.054 Y43.609 E.00864
G1 X183.569 Y44.124 E.00861
G1 X184.053 Y44.672 E.00865
G1 X184.502 Y45.247 E.00862
G1 X184.908 Y45.837 E.00847
G1 X185.278 Y46.448 E.00844
G1 X185.615 Y47.089 E.00855
G1 X185.915 Y47.753 E.00861
G1 X186.18 Y48.45 E.00881
G1 X186.396 Y49.146 E.00862
G1 X186.568 Y49.845 E.00851
G1 X186.699 Y50.563 E.00862
G1 X186.786 Y51.285 E.0086
G1 X186.834 Y52.278 E.01175
G1 X186.834 Y65.812 E.15994
G1 X186.891 Y66.129 E.0038
G1 X186.997 Y66.351 E.00291
G1 X187.164 Y66.561 E.00317
G1 X187.271 Y66.66 E.00172
G1 X187.39 Y66.733 E.00165
G1 X187.565 Y66.81 E.00225
G1 X188.261 Y67.028 E.00863
G1 X188.931 Y67.282 E.00846
G1 X189.596 Y67.581 E.00862
G1 X190.243 Y67.921 E.00864
G1 X190.873 Y68.302 E.0087
G1 X191.462 Y68.709 E.00846
G1 X192.025 Y69.149 E.00845
G1 X192.573 Y69.634 E.00865
G1 X193.089 Y70.148 E.00861
G1 X193.574 Y70.696 E.00864
G1 X194.032 Y71.282 E.00879
G1 X194.438 Y71.872 E.00846
G1 X194.808 Y72.483 E.00844
G1 X195.148 Y73.13 E.00864
G1 X195.451 Y73.802 E.0087
G1 X195.709 Y74.485 E.00863
G1 X195.922 Y75.167 E.00845
G1 X196.095 Y75.866 E.00851
G1 X196.228 Y76.59 E.00871
G1 X196.316 Y77.32 E.00869
G1 X196.364 Y78.313 E.01175
G1 X196.364 Y162.565 E.99567
G1 X196.321 Y163.268 E.00832
G1 X196.19 Y163.966 E.00839
G1 X195.986 Y164.599 E.00786
G1 X195.708 Y165.203 E.00786
G1 X195.336 Y165.797 E.00828
G1 X194.699 Y166.543 E.01159
G1 X186.029 Y175.078 E.14378
G1 X185.485 Y175.548 E.0085
G1 X184.919 Y175.926 E.00804
G1 X184.311 Y176.231 E.00804
G1 X183.684 Y176.455 E.00787
G1 X183.045 Y176.598 E.00774
G1 X182.107 Y176.674 E.01113
G1 X28.195 Y176.674 E1.81891
G1 X27.462 Y176.627 E.00868
G1 X26.794 Y176.5 E.00804
