;FLAVOR:Marlin
;TIME:32404
;Filament used: 21.7945m
;Layer height: 0.2
;MINX:27.966
;MINY:42.204
;MINZ:0.2
;MAXX:212.679
;MAXY:189.553
;MAXZ:12
;Generated with Cura_SteamEngine 5.4.0
M140 S90
M105
M190 S90
M104 S240
M105
M109 S240
M82 ;absolute extrusion mode
; Ender 3 Custom Start G-code
G92 E0 ; Reset Extruder
G28 ; Home all axes
G1 Z2.0 F3000 ; Move Z Axis up little to prevent scratching of Heat Bed
G1 X0.1 Y20 Z0.3 F5000.0 ; Move to start position
G1 X0.1 Y200.0 Z0.3 F1500.0 E15 ; Draw the first line
G1 X0.4 Y200.0 Z0.3 F5000.0 ; Move to side a little
G1 X0.4 Y20 Z0.3 F1500.0 E30 ; Draw the second line
G92 E0 ; Reset Extruder
G1 Z2.0 F3000 ; Move Z Axis up little to prevent scratching of Heat Bed
G1 X5 Y20 Z0.3 F5000.0 ; Move over to prevent blob squish
G92 E0
G92 E0
G1 F1500 E-1
;LAYER_COUNT:60
;LAYER:0
M107
G0 F3600 X41.963 Y47.16 Z0.2
;TYPE:SKIRT
G1 F1500 E0
G1 F1200 X42.938 Y46.282 E0.04364
G1 X43.585 Y45.768 E0.07112
G1 X44.591 Y45.06 E0.11204
G1 X45.279 Y44.634 E0.13895
G1 X46.434 Y44.013 E0.18257
G1 X47.217 Y43.652 E0.21125
G1 X48.415 Y43.185 E0.25401
G1 X49.139 Y42.952 E0.27931
G1 X50.393 Y42.629 E0.32238
G1 X51.219 Y42.467 E0.35037
G1 X52.545 Y42.29 E0.39487
G1 X53.151 Y42.246 E0.41508
G1 X53.736 Y42.221 E0.43455
G1 X54.714 Y42.205 E0.46709
G1 X185.038 Y42.204 E4.80168
G1 X185.832 Y42.214 E4.82809
G1 X186.938 Y42.266 E4.86492
G1 X188.133 Y42.399 E4.90491
G1 X189.026 Y42.554 E4.93505
G1 X190.276 Y42.85 E4.97778
G1 X191.055 Y43.084 E5.00483
G1 X192.209 Y43.507 E5.04571
G1 X193.056 Y43.878 E5.07647
G1 X194.18 Y44.455 E5.11849
G1 X194.939 Y44.906 E5.14785
G1 X195.992 Y45.623 E5.19022
G1 X196.629 Y46.116 E5.21701
G1 X197.554 Y46.918 E5.25773
G1 X198.123 Y47.472 E5.28415
G1 X199.053 Y48.501 E5.33028
G1 X199.594 Y49.183 E5.35923
G1 X200.316 Y50.211 E5.40101
G1 X200.744 Y50.906 E5.42816
G1 X201.352 Y52.04 E5.47096
G1 X201.698 Y52.791 E5.49846
G1 X202.166 Y53.995 E5.54142
G1 X202.437 Y54.841 E5.57097
G1 X202.657 Y55.636 E5.59841
G1 X202.921 Y56.759 E5.63678
G1 X203.546 Y59.254 E5.72232
G1 X204.231 Y61.697 E5.80671
G1 X204.984 Y64.116 E5.89098
G1 X205.794 Y66.479 E5.97406
G1 X206.69 Y68.874 E6.05911
G1 X207.619 Y71.158 E6.14112
G1 X208.652 Y73.504 E6.22638
G1 X209.732 Y75.78 E6.31017
G1 X210.81 Y77.924 E6.38998
G1 X211.223 Y78.816 E6.42268
G1 X211.696 Y80.029 E6.46598
G1 X211.939 Y80.783 E6.49233
G1 X212.269 Y82.066 E6.53639
G1 X212.425 Y82.876 E6.56383
G1 X212.584 Y84.071 E6.60392
G1 X212.638 Y84.796 E6.6281
G1 X212.664 Y85.398 E6.64814
G1 X212.678 Y86.272 E6.67722
G1 X212.679 Y169.283 E9.43817
G1 X212.666 Y170.166 E9.46755
G1 X212.607 Y171.138 E9.49993
G1 X212.461 Y172.101 E9.53233
G1 X212.23 Y173.048 E9.56475
G1 X211.917 Y173.969 E9.5971
G1 X211.523 Y174.861 E9.62954
G1 X211.052 Y175.714 E9.66195
G1 X210.509 Y176.52 E9.69427
G1 X209.924 Y177.245 E9.72525
G1 X209.5 Y177.7 E9.74594
G1 X208.975 Y178.232 E9.7708
G1 X201.066 Y186.015 E10.13986
G1 X200.555 Y186.503 E10.16336
G1 X199.82 Y187.143 E10.19578
G1 X199.031 Y187.714 E10.22817
G1 X198.195 Y188.214 E10.26057
G1 X197.318 Y188.638 E10.29297
G1 X196.407 Y188.982 E10.32536
G1 X195.469 Y189.244 E10.35775
G1 X194.5 Y189.424 E10.39053
G1 X193.235 Y189.528 E10.43275
G1 X192.107 Y189.552 E10.47027
G1 X39.515 Y189.553 E15.5455
G1 X38.782 Y189.541 E15.56989
G1 X37.81 Y189.482 E15.60227
G1 X36.847 Y189.336 E15.63467
G1 X35.9 Y189.105 E15.66709
G1 X35.012 Y188.805 E15.69827
G1 X34.12 Y188.415 E15.73065
G1 X33.237 Y187.928 E15.76419
G1 X32.486 Y187.426 E15.79423
G1 X31.671 Y186.768 E15.82907
G1 X30.973 Y186.09 E15.86143
G1 X30.337 Y185.353 E15.89381
G1 X29.767 Y184.563 E15.92621
G1 X29.305 Y183.787 E15.95625
G1 X28.851 Y182.845 E15.99103
G1 X28.522 Y181.967 E16.02222
G1 X28.253 Y180.994 E16.05579
G1 X28.076 Y180.027 E16.08849
G1 X27.98 Y178.862 E16.12737
G1 X27.966 Y178.212 E16.14899
G1 X27.967 Y154.431 E16.93995
G1 X27.985 Y153.402 E16.97418
G1 X28.014 Y152.713 E16.99712
G1 X28.088 Y150.121 E17.08336
G1 X28.088 Y147.609 E17.16691
G1 X27.966 Y143.55 E17.30198
G1 X27.967 Y102.43 E18.66963
G1 X27.985 Y101.401 E18.70386
G1 X28.014 Y100.712 E18.7268
G1 X28.088 Y98.12 E18.81305
G1 X28.088 Y95.608 E18.8966
G1 X27.966 Y91.548 E19.03169
G1 X27.967 Y68.364 E19.8028
G1 X27.979 Y67.627 E19.82731
G1 X28.038 Y66.655 E19.8597
G1 X28.184 Y65.692 E19.89209
G1 X28.415 Y64.745 E19.92452
G1 X28.728 Y63.824 E19.95687
G1 X29.122 Y62.932 E19.9893
G1 X29.593 Y62.079 E20.02171
G1 X30.119 Y61.297 E20.05306
G1 X30.922 Y60.325 E20.09499
G1 X31.521 Y59.683 E20.12419
G1 X32.42 Y58.744 E20.16743
G1 X34.102 Y56.883 E20.25086
G1 X35.736 Y54.968 E20.33459
G1 X37.326 Y52.996 E20.41885
G1 X38.836 Y51.009 E20.50185
G1 X39.634 Y49.905 E20.54716
G1 X40.504 Y48.76 E20.59499
G1 X41.317 Y47.819 E20.63635
G1 X41.963 Y47.16 E20.66704
G0 F3600 X42.231 Y47.457
G1 F1200 X43.187 Y46.595 E20.70986
G1 X43.815 Y46.095 E20.73655
G1 X44.802 Y45.4 E20.7767
G1 X45.469 Y44.986 E20.80281
G1 X46.602 Y44.376 E20.84561
G1 X47.362 Y44.025 E20.87346
G1 X48.538 Y43.566 E20.91544
G1 X49.262 Y43.333 E20.94074
G1 X50.47 Y43.022 E20.98223
G1 X51.296 Y42.86 E21.01023
G1 X52.574 Y42.689 E21.05311
G1 X53.168 Y42.646 E21.07292
G1 X53.743 Y42.621 E21.09206
G1 X54.714 Y42.605 E21.12436
G1 X185.033 Y42.604 E25.45879
G1 X185.814 Y42.614 E25.48477
G1 X186.894 Y42.664 E25.52073
G1 X188.089 Y42.797 E25.56072
G1 X188.934 Y42.943 E25.58924
G1 X190.161 Y43.233 E25.63117
G1 X190.917 Y43.46 E25.65743
G1 X192.071 Y43.883 E25.69831
G1 X192.873 Y44.234 E25.72742
G1 X193.997 Y44.811 E25.76945
G1 X194.714 Y45.237 E25.79719
G1 X195.748 Y45.94 E25.83877
G1 X196.367 Y46.418 E25.86478
G1 X197.275 Y47.205 E25.90475
G1 X197.844 Y47.759 E25.93116
G1 X198.74 Y48.75 E25.9756
G1 X199.267 Y49.413 E26.00377
G1 X199.976 Y50.421 E26.04476
G1 X200.392 Y51.095 E26.0711
G1 X200.989 Y52.207 E26.11308
G1 X201.325 Y52.936 E26.13978
G1 X201.785 Y54.117 E26.18193
G1 X202.051 Y54.948 E26.21095
G1 X202.271 Y55.743 E26.23839
G1 X202.533 Y56.856 E26.27642
G1 X203.161 Y59.362 E26.36235
G1 X203.849 Y61.816 E26.44711
G1 X204.602 Y64.235 E26.53138
G1 X205.419 Y66.619 E26.6152
G1 X206.315 Y69.014 E26.70025
G1 X207.253 Y71.319 E26.78302
G1 X208.286 Y73.665 E26.86827
G1 X209.375 Y75.96 E26.95276
G1 X210.447 Y78.092 E27.03213
G1 X210.85 Y78.961 E27.06399
G1 X211.315 Y80.152 E27.10652
G1 X211.558 Y80.906 E27.13287
G1 X211.876 Y82.142 E27.17531
G1 X212.028 Y82.929 E27.20197
G1 X212.187 Y84.124 E27.24207
G1 X212.238 Y84.814 E27.26508
G1 X212.264 Y85.404 E27.28472
G1 X212.278 Y86.272 E27.3136
G1 X212.279 Y169.277 E30.07436
G1 X212.267 Y170.142 E30.10313
G1 X212.211 Y171.079 E30.13435
G1 X212.072 Y172.007 E30.16556
G1 X211.851 Y172.92 E30.1968
G1 X211.551 Y173.808 E30.22798
G1 X211.173 Y174.668 E30.25922
G1 X210.72 Y175.491 E30.29047
G1 X210.197 Y176.269 E30.32165
G1 X209.631 Y176.972 E30.35167
G1 X209.215 Y177.419 E30.37197
G1 X208.694 Y177.947 E30.39665
G1 X200.79 Y185.726 E30.7655
G1 X200.292 Y186.202 E30.78841
G1 X199.585 Y186.819 E30.81962
G1 X198.825 Y187.371 E30.85086
G1 X198.02 Y187.854 E30.88209
G1 X197.176 Y188.264 E30.9133
G1 X196.299 Y188.597 E30.9445
G1 X195.395 Y188.851 E30.97573
G1 X194.467 Y189.025 E31.00713
G1 X193.226 Y189.128 E31.04855
G1 X192.107 Y189.152 E31.08578
G1 X39.521 Y189.153 E36.16081
G1 X38.806 Y189.142 E36.18459
G1 X37.869 Y189.086 E36.21581
G1 X36.941 Y188.947 E36.24702
G1 X36.028 Y188.726 E36.27826
G1 X35.172 Y188.438 E36.3083
G1 X34.28 Y188.048 E36.34068
G1 X33.459 Y187.595 E36.37187
G1 X32.708 Y187.093 E36.40192
G1 X31.949 Y186.481 E36.43434
G1 X31.275 Y185.828 E36.46556
G1 X30.661 Y185.119 E36.49675
G1 X30.111 Y184.358 E36.52798
G1 X29.649 Y183.582 E36.55802
G1 X29.226 Y182.705 E36.5904
G1 X28.897 Y181.827 E36.62159
G1 X28.646 Y180.922 E36.65283
G1 X28.475 Y179.994 E36.68421
G1 X28.379 Y178.829 E36.72309
G1 X28.366 Y178.212 E36.74362
G1 X28.367 Y154.438 E37.53434
G1 X28.385 Y153.419 E37.56824
G1 X28.414 Y152.73 E37.59118
G1 X28.488 Y150.132 E37.67762
G1 X28.488 Y147.609 E37.76154
G1 X28.366 Y143.55 E37.8966
G1 X28.367 Y102.437 E39.26402
G1 X28.385 Y101.418 E39.29792
G1 X28.414 Y100.729 E39.32086
G1 X28.488 Y98.131 E39.4073
G1 X28.488 Y95.608 E39.49122
G1 X28.366 Y91.548 E39.62632
G1 X28.367 Y68.37 E40.39722
G1 X28.378 Y67.651 E40.42114
G1 X28.434 Y66.714 E40.45236
G1 X28.573 Y65.786 E40.48357
G1 X28.794 Y64.873 E40.51481
G1 X29.094 Y63.985 E40.54598
G1 X29.472 Y63.125 E40.57723
G1 X29.925 Y62.302 E40.60847
G1 X30.428 Y61.552 E40.63851
G1 X31.215 Y60.598 E40.67964
G1 X31.81 Y59.96 E40.70866
G1 X32.709 Y59.021 E40.7519
G1 X34.399 Y57.151 E40.83573
G1 X36.04 Y55.228 E40.91981
G1 X37.637 Y53.247 E41.00444
G1 X39.154 Y51.251 E41.08783
G1 X39.952 Y50.147 E41.13314
G1 X40.807 Y49.022 E41.18013
G1 X41.62 Y48.081 E41.22149
G1 X42.231 Y47.457 E41.25054
G0 F3600 X42.499 Y47.754
G1 F1200 X43.436 Y46.908 E41.29253
G1 X44.046 Y46.422 E41.31847
G1 X45.013 Y45.74 E41.35783
G1 X45.659 Y45.338 E41.38313
G1 X46.77 Y44.739 E41.42511
G1 X47.508 Y44.398 E41.45215
G1 X48.661 Y43.947 E41.49333
G1 X49.385 Y43.714 E41.51863
G1 X50.547 Y43.415 E41.55854
G1 X51.373 Y43.253 E41.58653
G1 X52.603 Y43.088 E41.62781
G1 X53.186 Y43.046 E41.64725
G1 X53.75 Y43.021 E41.66603
G1 X54.714 Y43.005 E41.69809
G1 X185.028 Y43.004 E46.03236
G1 X185.796 Y43.014 E46.0579
G1 X186.85 Y43.062 E46.09299
G1 X188.045 Y43.195 E46.13299
G1 X188.842 Y43.332 E46.15988
G1 X190.046 Y43.616 E46.20103
G1 X190.779 Y43.836 E46.22648
G1 X191.933 Y44.259 E46.26736
G1 X192.69 Y44.59 E46.29484
G1 X193.814 Y45.167 E46.33686
G1 X194.489 Y45.568 E46.36298
G1 X195.504 Y46.257 E46.40378
G1 X196.105 Y46.72 E46.42901
G1 X196.996 Y47.492 E46.46822
G1 X197.565 Y48.046 E46.49464
G1 X198.427 Y48.999 E46.53738
G1 X198.94 Y49.643 E46.56476
G1 X199.636 Y50.631 E46.60496
G1 X200.04 Y51.284 E46.6305
G1 X200.626 Y52.375 E46.67169
G1 X200.952 Y53.081 E46.69755
G1 X201.404 Y54.239 E46.7389
G1 X201.666 Y55.055 E46.7674
G1 X201.882 Y55.835 E46.79432
G1 X202.145 Y56.953 E46.83252
G1 X202.776 Y59.47 E46.91883
G1 X203.467 Y61.935 E47.00397
G1 X204.22 Y64.354 E47.08824
G1 X205.044 Y66.759 E47.17279
G1 X205.94 Y69.154 E47.25784
G1 X206.887 Y71.48 E47.34137
G1 X207.925 Y73.837 E47.42703
G1 X209.018 Y76.14 E47.51182
G1 X210.084 Y78.261 E47.59077
G1 X210.477 Y79.107 E47.6218
G1 X210.934 Y80.275 E47.66351
G1 X211.177 Y81.029 E47.68986
G1 X211.483 Y82.218 E47.7307
G1 X211.631 Y82.982 E47.75658
G1 X211.79 Y84.177 E47.79668
G1 X211.838 Y84.832 E47.81852
G1 X211.864 Y85.411 E47.8378
G1 X211.878 Y86.272 E47.86644
G1 X211.879 Y169.272 E50.62703
G1 X211.868 Y170.119 E50.6552
G1 X211.815 Y171.021 E50.68525
G1 X211.683 Y171.914 E50.71528
G1 X211.472 Y172.792 E50.74531
G1 X211.184 Y173.648 E50.77535
G1 X210.822 Y174.476 E50.80541
G1 X210.388 Y175.268 E50.83544
G1 X209.885 Y176.018 E50.86548
G1 X209.319 Y176.721 E50.8955
G1 X208.93 Y177.138 E50.91447
G1 X208.413 Y177.662 E50.93895
G1 X200.513 Y185.437 E51.30761
G1 X200.028 Y185.901 E51.32994
G1 X199.349 Y186.496 E51.35997
G1 X198.619 Y187.028 E51.39001
G1 X197.845 Y187.494 E51.42006
G1 X197.033 Y187.89 E51.45011
G1 X196.19 Y188.212 E51.48012
G1 X195.321 Y188.458 E51.51016
G1 X194.434 Y188.626 E51.54018
G1 X193.193 Y188.729 E51.5816
G1 X192.107 Y188.752 E51.61773
G1 X39.527 Y188.753 E56.69256
G1 X38.829 Y188.743 E56.71578
G1 X37.927 Y188.69 E56.74583
G1 X37.034 Y188.558 E56.77586
G1 X36.156 Y188.347 E56.80589
G1 X35.3 Y188.059 E56.83593
G1 X34.473 Y187.697 E56.86596
G1 X33.681 Y187.262 E56.89601
G1 X32.93 Y186.76 E56.92605
G1 X32.227 Y186.193 E56.95609
G1 X31.577 Y185.566 E56.98613
G1 X30.985 Y184.884 E57.01617
G1 X30.455 Y184.153 E57.0462
G1 X29.993 Y183.377 E57.07624
G1 X29.6 Y182.564 E57.10627
G1 X29.282 Y181.719 E57.1363
G1 X29.039 Y180.849 E57.16634
G1 X28.874 Y179.961 E57.19638
G1 X28.779 Y178.82 E57.23447
G1 X28.766 Y178.212 E57.25469
G1 X28.767 Y154.445 E58.04519
G1 X28.785 Y153.436 E58.07875
G1 X28.814 Y152.747 E58.10169
G1 X28.888 Y150.143 E58.18833
G1 X28.888 Y147.609 E58.27261
G1 X28.766 Y143.55 E58.40768
G1 X28.767 Y102.444 E59.77487
G1 X28.785 Y101.435 E59.80843
G1 X28.814 Y100.746 E59.83137
G1 X28.888 Y98.142 E59.91801
G1 X28.888 Y95.608 E60.0023
G1 X28.766 Y91.548 E60.13739
G1 X28.767 Y68.376 E60.9081
G1 X28.777 Y67.674 E60.93145
G1 X28.83 Y66.772 E60.9615
G1 X28.962 Y65.879 E60.99152
G1 X29.173 Y65.001 E61.02156
G1 X29.461 Y64.145 E61.0516
G1 X29.823 Y63.317 E61.08165
G1 X30.257 Y62.525 E61.11169
G1 X30.76 Y61.775 E61.14173
G1 X31.508 Y60.871 E61.18075
G1 X32.099 Y60.237 E61.20958
G1 X32.998 Y59.298 E61.25282
G1 X34.696 Y57.419 E61.33705
G1 X36.344 Y55.488 E61.42149
G1 X37.948 Y53.498 E61.5065
G1 X39.472 Y51.493 E61.59026
G1 X40.27 Y50.389 E61.63557
G1 X41.11 Y49.284 E61.68173
G1 X41.923 Y48.343 E61.7231
G1 X42.499 Y47.754 E61.7505
G1 F1500 E60.7505
;MESH:RightPCB.stl
G0 F3600 X74.446 Y86.172
G0 X75.345 Y88.105
G0 X75.51 Y88.308
G0 X76.941 Y89.587
;TYPE:WALL-INNER
G1 F1500 E61.7505
G1 F1200 X76.148 Y89.427 E61.7774
G1 X75.883 Y89.301 E61.78716
G1 X75.394 Y88.976 E61.80669
G1 X75.167 Y88.78 E61.81667
G1 X74.851 Y88.369 E61.83391
G1 X74.583 Y87.73 E61.85696
G1 X74.521 Y87.484 E61.86539
G1 X74.484 Y87.112 E61.87783
G1 X74.498 Y86.838 E61.88695
G1 X74.625 Y86.191 E61.90888
G1 X74.748 Y85.925 E61.91863
G1 X75.011 Y85.487 E61.93562
G1 X75.366 Y85.113 E61.95277
G1 X75.582 Y84.962 E61.96154
G1 X76.081 Y84.695 E61.98036
G1 X76.402 Y84.58 E61.9917
G1 X77.052 Y84.519 E62.01342
G1 X77.36 Y84.538 E62.02368
G1 X77.929 Y84.68 E62.04319
G1 X78.35 Y84.899 E62.05897
G1 X78.585 Y85.075 E62.06874
G1 X78.973 Y85.462 E62.08696
G1 X79.177 Y85.729 E62.09814
G1 X79.438 Y86.368 E62.1211
G1 X79.504 Y86.622 E62.12982
G1 X79.537 Y87.277 E62.15164
G1 X79.37 Y87.963 E62.17512
G1 X79.158 Y88.37 E62.19038
G1 X79.007 Y88.583 E62.19907
G1 X78.572 Y89.022 E62.21962
G1 X78.327 Y89.207 E62.22983
G1 X77.745 Y89.454 E62.25086
G1 X77.459 Y89.533 E62.26073
G1 X76.941 Y89.587 E62.27805
G0 F3600 X76.969 Y89.185
G1 F1200 X76.282 Y89.045 E62.30137
G1 X76.081 Y88.954 E62.30871
G1 X75.511 Y88.565 E62.33166
G1 X75.218 Y88.201 E62.3472
G1 X74.933 Y87.533 E62.37136
G1 X74.87 Y87.001 E62.38918
G1 X75.03 Y86.241 E62.41501
G1 X75.333 Y85.725 E62.43491
G1 X75.695 Y85.358 E62.45206
G1 X76.253 Y85.056 E62.47316
G1 X76.478 Y84.976 E62.4811
G1 X77.021 Y84.922 E62.49925
G1 X77.291 Y84.932 E62.50824
G1 X77.803 Y85.06 E62.52579
G1 X78.24 Y85.293 E62.54226
G1 X78.783 Y85.836 E62.5678
G1 X79.049 Y86.468 E62.59061
G1 X79.11 Y86.744 E62.60001
G1 X79.132 Y87.258 E62.61712
G1 X78.994 Y87.819 E62.63634
G1 X78.755 Y88.272 E62.65337
G1 X78.315 Y88.715 E62.67414
G1 X78.045 Y88.893 E62.6849
G1 X77.499 Y89.124 E62.70462
G1 X76.969 Y89.185 E62.72236
G0 F3600 X78.192 Y88.696
G0 X77.98 Y88.484
G1 F1200 X77.377 Y88.74 E62.74415
G1 X76.98 Y88.779 E62.75742
G1 X76.324 Y88.638 E62.77973
G1 X75.803 Y88.287 E62.80063
G1 X75.553 Y87.98 E62.8138
G1 X75.323 Y87.416 E62.83405
G1 X75.277 Y87.02 E62.84731
G1 X75.4 Y86.393 E62.86857
G1 X75.658 Y85.96 E62.88533
G1 X75.93 Y85.684 E62.89822
G1 X76.508 Y85.373 E62.92005
G1 X77.165 Y85.311 E62.942
G1 X77.671 Y85.445 E62.95941
G1 X77.99 Y85.612 E62.97138
G1 X78.451 Y86.071 E62.99302
G1 X78.705 Y86.683 E63.01506
G1 X78.731 Y87.222 E63.03301
G1 X78.613 Y87.681 E63.04877
G1 X78.436 Y88.028 E63.06173
G1 X77.98 Y88.484 E63.08317
G1 F1500 E62.08317
G0 F3600 X78.192 Y88.696
G0 X77.521 Y89.712
G0 X77.941 Y146.714
G0 X78.925 Y148.84
G0 X78.961 Y149.202
G0 X78.678 Y151.172
G1 F1500 E63.08317
G1 F1200 X78.167 Y151.519 E63.10372
G1 X77.623 Y151.717 E63.12297
G1 X77.303 Y151.774 E63.13378
G1 X76.701 Y151.774 E63.15381
G1 X76.388 Y151.73 E63.16432
G1 X75.689 Y151.437 E63.18953
G1 X75.425 Y151.238 E63.20052
G1 X75.021 Y150.83 E63.21962
G1 X74.867 Y150.623 E63.2282
G1 X74.698 Y150.31 E63.24003
G1 X74.604 Y150.053 E63.24914
G1 X74.493 Y149.513 E63.26747
G1 X74.474 Y149.215 E63.2774
G1 X74.525 Y148.707 E63.29438
G1 X74.809 Y148.007 E63.31951
G1 X74.988 Y147.745 E63.33006
G1 X75.503 Y147.218 E63.35457
G1 X75.958 Y146.963 E63.37192
G1 X76.266 Y146.856 E63.38276
G1 X76.857 Y146.739 E63.4028
G1 X77.179 Y146.75 E63.41352
G1 X77.882 Y146.886 E63.43733
G1 X78.334 Y147.12 E63.45426
G1 X78.59 Y147.313 E63.46493
G1 X79.044 Y147.772 E63.4864
